template/capabilities/color/luts/film-kodak2383.cube
# house LUT — Film Kodak 2383 (generated by _generate-luts.py)
TITLE "Film Kodak 2383"
LUT_3D_SIZE 5
DOMAIN_MIN 0.0 0.0 0.0
DOMAIN_MAX 1.0 1.0 1.0
0.000325 0.000315 0.000306
0.237492 0.006802 0.006598
0.487551 0.013640 0.013231
0.737609 0.020479 0.019865
0.974776 0.026965 0.026156
0.007006 0.230575 0.006598
0.244173 0.237061 0.012889
0.494231 0.243900 0.019523
0.744290 0.250739 0.026156
0.981457 0.257225 0.032448
0.014050 0.473350 0.013231
0.251217 0.479836 0.019523
0.501275 0.486675 0.026156
0.751334 0.493514 0.032790
0.988501 0.500000 0.039081
0.021093 0.716125 0.019865
0.258261 0.722611 0.026156
0.508319 0.729450 0.032790
0.758377 0.736289 0.039423
0.995545 0.742775 0.045715
0.027774 0.946385 0.026156
0.264942 0.952871 0.032448
0.515000 0.959710 0.039081
0.765058 0.966549 0.045715
1.000000 0.973035 0.052007
0.007006 0.006802 0.223658
0.244173 0.013288 0.229949
0.494231 0.020127 0.236583
0.744290 0.026965 0.243217
0.981457 0.033451 0.249508
0.013686 0.237061 0.229949
0.250854 0.243548 0.236241
0.500912 0.250386 0.242875
0.750970 0.257225 0.249508
0.988138 0.263711 0.255800
0.020730 0.479836 0.236583
0.257898 0.486323 0.242875
0.507956 0.493161 0.249508
0.758014 0.500000 0.256142
0.995182 0.506486 0.262433
0.027774 0.722611 0.243217
0.264942 0.729098 0.249508
0.515000 0.735936 0.256142
0.765058 0.742775 0.262775
1.000000 0.749261 0.269067
0.034455 0.952871 0.249508
0.271623 0.959357 0.255800
0.521681 0.966196 0.262433
0.771739 0.973035 0.269067
1.000000 0.979521 0.275359
0.014050 0.013640 0.459150
0.251217 0.020127 0.465441
0.501275 0.026965 0.472075
0.751334 0.033804 0.478708
0.988501 0.040290 0.485000
0.020730 0.243900 0.465441
0.257898 0.250386 0.471733
0.507956 0.257225 0.478366
0.758014 0.264064 0.485000
0.995182 0.270550 0.491292
0.027774 0.486675 0.472075
0.264942 0.493161 0.478366
0.515000 0.500000 0.485000
0.765058 0.506839 0.491634
1.000000 0.513325 0.497925
0.034818 0.729450 0.478708
0.271986 0.735936 0.485000
0.522044 0.742775 0.491634
0.772102 0.749614 0.498267
1.000000 0.756100 0.504559
0.041499 0.959710 0.485000
0.278666 0.966196 0.491292
0.528725 0.973035 0.497925
0.778783 0.979873 0.504559
1.000000 0.986360 0.510850
0.021093 0.020479 0.694641
0.258261 0.026965 0.700933
0.508319 0.033804 0.707567
0.758377 0.040643 0.714200
0.995545 0.047129 0.720492
0.027774 0.250739 0.700933
0.264942 0.257225 0.707225
0.515000 0.264064 0.713858
0.765058 0.270902 0.720492
1.000000 0.277389 0.726783
0.034818 0.493514 0.707567
0.271986 0.500000 0.713858
0.522044 0.506839 0.720492
0.772102 0.513677 0.727125
1.000000 0.520164 0.733417
0.041862 0.736289 0.714200
0.279030 0.742775 0.720492
0.529088 0.749614 0.727125
0.779146 0.756452 0.733759
1.000000 0.762939 0.740051
0.048543 0.966549 0.720492
0.285710 0.973035 0.726783
0.535769 0.979873 0.733417
0.785827 0.986712 0.740051
1.000000 0.993198 0.746342
0.027774 0.026965 0.917993
0.264942 0.033451 0.924285
0.515000 0.040290 0.930919
0.765058 0.047129 0.937552
1.000000 0.053615 0.943844
0.034455 0.257225 0.924285
0.271623 0.263711 0.930577
0.521681 0.270550 0.937210
0.771739 0.277389 0.943844
1.000000 0.283875 0.950135
0.041499 0.500000 0.930919
0.278666 0.506486 0.937210
0.528725 0.513325 0.943844
0.778783 0.520164 0.950477
1.000000 0.526650 0.956769
0.048543 0.742775 0.937552
0.285710 0.749261 0.943844
0.535769 0.756100 0.950477
0.785827 0.762939 0.957111
1.000000 0.769425 0.963402
0.055224 0.973035 0.943844
0.292391 0.979521 0.950135
0.542449 0.986360 0.956769
0.792508 0.993198 0.963402
1.000000 0.999685 0.969694
