template/capabilities/color/luts/film-kodak2383.cube
# house LUT — Film Kodak 2383 (generated by _generate-luts.py)
TITLE "Film Kodak 2383"
LUT_3D_SIZE 9
DOMAIN_MIN 0.0 0.0 0.0
DOMAIN_MAX 1.0 1.0 1.0
0.000325 0.000315 0.000306
0.116683 0.003498 0.003393
0.237492 0.006802 0.006598
0.361632 0.010197 0.009891
0.487551 0.013640 0.013231
0.613470 0.017084 0.016572
0.737609 0.020479 0.019865
0.858418 0.023783 0.023070
0.974776 0.026965 0.026156
0.003603 0.113285 0.003393
0.119961 0.116467 0.006479
0.240770 0.119771 0.009684
0.364909 0.123166 0.012978
0.490828 0.126610 0.016318
0.616747 0.130054 0.019658
0.740887 0.133449 0.022951
0.861696 0.136753 0.026156
0.978054 0.139935 0.029243
0.007006 0.230575 0.006598
0.123364 0.233757 0.009684
0.244173 0.237061 0.012889
0.368312 0.240456 0.016182
0.494231 0.243900 0.019523
0.620151 0.247344 0.022863
0.744290 0.250739 0.026156
0.865099 0.254043 0.029361
0.981457 0.257225 0.032448
0.010503 0.351099 0.009891
0.126861 0.354281 0.012978
0.247670 0.357585 0.016182
0.371809 0.360980 0.019476
0.497728 0.364423 0.022816
0.623647 0.367867 0.026156
0.747787 0.371262 0.029449
0.868596 0.374566 0.032654
0.984954 0.377748 0.035741
0.014050 0.473350 0.013231
0.130408 0.476532 0.016318
0.251217 0.479836 0.019523
0.375356 0.483231 0.022816
0.501275 0.486675 0.026156
0.627194 0.490119 0.029497
0.751334 0.493514 0.032790
0.872143 0.496818 0.035995
0.988501 0.500000 0.039081
0.017597 0.595602 0.016572
0.133955 0.598784 0.019658
0.254764 0.602088 0.022863
0.378903 0.605483 0.026156
0.504822 0.608927 0.029497
0.630741 0.612370 0.032837
0.754881 0.615765 0.036130
0.875690 0.619069 0.039335
0.992048 0.622252 0.042422
0.021093 0.716125 0.019865
0.137452 0.719307 0.022951
0.258261 0.722611 0.026156
0.382400 0.726006 0.029449
0.508319 0.729450 0.032790
0.634238 0.732894 0.036130
0.758377 0.736289 0.039423
0.879186 0.739593 0.042628
0.995545 0.742775 0.045715
0.024497 0.833415 0.023070
0.140855 0.836598 0.026156
0.261664 0.839902 0.029361
0.385803 0.843297 0.032654
0.511722 0.846740 0.035995
0.637641 0.850184 0.039335
0.761781 0.853579 0.042628
0.882590 0.856883 0.045833
0.998948 0.860065 0.048920
0.027774 0.946385 0.026156
0.144133 0.949567 0.029243
0.264942 0.952871 0.032448
0.389081 0.956266 0.035741
0.515000 0.959710 0.039081
0.640919 0.963154 0.042422
0.765058 0.966549 0.045715
0.885867 0.969853 0.048920
1.000000 0.973035 0.052007
0.003603 0.003498 0.109886
0.119961 0.006680 0.112973
0.240770 0.009984 0.116178
0.364909 0.013379 0.119471
0.490828 0.016823 0.122812
0.616747 0.020266 0.126152
0.740887 0.023661 0.129445
0.861696 0.026965 0.132650
0.978054 0.030147 0.135737
0.006880 0.116467 0.112973
0.123239 0.119649 0.116060
0.244048 0.122953 0.119265
0.368187 0.126348 0.122558
0.494106 0.129792 0.125898
0.620025 0.133236 0.129239
0.744164 0.136631 0.132532
0.864973 0.139935 0.135737
0.981332 0.143117 0.138823
0.010283 0.233757 0.116178
0.126642 0.236940 0.119265
0.247451 0.240244 0.122470
0.371590 0.243639 0.125763
0.497509 0.247082 0.129103
0.623428 0.250526 0.132444
0.747567 0.253921 0.135737
0.868376 0.257225 0.138942
0.984735 0.260407 0.142028
0.013780 0.354281 0.119471
0.130139 0.357463 0.122558
0.250948 0.360767 0.125763
0.375087 0.364162 0.129056
0.501006 0.367606 0.132396
0.626925 0.371049 0.135737
0.751064 0.374444 0.139030
0.871873 0.377748 0.142235
0.988232 0.380931 0.145321
0.017327 0.476532 0.122812
0.133686 0.479715 0.125898
0.254495 0.483019 0.129103
0.378634 0.486414 0.132396
0.504553 0.489857 0.135737
0.630472 0.493301 0.139077
0.754611 0.496696 0.142370
0.875420 0.500000 0.145575
0.991779 0.503182 0.148662
0.020874 0.598784 0.126152
0.137233 0.601966 0.129239
0.258042 0.605270 0.132444
0.382181 0.608665 0.135737
0.508100 0.612109 0.139077
0.634019 0.615553 0.142417
0.758158 0.618948 0.145711
0.878967 0.622252 0.148915
0.995326 0.625434 0.152002
0.024371 0.719307 0.129445
0.140730 0.722490 0.132532
0.261539 0.725794 0.135737
0.385678 0.729189 0.139030
0.511597 0.732632 0.142370
0.637516 0.736076 0.145711
0.761655 0.739471 0.149004
0.882464 0.742775 0.152209
0.998823 0.745957 0.155295
0.027774 0.836598 0.132650
0.144133 0.839780 0.135737
0.264942 0.843084 0.138942
0.389081 0.846479 0.142235
0.515000 0.849923 0.145575
0.640919 0.853366 0.148915
0.765058 0.856761 0.152209
0.885867 0.860065 0.155414
1.000000 0.863247 0.158500
0.031052 0.949567 0.135737
0.147410 0.952749 0.138823
0.268219 0.956053 0.142028
0.392359 0.959448 0.145321
0.518278 0.962892 0.148662
0.644197 0.966336 0.152002
0.768336 0.969731 0.155295
0.889145 0.973035 0.158500
1.000000 0.976217 0.161587
0.007006 0.006802 0.223658
0.123364 0.009984 0.226745
0.244173 0.013288 0.229949
0.368312 0.016683 0.233243
0.494231 0.020127 0.236583
0.620151 0.023570 0.239923
0.744290 0.026965 0.243217
0.865099 0.030269 0.246421
0.981457 0.033451 0.249508
0.010283 0.119771 0.226745
0.126642 0.122953 0.229831
0.247451 0.126257 0.233036
0.371590 0.129652 0.236329
0.497509 0.133096 0.239670
0.623428 0.136540 0.243010
0.747567 0.139935 0.246303
0.868376 0.143239 0.249508
0.984735 0.146421 0.252595
0.013686 0.237061 0.229949
0.130045 0.240244 0.233036
0.250854 0.243548 0.236241
0.374993 0.246943 0.239534
0.500912 0.250386 0.242875
0.626831 0.253830 0.246215
0.750970 0.257225 0.249508
0.871779 0.260529 0.252713
0.988138 0.263711 0.255800
0.017183 0.357585 0.233243
0.133542 0.360767 0.236329
0.254351 0.364071 0.239534
0.378490 0.367466 0.242827
0.504409 0.370910 0.246168
0.630328 0.374353 0.249508
0.754467 0.377748 0.252801
0.875276 0.381052 0.256006
0.991635 0.384235 0.259093
0.020730 0.479836 0.236583
0.137089 0.483019 0.239670
0.257898 0.486323 0.242875
0.382037 0.489718 0.246168
0.507956 0.493161 0.249508
0.633875 0.496605 0.252849
0.758014 0.500000 0.256142
0.878823 0.503304 0.259347
0.995182 0.506486 0.262433
0.024277 0.602088 0.239923
0.140636 0.605270 0.243010
0.261445 0.608574 0.246215
0.385584 0.611969 0.249508
0.511503 0.615413 0.252849
0.637422 0.618857 0.256189
0.761561 0.622252 0.259482
0.882370 0.625556 0.262687
0.998729 0.628738 0.265774
0.027774 0.722611 0.243217
0.144133 0.725794 0.246303
0.264942 0.729098 0.249508
0.389081 0.732493 0.252801
0.515000 0.735936 0.256142
0.640919 0.739380 0.259482
0.765058 0.742775 0.262775
0.885867 0.746079 0.265980
1.000000 0.749261 0.269067
0.031177 0.839902 0.246421
0.147536 0.843084 0.249508
0.268345 0.846388 0.252713
0.392484 0.849783 0.256006
0.518403 0.853227 0.259347
0.644322 0.856670 0.262687
0.768461 0.860065 0.265980
0.889270 0.863369 0.269185
1.000000 0.866551 0.272272
0.034455 0.952871 0.249508
0.150814 0.956053 0.252595
0.271623 0.959357 0.255800
0.395762 0.962752 0.259093
0.521681 0.966196 0.262433
0.647600 0.969640 0.265774
0.771739 0.973035 0.269067
0.892548 0.976339 0.272272
1.000000 0.979521 0.275359
0.010503 0.010197 0.340566
0.126861 0.013379 0.343652
0.247670 0.016683 0.346857
0.371809 0.020078 0.350150
0.497728 0.023522 0.353491
0.623647 0.026965 0.356831
0.747787 0.030360 0.360124
0.868596 0.033664 0.363329
0.984954 0.036846 0.366416
0.013780 0.123166 0.343652
0.130139 0.126348 0.346739
0.250948 0.129652 0.349944
0.375087 0.133047 0.353237
0.501006 0.136491 0.356578
0.626925 0.139935 0.359918
0.751064 0.143330 0.363211
0.871873 0.146634 0.366416
0.988232 0.149816 0.369503
0.017183 0.240456 0.346857
0.133542 0.243639 0.349944
0.254351 0.246943 0.353149
0.378490 0.250338 0.356442
0.504409 0.253781 0.359782
0.630328 0.257225 0.363123
0.754467 0.260620 0.366416
0.875276 0.263924 0.369621
0.991635 0.267106 0.372708
0.020680 0.360980 0.350150
0.137039 0.364162 0.353237
0.257848 0.367466 0.356442
0.381987 0.370861 0.359735
0.507906 0.374305 0.363076
0.633825 0.377748 0.366416
0.757964 0.381143 0.369709
0.878773 0.384447 0.372914
0.995132 0.387630 0.376001
0.024227 0.483231 0.353491
0.140586 0.486414 0.356578
0.261395 0.489718 0.359782
0.385534 0.493113 0.363076
0.511453 0.496556 0.366416
0.637372 0.500000 0.369756
0.761511 0.503395 0.373050
0.882320 0.506699 0.376254
0.998679 0.509881 0.379341
0.027774 0.605483 0.356831
0.144133 0.608665 0.359918
0.264942 0.611969 0.363123
0.389081 0.615364 0.366416
0.515000 0.618808 0.369756
0.640919 0.622252 0.373097
0.765058 0.625647 0.376390
0.885867 0.628951 0.379595
1.000000 0.632133 0.382682
0.031271 0.726006 0.360124
0.147630 0.729189 0.363211
0.268439 0.732493 0.366416
0.392578 0.735888 0.369709
0.518497 0.739331 0.373050
0.644416 0.742775 0.376390
0.768555 0.746170 0.379683
0.889364 0.749474 0.382888
1.000000 0.752656 0.385975
0.034674 0.843297 0.363329
0.151033 0.846479 0.366416
0.271842 0.849783 0.369621
0.395981 0.853178 0.372914
0.521900 0.856622 0.376254
0.647819 0.860065 0.379595
0.771958 0.863460 0.382888
0.892767 0.866764 0.386093
1.000000 0.869946 0.389180
0.037952 0.956266 0.366416
0.154310 0.959448 0.369503
0.275119 0.962752 0.372708
0.399259 0.966147 0.376001
0.525178 0.969591 0.379341
0.651097 0.973035 0.382682
0.775236 0.976430 0.385975
0.896045 0.979734 0.389180
1.000000 0.982916 0.392266
0.014050 0.013640 0.459150
0.130408 0.016823 0.462236
0.251217 0.020127 0.465441
0.375356 0.023522 0.468734
0.501275 0.026965 0.472075
0.627194 0.030409 0.475415
0.751334 0.033804 0.478708
0.872143 0.037108 0.481913
0.988501 0.040290 0.485000
0.017327 0.126610 0.462236
0.133686 0.129792 0.465323
0.254495 0.133096 0.468528
0.378634 0.136491 0.471821
0.504553 0.139935 0.475162
0.630472 0.143378 0.478502
0.754611 0.146773 0.481795
0.875420 0.150077 0.485000
0.991779 0.153260 0.488087
0.020730 0.243900 0.465441
0.137089 0.247082 0.468528
0.257898 0.250386 0.471733
0.382037 0.253781 0.475026
0.507956 0.257225 0.478366
0.633875 0.260669 0.481707
0.758014 0.264064 0.485000
0.878823 0.267368 0.488205
0.995182 0.270550 0.491292
0.024227 0.364423 0.468734
0.140586 0.367606 0.471821
0.261395 0.370910 0.475026
0.385534 0.374305 0.478319
0.511453 0.377748 0.481660
0.637372 0.381192 0.485000
0.761511 0.384587 0.488293
0.882320 0.387891 0.491498
0.998679 0.391073 0.494585
0.027774 0.486675 0.472075
0.144133 0.489857 0.475162
0.264942 0.493161 0.478366
0.389081 0.496556 0.481660
0.515000 0.500000 0.485000
0.640919 0.503444 0.488340
0.765058 0.506839 0.491634
0.885867 0.510143 0.494838
1.000000 0.513325 0.497925
0.031321 0.608927 0.475415
0.147680 0.612109 0.478502
0.268489 0.615413 0.481707
0.392628 0.618808 0.485000
0.518547 0.622252 0.488340
0.644466 0.625695 0.491681
0.768605 0.629090 0.494974
0.889414 0.632394 0.498179
1.000000 0.635577 0.501266
0.034818 0.729450 0.478708
0.151177 0.732632 0.481795
0.271986 0.735936 0.485000
0.396125 0.739331 0.488293
0.522044 0.742775 0.491634
0.647963 0.746219 0.494974
0.772102 0.749614 0.498267
0.892911 0.752918 0.501472
1.000000 0.756100 0.504559
0.038221 0.846740 0.481913
0.154580 0.849923 0.485000
0.275389 0.853227 0.488205
0.399528 0.856622 0.491498
0.525447 0.860065 0.494838
0.651366 0.863509 0.498179
0.775505 0.866904 0.501472
0.896314 0.870208 0.504677
1.000000 0.873390 0.507764
0.041499 0.959710 0.485000
0.157857 0.962892 0.488087
0.278666 0.966196 0.491292
0.402806 0.969591 0.494585
0.528725 0.973035 0.497925
0.654644 0.976478 0.501266
0.778783 0.979873 0.504559
0.899592 0.983177 0.507764
1.000000 0.986360 0.510850
0.017597 0.017084 0.577734
0.133955 0.020266 0.580820
0.254764 0.023570 0.584025
0.378903 0.026965 0.587318
0.504822 0.030409 0.590659
0.630741 0.033853 0.593999
0.754881 0.037248 0.597292
0.875690 0.040552 0.600497
0.992048 0.043734 0.603584
0.020874 0.130054 0.580820
0.137233 0.133236 0.583907
0.258042 0.136540 0.587112
0.382181 0.139935 0.590405
0.508100 0.143378 0.593746
0.634019 0.146822 0.597086
0.758158 0.150217 0.600379
0.878967 0.153521 0.603584
0.995326 0.156703 0.606671
0.024277 0.247344 0.584025
0.140636 0.250526 0.587112
0.261445 0.253830 0.590317
0.385584 0.257225 0.593610
0.511503 0.260669 0.596950
0.637422 0.264112 0.600291
0.761561 0.267507 0.603584
0.882370 0.270811 0.606789
0.998729 0.273994 0.609876
0.027774 0.367867 0.587318
0.144133 0.371049 0.590405
0.264942 0.374353 0.593610
0.389081 0.377748 0.596903
0.515000 0.381192 0.600244
0.640919 0.384636 0.603584
0.765058 0.388031 0.606877
0.885867 0.391335 0.610082
1.000000 0.394517 0.613169
0.031321 0.490119 0.590659
0.147680 0.493301 0.593746
0.268489 0.496605 0.596950
0.392628 0.500000 0.600244
0.518547 0.503444 0.603584
0.644466 0.506887 0.606924
0.768605 0.510282 0.610218
0.889414 0.513586 0.613422
1.000000 0.516769 0.616509
0.034868 0.612370 0.593999
0.151227 0.615553 0.597086
0.272036 0.618857 0.600291
0.396175 0.622252 0.603584
0.522094 0.625695 0.606924
0.648013 0.629139 0.610265
0.772152 0.632534 0.613558
0.892961 0.635838 0.616763
1.000000 0.639020 0.619850
0.038365 0.732894 0.597292
0.154724 0.736076 0.600379
0.275533 0.739380 0.603584
0.399672 0.742775 0.606877
0.525591 0.746219 0.610218
0.651510 0.749662 0.613558
0.775649 0.753057 0.616851
0.896458 0.756361 0.620056
1.000000 0.759544 0.623143
0.041768 0.850184 0.600497
0.158127 0.853366 0.603584
0.278936 0.856670 0.606789
0.403075 0.860065 0.610082
0.528994 0.863509 0.613422
0.654913 0.866953 0.616763
0.779052 0.870348 0.620056
0.899861 0.873652 0.623261
1.000000 0.876834 0.626348
0.045046 0.963154 0.603584
0.161404 0.966336 0.606671
0.282213 0.969640 0.609876
0.406353 0.973035 0.613169
0.532272 0.976478 0.616509
0.658191 0.979922 0.619850
0.782330 0.983317 0.623143
0.903139 0.986621 0.626348
1.000000 0.989803 0.629434
0.021093 0.020479 0.694641
0.137452 0.023661 0.697728
0.258261 0.026965 0.700933
0.382400 0.030360 0.704226
0.508319 0.033804 0.707567
0.634238 0.037248 0.710907
0.758377 0.040643 0.714200
0.879186 0.043947 0.717405
0.995545 0.047129 0.720492
0.024371 0.133449 0.697728
0.140730 0.136631 0.700815
0.261539 0.139935 0.704020
0.385678 0.143330 0.707313
0.511597 0.146773 0.710653
0.637516 0.150217 0.713994
0.761655 0.153612 0.717287
0.882464 0.156916 0.720492
0.998823 0.160098 0.723579
0.027774 0.250739 0.700933
0.144133 0.253921 0.704020
0.264942 0.257225 0.707225
0.389081 0.260620 0.710518
0.515000 0.264064 0.713858
0.640919 0.267507 0.717199
0.765058 0.270902 0.720492
0.885867 0.274206 0.723697
1.000000 0.277389 0.726783
0.031271 0.371262 0.704226
0.147630 0.374444 0.707313
0.268439 0.377748 0.710518
0.392578 0.381143 0.713811
0.518497 0.384587 0.717151
0.644416 0.388031 0.720492
0.768555 0.391426 0.723785
0.889364 0.394730 0.726990
1.000000 0.397912 0.730077
0.034818 0.493514 0.707567
0.151177 0.496696 0.710653
0.271986 0.500000 0.713858
0.396125 0.503395 0.717151
0.522044 0.506839 0.720492
0.647963 0.510282 0.723832
0.772102 0.513677 0.727125
0.892911 0.516981 0.730330
1.000000 0.520164 0.733417
0.038365 0.615765 0.710907
0.154724 0.618948 0.713994
0.275533 0.622252 0.717199
0.399672 0.625647 0.720492
0.525591 0.629090 0.723832
0.651510 0.632534 0.727173
0.775649 0.635929 0.730466
0.896458 0.639233 0.733671
1.000000 0.642415 0.736757
0.041862 0.736289 0.714200
0.158221 0.739471 0.717287
0.279030 0.742775 0.720492
0.403169 0.746170 0.723785
0.529088 0.749614 0.727125
0.655007 0.753057 0.730466
0.779146 0.756452 0.733759
0.899955 0.759756 0.736964
1.000000 0.762939 0.740051
0.045265 0.853579 0.717405
0.161624 0.856761 0.720492
0.282433 0.860065 0.723697
0.406572 0.863460 0.726990
0.532491 0.866904 0.730330
0.658410 0.870348 0.733671
0.782549 0.873743 0.736964
0.903358 0.877047 0.740169
1.000000 0.880229 0.743255
0.048543 0.966549 0.720492
0.164901 0.969731 0.723579
0.285710 0.973035 0.726783
0.409849 0.976430 0.730077
0.535769 0.979873 0.733417
0.661688 0.983317 0.736757
0.785827 0.986712 0.740051
0.906636 0.990016 0.743255
1.000000 0.993198 0.746342
0.024497 0.023783 0.808413
0.140855 0.026965 0.811500
0.261664 0.030269 0.814705
0.385803 0.033664 0.817998
0.511722 0.037108 0.821338
0.637641 0.040552 0.824679
0.761781 0.043947 0.827972
0.882590 0.047251 0.831177
0.998948 0.050433 0.834263
0.027774 0.136753 0.811500
0.144133 0.139935 0.814586
0.264942 0.143239 0.817791
0.389081 0.146634 0.821085
0.515000 0.150077 0.824425
0.640919 0.153521 0.827765
0.765058 0.156916 0.831058
0.885867 0.160220 0.834263
1.000000 0.163402 0.837350
0.031177 0.254043 0.814705
0.147536 0.257225 0.817791
0.268345 0.260529 0.820996
0.392484 0.263924 0.824289
0.518403 0.267368 0.827630
0.644322 0.270811 0.830970
0.768461 0.274206 0.834263
0.889270 0.277510 0.837468
1.000000 0.280693 0.840555
0.034674 0.374566 0.817998
0.151033 0.377748 0.821085
0.271842 0.381052 0.824289
0.395981 0.384447 0.827583
0.521900 0.387891 0.830923
0.647819 0.391335 0.834263
0.771958 0.394730 0.837556
0.892767 0.398034 0.840761
1.000000 0.401216 0.843848
0.038221 0.496818 0.821338
0.154580 0.500000 0.824425
0.275389 0.503304 0.827630
0.399528 0.506699 0.830923
0.525447 0.510143 0.834263
0.651366 0.513586 0.837604
0.775505 0.516981 0.840897
0.896314 0.520285 0.844102
1.000000 0.523468 0.847188
0.041768 0.619069 0.824679
0.158127 0.622252 0.827765
0.278936 0.625556 0.830970
0.403075 0.628951 0.834263
0.528994 0.632394 0.837604
0.654913 0.635838 0.840944
0.779052 0.639233 0.844237
0.899861 0.642537 0.847442
1.000000 0.645719 0.850529
0.045265 0.739593 0.827972
0.161624 0.742775 0.831058
0.282433 0.746079 0.834263
0.406572 0.749474 0.837556
0.532491 0.752918 0.840897
0.658410 0.756361 0.844237
0.782549 0.759756 0.847530
0.903358 0.763060 0.850735
1.000000 0.766243 0.853822
0.048668 0.856883 0.831177
0.165027 0.860065 0.834263
0.285836 0.863369 0.837468
0.409975 0.866764 0.840761
0.535894 0.870208 0.844102
0.661813 0.873652 0.847442
0.785952 0.877047 0.850735
0.906761 0.880351 0.853940
1.000000 0.883533 0.857027
0.051946 0.969853 0.834263
0.168304 0.973035 0.837350
0.289113 0.976339 0.840555
0.413253 0.979734 0.843848
0.539172 0.983177 0.847188
0.665091 0.986621 0.850529
0.789230 0.990016 0.853822
0.910039 0.993320 0.857027
1.000000 0.996502 0.860114
0.027774 0.026965 0.917993
0.144133 0.030147 0.921080
0.264942 0.033451 0.924285
0.389081 0.036846 0.927578
0.515000 0.040290 0.930919
0.640919 0.043734 0.934259
0.765058 0.047129 0.937552
0.885867 0.050433 0.940757
1.000000 0.053615 0.943844
0.031052 0.139935 0.921080
0.147410 0.143117 0.924167
0.268219 0.146421 0.927372
0.392359 0.149816 0.930665
0.518278 0.153260 0.934005
0.644197 0.156703 0.937346
0.768336 0.160098 0.940639
0.889145 0.163402 0.943844
1.000000 0.166585 0.946930
0.034455 0.257225 0.924285
0.150814 0.260407 0.927372
0.271623 0.263711 0.930577
0.395762 0.267106 0.933870
0.521681 0.270550 0.937210
0.647600 0.273994 0.940551
0.771739 0.277389 0.943844
0.892548 0.280693 0.947049
1.000000 0.283875 0.950135
0.037952 0.377748 0.927578
0.154310 0.380931 0.930665
0.275119 0.384235 0.933870
0.399259 0.387630 0.937163
0.525178 0.391073 0.940503
0.651097 0.394517 0.943844
0.775236 0.397912 0.947137
0.896045 0.401216 0.950342
1.000000 0.404398 0.953428
0.041499 0.500000 0.930919
0.157857 0.503182 0.934005
0.278666 0.506486 0.937210
0.402806 0.509881 0.940503
0.528725 0.513325 0.943844
0.654644 0.516769 0.947184
0.778783 0.520164 0.950477
0.899592 0.523468 0.953682
1.000000 0.526650 0.956769
0.045046 0.622252 0.934259
0.161404 0.625434 0.937346
0.282213 0.628738 0.940551
0.406353 0.632133 0.943844
0.532272 0.635577 0.947184
0.658191 0.639020 0.950524
0.782330 0.642415 0.953818
0.903139 0.645719 0.957022
1.000000 0.648901 0.960109
0.048543 0.742775 0.937552
0.164901 0.745957 0.940639
0.285710 0.749261 0.943844
0.409849 0.752656 0.947137
0.535769 0.756100 0.950477
0.661688 0.759544 0.953818
0.785827 0.762939 0.957111
0.906636 0.766243 0.960316
1.000000 0.769425 0.963402
0.051946 0.860065 0.940757
0.168304 0.863247 0.943844
0.289113 0.866551 0.947049
0.413253 0.869946 0.950342
0.539172 0.873390 0.953682
0.665091 0.876834 0.957022
0.789230 0.880229 0.960316
0.910039 0.883533 0.963521
1.000000 0.886715 0.966607
0.055224 0.973035 0.943844
0.171582 0.976217 0.946930
0.292391 0.979521 0.950135
0.416530 0.982916 0.953428
0.542449 0.986360 0.956769
0.668368 0.989803 0.960109
0.792508 0.993198 0.963402
0.913317 0.996502 0.966607
1.000000 0.999685 0.969694
