template/capabilities/color/luts/film-kodak2383.cube
# house LUT — Film Kodak 2383 (generated by _generate-luts.py)
TITLE "Film Kodak 2383"
LUT_3D_SIZE 33
DOMAIN_MIN 0.0 0.0 0.0
DOMAIN_MAX 1.0 1.0 1.0
0.000325 0.000315 0.000306
0.028957 0.001098 0.001065
0.057899 0.001890 0.001833
0.087145 0.002690 0.002609
0.116683 0.003498 0.003393
0.146503 0.004313 0.004184
0.176590 0.005136 0.004982
0.206926 0.005966 0.005787
0.237492 0.006802 0.006598
0.268270 0.007643 0.007414
0.299235 0.008490 0.008235
0.330364 0.009341 0.009061
0.361632 0.010197 0.009891
0.393012 0.011055 0.010723
0.424477 0.011915 0.011558
0.456000 0.012777 0.012394
0.487551 0.013640 0.013231
0.519102 0.014503 0.014068
0.550624 0.015365 0.014904
0.582090 0.016226 0.015739
0.613470 0.017084 0.016572
0.644738 0.017939 0.017401
0.675867 0.018791 0.018227
0.706832 0.019637 0.019048
0.737609 0.020479 0.019865
0.768176 0.021315 0.020676
0.798512 0.022145 0.021480
0.828598 0.022967 0.022278
0.858418 0.023783 0.023070
0.887957 0.024591 0.023853
0.917202 0.025391 0.024629
0.946145 0.026182 0.025397
0.974776 0.026965 0.026156
0.001131 0.028113 0.001065
0.029763 0.028896 0.001825
0.058706 0.029688 0.002593
0.087951 0.030488 0.003369
0.117490 0.031296 0.004152
0.147310 0.032111 0.004943
0.177396 0.032934 0.005741
0.207732 0.033764 0.006546
0.238299 0.034599 0.007357
0.269076 0.035441 0.008174
0.300041 0.036288 0.008995
0.331170 0.037139 0.009821
0.362438 0.037995 0.010650
0.393818 0.038853 0.011483
0.425284 0.039713 0.012317
0.456806 0.040575 0.013154
0.488357 0.041438 0.013991
0.519908 0.042301 0.014828
0.551431 0.043163 0.015664
0.582896 0.044024 0.016499
0.614276 0.044882 0.017331
0.645544 0.045737 0.018161
0.676673 0.046588 0.018986
0.707638 0.047435 0.019808
0.738415 0.048277 0.020624
0.768982 0.049113 0.021435
0.799318 0.049943 0.022240
0.829405 0.050765 0.023038
0.859224 0.051581 0.023829
0.888763 0.052389 0.024613
0.918009 0.053189 0.025389
0.946951 0.053980 0.026156
0.975583 0.054763 0.026916
0.001947 0.056213 0.001833
0.030578 0.056996 0.002593
0.059521 0.057787 0.003361
0.088766 0.058587 0.004136
0.118305 0.059395 0.004920
0.148125 0.060210 0.005711
0.178211 0.061033 0.006509
0.208547 0.061863 0.007314
0.239114 0.062699 0.008125
0.269891 0.063541 0.008941
0.300856 0.064387 0.009763
0.331986 0.065239 0.010589
0.363253 0.066094 0.011418
0.394634 0.066952 0.012251
0.426099 0.067813 0.013085
0.457621 0.068675 0.013921
0.489172 0.069538 0.014758
0.520724 0.070400 0.015595
0.552246 0.071263 0.016432
0.583711 0.072123 0.017266
0.615092 0.072981 0.018099
0.646359 0.073836 0.018928
0.677488 0.074688 0.019754
0.708454 0.075535 0.020576
0.739231 0.076376 0.021392
0.769798 0.077212 0.022203
0.800134 0.078042 0.023008
0.830220 0.078865 0.023806
0.860040 0.079680 0.024597
0.889579 0.080488 0.025380
0.918824 0.081288 0.026156
0.947766 0.082079 0.026924
0.976398 0.082863 0.027684
0.002771 0.084606 0.002609
0.031402 0.085389 0.003369
0.060345 0.086181 0.004136
0.089590 0.086981 0.004912
0.119129 0.087789 0.005696
0.148949 0.088604 0.006487
0.179035 0.089427 0.007285
0.209371 0.090257 0.008090
0.239938 0.091093 0.008901
0.270715 0.091934 0.009717
0.301680 0.092781 0.010539
0.332809 0.093633 0.011364
0.364077 0.094488 0.012194
0.395457 0.095346 0.013026
0.426923 0.096206 0.013861
0.458445 0.097068 0.014697
0.489996 0.097931 0.015534
0.521547 0.098794 0.016371
0.553070 0.099656 0.017208
0.584535 0.100517 0.018042
0.615915 0.101375 0.018875
0.647183 0.102230 0.019704
0.678312 0.103082 0.020530
0.709277 0.103928 0.021351
0.740055 0.104770 0.022168
0.770621 0.105606 0.022979
0.800957 0.106436 0.023783
0.831044 0.107259 0.024582
0.860864 0.108074 0.025373
0.890402 0.108882 0.026156
0.919648 0.109682 0.026932
0.948590 0.110473 0.027700
0.977222 0.111256 0.028459
0.003603 0.113285 0.003393
0.032234 0.114068 0.004152
0.061177 0.114859 0.004920
0.090422 0.115659 0.005696
0.119961 0.116467 0.006479
0.149781 0.117283 0.007271
0.179867 0.118105 0.008069
0.210203 0.118935 0.008873
0.240770 0.119771 0.009684
0.271547 0.120613 0.010501
0.302512 0.121460 0.011322
0.333641 0.122311 0.012148
0.364909 0.123166 0.012978
0.396289 0.124024 0.013810
0.427755 0.124885 0.014645
0.459277 0.125747 0.015481
0.490828 0.126610 0.016318
0.522379 0.127473 0.017155
0.553902 0.128335 0.017991
0.585367 0.129195 0.018826
0.616747 0.130054 0.019658
0.648015 0.130909 0.020488
0.679144 0.131760 0.021314
0.710109 0.132607 0.022135
0.740887 0.133449 0.022951
0.771454 0.134285 0.023762
0.801789 0.135114 0.024567
0.831876 0.135937 0.025365
0.861696 0.136753 0.026156
0.891234 0.137560 0.026940
0.920480 0.138360 0.027716
0.949422 0.139152 0.028484
0.978054 0.139935 0.029243
0.004443 0.142236 0.004184
0.033074 0.143019 0.004943
0.062017 0.143811 0.005711
0.091262 0.144611 0.006487
0.120801 0.145418 0.007271
0.150621 0.146234 0.008062
0.180707 0.147057 0.008860
0.211043 0.147886 0.009665
0.241610 0.148722 0.010475
0.272387 0.149564 0.011292
0.303352 0.150411 0.012113
0.334481 0.151262 0.012939
0.365749 0.152117 0.013769
0.397129 0.152976 0.014601
0.428595 0.153836 0.015436
0.460117 0.154698 0.016272
0.491668 0.155561 0.017109
0.523219 0.156424 0.017946
0.554742 0.157286 0.018782
0.586207 0.158147 0.019617
0.617587 0.159005 0.020449
0.648855 0.159860 0.021279
0.679984 0.160711 0.022105
0.710949 0.161558 0.022926
0.741727 0.162400 0.023743
0.772294 0.163236 0.024553
0.802629 0.164065 0.025358
0.832716 0.164888 0.026156
0.862536 0.165704 0.026947
0.892074 0.166512 0.027731
0.921320 0.167311 0.028507
0.950262 0.168103 0.029275
0.978894 0.168886 0.030034
0.005290 0.171446 0.004982
0.033922 0.172229 0.005741
0.062864 0.173021 0.006509
0.092110 0.173821 0.007285
0.121649 0.174628 0.008069
0.151468 0.175444 0.008860
0.181555 0.176267 0.009658
0.211891 0.177096 0.010463
0.242458 0.177932 0.011274
0.273235 0.178774 0.012090
0.304200 0.179621 0.012911
0.335329 0.180472 0.013737
0.366597 0.181327 0.014567
0.397977 0.182186 0.015399
0.429442 0.183046 0.016234
0.460965 0.183908 0.017070
0.492516 0.184771 0.017907
0.524067 0.185634 0.018744
0.555589 0.186496 0.019580
0.587055 0.187357 0.020415
0.618435 0.188215 0.021247
0.649703 0.189070 0.022077
0.680832 0.189921 0.022903
0.711797 0.190768 0.023724
0.742574 0.191610 0.024541
0.773141 0.192446 0.025352
0.803477 0.193275 0.026156
0.833563 0.194098 0.026954
0.863383 0.194914 0.027745
0.892922 0.195722 0.028529
0.922167 0.196521 0.029305
0.951110 0.197313 0.030073
0.979742 0.198096 0.030832
0.006145 0.200899 0.005787
0.034776 0.201682 0.006546
0.063719 0.202473 0.007314
0.092964 0.203273 0.008090
0.122503 0.204081 0.008873
0.152323 0.204896 0.009665
0.182409 0.205719 0.010463
0.212745 0.206549 0.011267
0.243312 0.207385 0.012078
0.274089 0.208226 0.012895
0.305054 0.209073 0.013716
0.336183 0.209925 0.014542
0.367451 0.210780 0.015371
0.398831 0.211638 0.016204
0.430297 0.212499 0.017039
0.461819 0.213361 0.017875
0.493370 0.214223 0.018712
0.524922 0.215086 0.019549
0.556444 0.215948 0.020385
0.587909 0.216809 0.021220
0.619290 0.217667 0.022052
0.650557 0.218522 0.022882
0.681686 0.219374 0.023708
0.712651 0.220220 0.024529
0.743429 0.221062 0.025345
0.773996 0.221898 0.026156
0.804332 0.222728 0.026961
0.834418 0.223551 0.027759
0.864238 0.224366 0.028550
0.893776 0.225174 0.029334
0.923022 0.225974 0.030110
0.951964 0.226765 0.030877
0.980596 0.227548 0.031637
0.007006 0.230575 0.006598
0.035637 0.231358 0.007357
0.064580 0.232150 0.008125
0.093825 0.232950 0.008901
0.123364 0.233757 0.009684
0.153184 0.234573 0.010475
0.183270 0.235396 0.011274
0.213606 0.236225 0.012078
0.244173 0.237061 0.012889
0.274950 0.237903 0.013706
0.305915 0.238750 0.014527
0.337044 0.239601 0.015353
0.368312 0.240456 0.016182
0.399693 0.241315 0.017015
0.431158 0.242175 0.017850
0.462680 0.243037 0.018686
0.494231 0.243900 0.019523
0.525783 0.244763 0.020360
0.557305 0.245625 0.021196
0.588770 0.246486 0.022031
0.620151 0.247344 0.022863
0.651418 0.248199 0.023693
0.682547 0.249050 0.024518
0.713513 0.249897 0.025340
0.744290 0.250739 0.026156
0.774857 0.251575 0.026967
0.805193 0.252404 0.027772
0.835279 0.253227 0.028570
0.865099 0.254043 0.029361
0.894637 0.254851 0.030145
0.923883 0.255650 0.030921
0.952825 0.256442 0.031688
0.981457 0.257225 0.032448
0.007873 0.260456 0.007414
0.036504 0.261239 0.008174
0.065447 0.262030 0.008941
0.094692 0.262830 0.009717
0.124231 0.263638 0.010501
0.154051 0.264454 0.011292
0.184137 0.265276 0.012090
0.214473 0.266106 0.012895
0.245040 0.266942 0.013706
0.275817 0.267784 0.014522
0.306782 0.268631 0.015344
0.337911 0.269482 0.016169
0.369179 0.270337 0.016999
0.400559 0.271195 0.017831
0.432025 0.272056 0.018666
0.463547 0.272918 0.019502
0.495098 0.273781 0.020339
0.526650 0.274644 0.021176
0.558172 0.275506 0.022012
0.589637 0.276366 0.022847
0.621018 0.277225 0.023680
0.652285 0.278080 0.024509
0.683414 0.278931 0.025335
0.714379 0.279778 0.026156
0.745157 0.280620 0.026973
0.775724 0.281456 0.027784
0.806060 0.282285 0.028588
0.836146 0.283108 0.029387
0.865966 0.283923 0.030178
0.895504 0.284731 0.030961
0.924750 0.285531 0.031737
0.953692 0.286323 0.032505
0.982324 0.287106 0.033264
0.008745 0.290519 0.008235
0.037377 0.291302 0.008995
0.066319 0.292094 0.009763
0.095565 0.292893 0.010539
0.125103 0.293701 0.011322
0.154923 0.294517 0.012113
0.185010 0.295340 0.012911
0.215345 0.296169 0.013716
0.245912 0.297005 0.014527
0.276690 0.297847 0.015344
0.307655 0.298694 0.016165
0.338784 0.299545 0.016991
0.370052 0.300400 0.017820
0.401432 0.301258 0.018653
0.432897 0.302119 0.019487
0.464420 0.302981 0.020324
0.495971 0.303844 0.021161
0.527522 0.304707 0.021998
0.559044 0.305569 0.022834
0.590510 0.306429 0.023669
0.621890 0.307288 0.024501
0.653158 0.308143 0.025331
0.684287 0.308994 0.026156
0.715252 0.309841 0.026978
0.746029 0.310683 0.027794
0.776596 0.311519 0.028605
0.806932 0.312348 0.029410
0.837018 0.313171 0.030208
0.866838 0.313987 0.030999
0.896377 0.314795 0.031783
0.925622 0.315594 0.032558
0.954565 0.316386 0.033326
0.983196 0.317169 0.034086
0.009622 0.320741 0.009061
0.038254 0.321524 0.009821
0.067196 0.322316 0.010589
0.096441 0.323116 0.011364
0.125980 0.323924 0.012148
0.155800 0.324739 0.012939
0.185886 0.325562 0.013737
0.216222 0.326392 0.014542
0.246789 0.327228 0.015353
0.277566 0.328069 0.016169
0.308532 0.328916 0.016991
0.339661 0.329768 0.017817
0.370928 0.330623 0.018646
0.402309 0.331481 0.019478
0.433774 0.332341 0.020313
0.465296 0.333204 0.021149
0.496848 0.334066 0.021986
0.528399 0.334929 0.022823
0.559921 0.335791 0.023660
0.591386 0.336652 0.024494
0.622767 0.337510 0.025327
0.654034 0.338365 0.026156
0.685164 0.339217 0.026982
0.716129 0.340063 0.027804
0.746906 0.340905 0.028620
0.777473 0.341741 0.029431
0.807809 0.342571 0.030236
0.837895 0.343394 0.031034
0.867715 0.344209 0.031825
0.897254 0.345017 0.032608
0.926499 0.345817 0.033384
0.955442 0.346608 0.034152
0.984073 0.347391 0.034912
0.010503 0.351099 0.009891
0.039134 0.351882 0.010650
0.068077 0.352673 0.011418
0.097322 0.353473 0.012194
0.126861 0.354281 0.012978
0.156681 0.355096 0.013769
0.186767 0.355919 0.014567
0.217103 0.356749 0.015371
0.247670 0.357585 0.016182
0.278447 0.358426 0.016999
0.309412 0.359273 0.017820
0.340541 0.360125 0.018646
0.371809 0.360980 0.019476
0.403189 0.361838 0.020308
0.434655 0.362699 0.021143
0.466177 0.363561 0.021979
0.497728 0.364423 0.022816
0.529279 0.365286 0.023653
0.560802 0.366148 0.024489
0.592267 0.367009 0.025324
0.623647 0.367867 0.026156
0.654915 0.368722 0.026986
0.686044 0.369574 0.027812
0.717009 0.370421 0.028633
0.747787 0.371262 0.029449
0.778353 0.372098 0.030260
0.808689 0.372928 0.031065
0.838776 0.373751 0.031863
0.868596 0.374566 0.032654
0.898134 0.375374 0.033438
0.927380 0.376174 0.034214
0.956322 0.376965 0.034982
0.984954 0.377748 0.035741
0.011386 0.381565 0.010723
0.040018 0.382348 0.011483
0.068961 0.383139 0.012251
0.098206 0.383939 0.013026
0.127745 0.384747 0.013810
0.157565 0.385563 0.014601
0.187651 0.386385 0.015399
0.217987 0.387215 0.016204
0.248554 0.388051 0.017015
0.279331 0.388893 0.017831
0.310296 0.389740 0.018653
0.341425 0.390591 0.019478
0.372693 0.391446 0.020308
0.404073 0.392304 0.021140
0.435539 0.393165 0.021975
0.467061 0.394027 0.022811
0.498612 0.394890 0.023648
0.530163 0.395753 0.024485
0.561686 0.396615 0.025322
0.593151 0.397475 0.026156
0.624531 0.398333 0.026989
0.655799 0.399189 0.027818
0.686928 0.400040 0.028644
0.717893 0.400887 0.029465
0.748671 0.401728 0.030282
0.779237 0.402564 0.031093
0.809573 0.403394 0.031898
0.839660 0.404217 0.032696
0.869479 0.405032 0.033487
0.899018 0.405840 0.034270
0.928264 0.406640 0.035046
0.957206 0.407432 0.035814
0.985838 0.408215 0.036574
0.012273 0.412114 0.011558
0.040905 0.412897 0.012317
0.069847 0.413688 0.013085
0.099093 0.414488 0.013861
0.128631 0.415296 0.014645
0.158451 0.416111 0.015436
0.188537 0.416934 0.016234
0.218873 0.417764 0.017039
0.249440 0.418600 0.017850
0.280218 0.419442 0.018666
0.311183 0.420288 0.019487
0.342312 0.421140 0.020313
0.373579 0.421995 0.021143
0.404960 0.422853 0.021975
0.436425 0.423714 0.022810
0.467947 0.424576 0.023646
0.499499 0.425439 0.024483
0.531050 0.426301 0.025320
0.562572 0.427164 0.026156
0.594038 0.428024 0.026991
0.625418 0.428882 0.027823
0.656686 0.429737 0.028653
0.687815 0.430589 0.029479
0.718780 0.431436 0.030300
0.749557 0.432277 0.031117
0.780124 0.433113 0.031928
0.810460 0.433943 0.032732
0.840546 0.434766 0.033530
0.870366 0.435581 0.034321
0.899905 0.436389 0.035105
0.929150 0.437189 0.035881
0.958093 0.437980 0.036649
0.986724 0.438764 0.037408
0.013161 0.442718 0.012394
0.041793 0.443501 0.013154
0.070735 0.444293 0.013921
0.099981 0.445092 0.014697
0.129519 0.445900 0.015481
0.159339 0.446716 0.016272
0.189425 0.447539 0.017070
0.219761 0.448368 0.017875
0.250328 0.449204 0.018686
0.281105 0.450046 0.019502
0.312071 0.450893 0.020324
0.343200 0.451744 0.021149
0.374467 0.452599 0.021979
0.405848 0.453457 0.022811
0.437313 0.454318 0.023646
0.468835 0.455180 0.024482
0.500387 0.456043 0.025319
0.531938 0.456906 0.026156
0.563460 0.457768 0.026993
0.594925 0.458628 0.027827
0.626306 0.459487 0.028660
0.657574 0.460342 0.029489
0.688703 0.461193 0.030315
0.719668 0.462040 0.031136
0.750445 0.462882 0.031953
0.781012 0.463718 0.032764
0.811348 0.464547 0.033569
0.841434 0.465370 0.034367
0.871254 0.466186 0.035158
0.900793 0.466993 0.035941
0.930038 0.467793 0.036717
0.958981 0.468585 0.037485
0.987612 0.469368 0.038244
0.014050 0.473350 0.013231
0.042681 0.474133 0.013991
0.071624 0.474925 0.014758
0.100869 0.475725 0.015534
0.130408 0.476532 0.016318
0.160228 0.477348 0.017109
0.190314 0.478171 0.017907
0.220650 0.479000 0.018712
0.251217 0.479836 0.019523
0.281994 0.480678 0.020339
0.312959 0.481525 0.021161
0.344088 0.482376 0.021986
0.375356 0.483231 0.022816
0.406736 0.484090 0.023648
0.438202 0.484950 0.024483
0.469724 0.485812 0.025319
0.501275 0.486675 0.026156
0.532826 0.487538 0.026993
0.564349 0.488400 0.027830
0.595814 0.489261 0.028664
0.627194 0.490119 0.029497
0.658462 0.490974 0.030326
0.689591 0.491825 0.031152
0.720556 0.492672 0.031973
0.751334 0.493514 0.032790
0.781900 0.494350 0.033601
0.812236 0.495179 0.034406
0.842323 0.496002 0.035204
0.872143 0.496818 0.035995
0.901681 0.497626 0.036778
0.930927 0.498425 0.037554
0.959869 0.499217 0.038322
0.988501 0.500000 0.039081
0.014938 0.503982 0.014068
0.043570 0.504765 0.014828
0.072513 0.505557 0.015595
0.101758 0.506357 0.016371
0.131297 0.507165 0.017155
0.161117 0.507980 0.017946
0.191203 0.508803 0.018744
0.221539 0.509633 0.019549
0.252106 0.510469 0.020360
0.282883 0.511310 0.021176
0.313848 0.512157 0.021998
0.344977 0.513008 0.022823
0.376245 0.513864 0.023653
0.407625 0.514722 0.024485
0.439091 0.515582 0.025320
0.470613 0.516444 0.026156
0.502164 0.517307 0.026993
0.533715 0.518170 0.027830
0.565238 0.519032 0.028667
0.596703 0.519893 0.029501
0.628083 0.520751 0.030334
0.659351 0.521606 0.031163
0.690480 0.522457 0.031989
0.721445 0.523304 0.032810
0.752222 0.524146 0.033627
0.782789 0.524982 0.034438
0.813125 0.525812 0.035242
0.843211 0.526634 0.036041
0.873031 0.527450 0.036832
0.902570 0.528258 0.037615
0.931816 0.529058 0.038391
0.960758 0.529849 0.039159
0.989390 0.530632 0.039918
0.015826 0.534587 0.014904
0.044458 0.535370 0.015664
0.073400 0.536161 0.016432
0.102646 0.536961 0.017208
0.132185 0.537769 0.017991
0.162005 0.538584 0.018782
0.192091 0.539407 0.019580
0.222427 0.540237 0.020385
0.252994 0.541073 0.021196
0.283771 0.541915 0.022012
0.314736 0.542761 0.022834
0.345865 0.543613 0.023660
0.377133 0.544468 0.024489
0.408513 0.545326 0.025322
0.439978 0.546187 0.026156
0.471501 0.547049 0.026993
0.503052 0.547912 0.027830
0.534603 0.548774 0.028667
0.566126 0.549637 0.029503
0.597591 0.550497 0.030337
0.628971 0.551355 0.031170
0.660239 0.552210 0.031999
0.691368 0.553062 0.032825
0.722333 0.553909 0.033647
0.753110 0.554750 0.034463
0.783677 0.555586 0.035274
0.814013 0.556416 0.036079
0.844099 0.557239 0.036877
0.873919 0.558054 0.037668
0.903458 0.558862 0.038452
0.932704 0.559662 0.039227
0.961646 0.560453 0.039995
0.990278 0.561236 0.040755
0.016713 0.565136 0.015739
0.045344 0.565919 0.016499
0.074287 0.566710 0.017266
0.103532 0.567510 0.018042
0.133071 0.568318 0.018826
0.162891 0.569133 0.019617
0.192977 0.569956 0.020415
0.223313 0.570786 0.021220
0.253880 0.571622 0.022031
0.284657 0.572463 0.022847
0.315622 0.573310 0.023669
0.346751 0.574162 0.024494
0.378019 0.575017 0.025324
0.409399 0.575875 0.026156
0.440865 0.576735 0.026991
0.472387 0.577598 0.027827
0.503938 0.578460 0.028664
0.535490 0.579323 0.029501
0.567012 0.580185 0.030337
0.598477 0.581046 0.031172
0.629858 0.581904 0.032005
0.661125 0.582759 0.032834
0.692254 0.583611 0.033660
0.723219 0.584457 0.034481
0.753997 0.585299 0.035298
0.784564 0.586135 0.036109
0.814900 0.586965 0.036913
0.844986 0.587788 0.037712
0.874806 0.588603 0.038503
0.904344 0.589411 0.039286
0.933590 0.590211 0.040062
0.962532 0.591002 0.040830
0.991164 0.591785 0.041589
0.017597 0.595602 0.016572
0.046228 0.596385 0.017331
0.075171 0.597176 0.018099
0.104416 0.597976 0.018875
0.133955 0.598784 0.019658
0.163775 0.599600 0.020449
0.193861 0.600422 0.021247
0.224197 0.601252 0.022052
0.254764 0.602088 0.022863
0.285541 0.602930 0.023680
0.316506 0.603776 0.024501
0.347635 0.604628 0.025327
0.378903 0.605483 0.026156
0.410283 0.606341 0.026989
0.441749 0.607202 0.027823
0.473271 0.608064 0.028660
0.504822 0.608927 0.029497
0.536373 0.609790 0.030334
0.567896 0.610652 0.031170
0.599361 0.611512 0.032005
0.630741 0.612370 0.032837
0.662009 0.613225 0.033667
0.693138 0.614077 0.034492
0.724103 0.614924 0.035314
0.754881 0.615765 0.036130
0.785448 0.616601 0.036941
0.815783 0.617431 0.037746
0.845870 0.618254 0.038544
0.875690 0.619069 0.039335
0.905228 0.619877 0.040119
0.934474 0.620677 0.040895
0.963416 0.621469 0.041662
0.992048 0.622252 0.042422
0.018477 0.625959 0.017401
0.047109 0.626742 0.018161
0.076052 0.627533 0.018928
0.105297 0.628333 0.019704
0.134836 0.629141 0.020488
0.164656 0.629957 0.021279
0.194742 0.630779 0.022077
0.225078 0.631609 0.022882
0.255645 0.632445 0.023693
0.286422 0.633287 0.024509
0.317387 0.634134 0.025331
0.348516 0.634985 0.026156
0.379784 0.635840 0.026986
0.411164 0.636698 0.027818
0.442630 0.637559 0.028653
0.474152 0.638421 0.029489
0.505703 0.639284 0.030326
0.537254 0.640147 0.031163
0.568777 0.641009 0.031999
0.600242 0.641869 0.032834
0.631622 0.642727 0.033667
0.662890 0.643583 0.034496
0.694019 0.644434 0.035322
0.724984 0.645281 0.036143
0.755761 0.646123 0.036960
0.786328 0.646958 0.037771
0.816664 0.647788 0.038575
0.846751 0.648611 0.039374
0.876570 0.649426 0.040165
0.906109 0.650234 0.040948
0.935355 0.651034 0.041724
0.964297 0.651826 0.042492
0.992929 0.652609 0.043251
0.019354 0.656181 0.018227
0.047986 0.656964 0.018986
0.076928 0.657756 0.019754
0.106174 0.658556 0.020530
0.135713 0.659363 0.021314
0.165533 0.660179 0.022105
0.195619 0.661002 0.022903
0.225955 0.661831 0.023708
0.256522 0.662667 0.024518
0.287299 0.663509 0.025335
0.318264 0.664356 0.026156
0.349393 0.665207 0.026982
0.380661 0.666062 0.027812
0.412041 0.666921 0.028644
0.443506 0.667781 0.029479
0.475029 0.668643 0.030315
0.506580 0.669506 0.031152
0.538131 0.670369 0.031989
0.569654 0.671231 0.032825
0.601119 0.672092 0.033660
0.632499 0.672950 0.034492
0.663767 0.673805 0.035322
0.694896 0.674656 0.036148
0.725861 0.675503 0.036969
0.756638 0.676345 0.037786
0.787205 0.677181 0.038596
0.817541 0.678011 0.039401
0.847627 0.678833 0.040199
0.877447 0.679649 0.040990
0.906986 0.680457 0.041774
0.936232 0.681257 0.042550
0.965174 0.682048 0.043318
0.993806 0.682831 0.044077
0.020226 0.686244 0.019048
0.048858 0.687027 0.019808
0.077801 0.687819 0.020576
0.107046 0.688619 0.021351
0.136585 0.689427 0.022135
0.166405 0.690242 0.022926
0.196491 0.691065 0.023724
0.226827 0.691895 0.024529
0.257394 0.692731 0.025340
0.288171 0.693572 0.026156
0.319136 0.694419 0.026978
0.350265 0.695271 0.027804
0.381533 0.696126 0.028633
0.412913 0.696984 0.029465
0.444379 0.697844 0.030300
0.475901 0.698706 0.031136
0.507452 0.699569 0.031973
0.539003 0.700432 0.032810
0.570526 0.701294 0.033647
0.601991 0.702155 0.034481
0.633371 0.703013 0.035314
0.664639 0.703868 0.036143
0.695768 0.704720 0.036969
0.726733 0.705566 0.037791
0.757511 0.706408 0.038607
0.788077 0.707244 0.039418
0.818413 0.708074 0.040223
0.848500 0.708896 0.041021
0.878319 0.709712 0.041812
0.907858 0.710520 0.042595
0.937104 0.711320 0.043371
0.966046 0.712111 0.044139
0.994678 0.712894 0.044899
0.021093 0.716125 0.019865
0.049725 0.716908 0.020624
0.078668 0.717700 0.021392
0.107913 0.718500 0.022168
0.137452 0.719307 0.022951
0.167272 0.720123 0.023743
0.197358 0.720946 0.024541
0.227694 0.721775 0.025345
0.258261 0.722611 0.026156
0.289038 0.723453 0.026973
0.320003 0.724300 0.027794
0.351132 0.725151 0.028620
0.382400 0.726006 0.029449
0.413780 0.726865 0.030282
0.445246 0.727725 0.031117
0.476768 0.728587 0.031953
0.508319 0.729450 0.032790
0.539870 0.730313 0.033627
0.571393 0.731175 0.034463
0.602858 0.732036 0.035298
0.634238 0.732894 0.036130
0.665506 0.733749 0.036960
0.696635 0.734600 0.037786
0.727600 0.735447 0.038607
0.758377 0.736289 0.039423
0.788944 0.737125 0.040234
0.819280 0.737954 0.041039
0.849367 0.738777 0.041837
0.879186 0.739593 0.042628
0.908725 0.740401 0.043412
0.937971 0.741200 0.044188
0.966913 0.741992 0.044955
0.995545 0.742775 0.045715
0.021954 0.745802 0.020676
0.050586 0.746585 0.021435
0.079529 0.747376 0.022203
0.108774 0.748176 0.022979
0.138313 0.748984 0.023762
0.168133 0.749800 0.024553
0.198219 0.750622 0.025352
0.228555 0.751452 0.026156
0.259122 0.752288 0.026967
0.289899 0.753130 0.027784
0.320864 0.753977 0.028605
0.351993 0.754828 0.029431
0.383261 0.755683 0.030260
0.414641 0.756541 0.031093
0.446107 0.757402 0.031928
0.477629 0.758264 0.032764
0.509180 0.759127 0.033601
0.540731 0.759990 0.034438
0.572254 0.760852 0.035274
0.603719 0.761712 0.036109
0.635099 0.762570 0.036941
0.666367 0.763426 0.037771
0.697496 0.764277 0.038596
0.728461 0.765124 0.039418
0.759239 0.765965 0.040234
0.789805 0.766801 0.041045
0.820141 0.767631 0.041850
0.850228 0.768454 0.042648
0.880047 0.769269 0.043439
0.909586 0.770077 0.044223
0.938832 0.770877 0.044999
0.967774 0.771669 0.045766
0.996406 0.772452 0.046526
0.022809 0.775254 0.021480
0.051441 0.776037 0.022240
0.080383 0.776829 0.023008
0.109629 0.777629 0.023783
0.139168 0.778436 0.024567
0.168987 0.779252 0.025358
0.199074 0.780075 0.026156
0.229410 0.780904 0.026961
0.259977 0.781740 0.027772
0.290754 0.782582 0.028588
0.321719 0.783429 0.029410
0.352848 0.784280 0.030236
0.384116 0.785135 0.031065
0.415496 0.785994 0.031898
0.446961 0.786854 0.032732
0.478484 0.787716 0.033569
0.510035 0.788579 0.034406
0.541586 0.789442 0.035242
0.573108 0.790304 0.036079
0.604574 0.791165 0.036913
0.635954 0.792023 0.037746
0.667222 0.792878 0.038575
0.698351 0.793729 0.039401
0.729316 0.794576 0.040223
0.760093 0.795418 0.041039
