template/capabilities/color/luts/neutral-correct.cube
# house LUT — Neutral Correct (generated by _generate-luts.py)
TITLE "Neutral Correct"
LUT_3D_SIZE 33
DOMAIN_MIN 0.0 0.0 0.0
DOMAIN_MAX 1.0 1.0 1.0
0.000000 0.000000 0.000000
0.000000 0.000000 0.000000
0.003653 0.000000 0.000000
0.036334 0.000000 0.000000
0.069567 0.000000 0.000000
0.103335 0.000000 0.000000
0.137612 0.000000 0.000000
0.172369 0.000000 0.000000
0.207574 0.000000 0.000000
0.243186 0.000000 0.000000
0.279166 0.000000 0.000000
0.315466 0.000000 0.000000
0.352039 0.000000 0.000000
0.388833 0.000000 0.000000
0.425795 0.000000 0.000000
0.462869 0.000000 0.000000
0.500000 0.000000 0.000000
0.537131 0.000000 0.000000
0.574205 0.000000 0.000000
0.611167 0.000000 0.000000
0.647961 0.000000 0.000000
0.684534 0.000000 0.000000
0.720834 0.000000 0.000000
0.756814 0.000000 0.000000
0.792426 0.000000 0.000000
0.827631 0.000000 0.000000
0.862388 0.000000 0.000000
0.896665 0.000000 0.000000
0.930433 0.000000 0.000000
0.963666 0.000000 0.000000
0.996347 0.000000 0.000000
1.000000 0.000000 0.000000
1.000000 0.000000 0.000000
0.000000 0.000000 0.000000
0.000000 0.000000 0.000000
0.003653 0.000000 0.000000
0.036334 0.000000 0.000000
0.069567 0.000000 0.000000
0.103335 0.000000 0.000000
0.137612 0.000000 0.000000
0.172369 0.000000 0.000000
0.207574 0.000000 0.000000
0.243186 0.000000 0.000000
0.279166 0.000000 0.000000
0.315466 0.000000 0.000000
0.352039 0.000000 0.000000
0.388833 0.000000 0.000000
0.425795 0.000000 0.000000
0.462869 0.000000 0.000000
0.500000 0.000000 0.000000
0.537131 0.000000 0.000000
0.574205 0.000000 0.000000
0.611167 0.000000 0.000000
0.647961 0.000000 0.000000
0.684534 0.000000 0.000000
0.720834 0.000000 0.000000
0.756814 0.000000 0.000000
0.792426 0.000000 0.000000
0.827631 0.000000 0.000000
0.862388 0.000000 0.000000
0.896665 0.000000 0.000000
0.930433 0.000000 0.000000
0.963666 0.000000 0.000000
0.996347 0.000000 0.000000
1.000000 0.000000 0.000000
1.000000 0.000000 0.000000
0.000000 0.003653 0.000000
0.000000 0.003653 0.000000
0.003653 0.003653 0.000000
0.036334 0.003653 0.000000
0.069567 0.003653 0.000000
0.103335 0.003653 0.000000
0.137612 0.003653 0.000000
0.172369 0.003653 0.000000
0.207574 0.003653 0.000000
0.243186 0.003653 0.000000
0.279166 0.003653 0.000000
0.315466 0.003653 0.000000
0.352039 0.003653 0.000000
0.388833 0.003653 0.000000
0.425795 0.003653 0.000000
0.462869 0.003653 0.000000
0.500000 0.003653 0.000000
0.537131 0.003653 0.000000
0.574205 0.003653 0.000000
0.611167 0.003653 0.000000
0.647961 0.003653 0.000000
0.684534 0.003653 0.000000
0.720834 0.003653 0.000000
0.756814 0.003653 0.000000
0.792426 0.003653 0.000000
0.827631 0.003653 0.000000
0.862388 0.003653 0.000000
0.896665 0.003653 0.000000
0.930433 0.003653 0.000000
0.963666 0.003653 0.000000
0.996347 0.003653 0.000000
1.000000 0.003653 0.000000
1.000000 0.003653 0.000000
0.000000 0.036334 0.000000
0.000000 0.036334 0.000000
0.003653 0.036334 0.000000
0.036334 0.036334 0.000000
0.069567 0.036334 0.000000
0.103335 0.036334 0.000000
0.137612 0.036334 0.000000
0.172369 0.036334 0.000000
0.207574 0.036334 0.000000
0.243186 0.036334 0.000000
0.279166 0.036334 0.000000
0.315466 0.036334 0.000000
0.352039 0.036334 0.000000
0.388833 0.036334 0.000000
0.425795 0.036334 0.000000
0.462869 0.036334 0.000000
0.500000 0.036334 0.000000
0.537131 0.036334 0.000000
0.574205 0.036334 0.000000
0.611167 0.036334 0.000000
0.647961 0.036334 0.000000
0.684534 0.036334 0.000000
0.720834 0.036334 0.000000
0.756814 0.036334 0.000000
0.792426 0.036334 0.000000
0.827631 0.036334 0.000000
0.862388 0.036334 0.000000
0.896665 0.036334 0.000000
0.930433 0.036334 0.000000
0.963666 0.036334 0.000000
0.996347 0.036334 0.000000
1.000000 0.036334 0.000000
1.000000 0.036334 0.000000
0.000000 0.069567 0.000000
0.000000 0.069567 0.000000
0.003653 0.069567 0.000000
0.036334 0.069567 0.000000
0.069567 0.069567 0.000000
0.103335 0.069567 0.000000
0.137612 0.069567 0.000000
0.172369 0.069567 0.000000
0.207574 0.069567 0.000000
0.243186 0.069567 0.000000
0.279166 0.069567 0.000000
0.315466 0.069567 0.000000
0.352039 0.069567 0.000000
0.388833 0.069567 0.000000
0.425795 0.069567 0.000000
0.462869 0.069567 0.000000
0.500000 0.069567 0.000000
0.537131 0.069567 0.000000
0.574205 0.069567 0.000000
0.611167 0.069567 0.000000
0.647961 0.069567 0.000000
0.684534 0.069567 0.000000
0.720834 0.069567 0.000000
0.756814 0.069567 0.000000
0.792426 0.069567 0.000000
0.827631 0.069567 0.000000
0.862388 0.069567 0.000000
0.896665 0.069567 0.000000
0.930433 0.069567 0.000000
0.963666 0.069567 0.000000
0.996347 0.069567 0.000000
1.000000 0.069567 0.000000
1.000000 0.069567 0.000000
0.000000 0.103335 0.000000
0.000000 0.103335 0.000000
0.003653 0.103335 0.000000
0.036334 0.103335 0.000000
0.069567 0.103335 0.000000
0.103335 0.103335 0.000000
0.137612 0.103335 0.000000
0.172369 0.103335 0.000000
0.207574 0.103335 0.000000
0.243186 0.103335 0.000000
0.279166 0.103335 0.000000
0.315466 0.103335 0.000000
0.352039 0.103335 0.000000
0.388833 0.103335 0.000000
0.425795 0.103335 0.000000
0.462869 0.103335 0.000000
0.500000 0.103335 0.000000
0.537131 0.103335 0.000000
0.574205 0.103335 0.000000
0.611167 0.103335 0.000000
0.647961 0.103335 0.000000
0.684534 0.103335 0.000000
0.720834 0.103335 0.000000
0.756814 0.103335 0.000000
0.792426 0.103335 0.000000
0.827631 0.103335 0.000000
0.862388 0.103335 0.000000
0.896665 0.103335 0.000000
0.930433 0.103335 0.000000
0.963666 0.103335 0.000000
0.996347 0.103335 0.000000
1.000000 0.103335 0.000000
1.000000 0.103335 0.000000
0.000000 0.137612 0.000000
0.000000 0.137612 0.000000
0.003653 0.137612 0.000000
0.036334 0.137612 0.000000
0.069567 0.137612 0.000000
0.103335 0.137612 0.000000
0.137612 0.137612 0.000000
0.172369 0.137612 0.000000
0.207574 0.137612 0.000000
0.243186 0.137612 0.000000
0.279166 0.137612 0.000000
0.315466 0.137612 0.000000
0.352039 0.137612 0.000000
0.388833 0.137612 0.000000
0.425795 0.137612 0.000000
0.462869 0.137612 0.000000
0.500000 0.137612 0.000000
0.537131 0.137612 0.000000
0.574205 0.137612 0.000000
0.611167 0.137612 0.000000
0.647961 0.137612 0.000000
0.684534 0.137612 0.000000
0.720834 0.137612 0.000000
0.756814 0.137612 0.000000
0.792426 0.137612 0.000000
0.827631 0.137612 0.000000
0.862388 0.137612 0.000000
0.896665 0.137612 0.000000
0.930433 0.137612 0.000000
0.963666 0.137612 0.000000
0.996347 0.137612 0.000000
1.000000 0.137612 0.000000
1.000000 0.137612 0.000000
0.000000 0.172369 0.000000
0.000000 0.172369 0.000000
0.003653 0.172369 0.000000
0.036334 0.172369 0.000000
0.069567 0.172369 0.000000
0.103335 0.172369 0.000000
0.137612 0.172369 0.000000
0.172369 0.172369 0.000000
0.207574 0.172369 0.000000
0.243186 0.172369 0.000000
0.279166 0.172369 0.000000
0.315466 0.172369 0.000000
0.352039 0.172369 0.000000
0.388833 0.172369 0.000000
0.425795 0.172369 0.000000
0.462869 0.172369 0.000000
0.500000 0.172369 0.000000
0.537131 0.172369 0.000000
0.574205 0.172369 0.000000
0.611167 0.172369 0.000000
0.647961 0.172369 0.000000
0.684534 0.172369 0.000000
0.720834 0.172369 0.000000
0.756814 0.172369 0.000000
0.792426 0.172369 0.000000
0.827631 0.172369 0.000000
0.862388 0.172369 0.000000
0.896665 0.172369 0.000000
0.930433 0.172369 0.000000
0.963666 0.172369 0.000000
0.996347 0.172369 0.000000
1.000000 0.172369 0.000000
1.000000 0.172369 0.000000
0.000000 0.207574 0.000000
0.000000 0.207574 0.000000
0.003653 0.207574 0.000000
0.036334 0.207574 0.000000
0.069567 0.207574 0.000000
0.103335 0.207574 0.000000
0.137612 0.207574 0.000000
0.172369 0.207574 0.000000
0.207574 0.207574 0.000000
0.243186 0.207574 0.000000
0.279166 0.207574 0.000000
0.315466 0.207574 0.000000
0.352039 0.207574 0.000000
0.388833 0.207574 0.000000
0.425795 0.207574 0.000000
0.462869 0.207574 0.000000
0.500000 0.207574 0.000000
0.537131 0.207574 0.000000
0.574205 0.207574 0.000000
0.611167 0.207574 0.000000
0.647961 0.207574 0.000000
0.684534 0.207574 0.000000
0.720834 0.207574 0.000000
0.756814 0.207574 0.000000
0.792426 0.207574 0.000000
0.827631 0.207574 0.000000
0.862388 0.207574 0.000000
0.896665 0.207574 0.000000
0.930433 0.207574 0.000000
0.963666 0.207574 0.000000
0.996347 0.207574 0.000000
1.000000 0.207574 0.000000
1.000000 0.207574 0.000000
0.000000 0.243186 0.000000
0.000000 0.243186 0.000000
0.003653 0.243186 0.000000
0.036334 0.243186 0.000000
0.069567 0.243186 0.000000
0.103335 0.243186 0.000000
0.137612 0.243186 0.000000
0.172369 0.243186 0.000000
0.207574 0.243186 0.000000
0.243186 0.243186 0.000000
0.279166 0.243186 0.000000
0.315466 0.243186 0.000000
0.352039 0.243186 0.000000
0.388833 0.243186 0.000000
0.425795 0.243186 0.000000
0.462869 0.243186 0.000000
0.500000 0.243186 0.000000
0.537131 0.243186 0.000000
0.574205 0.243186 0.000000
0.611167 0.243186 0.000000
0.647961 0.243186 0.000000
0.684534 0.243186 0.000000
0.720834 0.243186 0.000000
0.756814 0.243186 0.000000
0.792426 0.243186 0.000000
0.827631 0.243186 0.000000
0.862388 0.243186 0.000000
0.896665 0.243186 0.000000
0.930433 0.243186 0.000000
0.963666 0.243186 0.000000
0.996347 0.243186 0.000000
1.000000 0.243186 0.000000
1.000000 0.243186 0.000000
0.000000 0.279166 0.000000
0.000000 0.279166 0.000000
0.003653 0.279166 0.000000
0.036334 0.279166 0.000000
0.069567 0.279166 0.000000
0.103335 0.279166 0.000000
0.137612 0.279166 0.000000
0.172369 0.279166 0.000000
0.207574 0.279166 0.000000
0.243186 0.279166 0.000000
0.279166 0.279166 0.000000
0.315466 0.279166 0.000000
0.352039 0.279166 0.000000
0.388833 0.279166 0.000000
0.425795 0.279166 0.000000
0.462869 0.279166 0.000000
0.500000 0.279166 0.000000
0.537131 0.279166 0.000000
0.574205 0.279166 0.000000
0.611167 0.279166 0.000000
0.647961 0.279166 0.000000
0.684534 0.279166 0.000000
0.720834 0.279166 0.000000
0.756814 0.279166 0.000000
0.792426 0.279166 0.000000
0.827631 0.279166 0.000000
0.862388 0.279166 0.000000
0.896665 0.279166 0.000000
0.930433 0.279166 0.000000
0.963666 0.279166 0.000000
0.996347 0.279166 0.000000
1.000000 0.279166 0.000000
1.000000 0.279166 0.000000
0.000000 0.315466 0.000000
0.000000 0.315466 0.000000
0.003653 0.315466 0.000000
0.036334 0.315466 0.000000
0.069567 0.315466 0.000000
0.103335 0.315466 0.000000
0.137612 0.315466 0.000000
0.172369 0.315466 0.000000
0.207574 0.315466 0.000000
0.243186 0.315466 0.000000
0.279166 0.315466 0.000000
0.315466 0.315466 0.000000
0.352039 0.315466 0.000000
0.388833 0.315466 0.000000
0.425795 0.315466 0.000000
0.462869 0.315466 0.000000
0.500000 0.315466 0.000000
0.537131 0.315466 0.000000
0.574205 0.315466 0.000000
0.611167 0.315466 0.000000
0.647961 0.315466 0.000000
0.684534 0.315466 0.000000
0.720834 0.315466 0.000000
0.756814 0.315466 0.000000
0.792426 0.315466 0.000000
0.827631 0.315466 0.000000
0.862388 0.315466 0.000000
0.896665 0.315466 0.000000
0.930433 0.315466 0.000000
0.963666 0.315466 0.000000
0.996347 0.315466 0.000000
1.000000 0.315466 0.000000
1.000000 0.315466 0.000000
0.000000 0.352039 0.000000
0.000000 0.352039 0.000000
0.003653 0.352039 0.000000
0.036334 0.352039 0.000000
0.069567 0.352039 0.000000
0.103335 0.352039 0.000000
0.137612 0.352039 0.000000
0.172369 0.352039 0.000000
0.207574 0.352039 0.000000
0.243186 0.352039 0.000000
0.279166 0.352039 0.000000
0.315466 0.352039 0.000000
0.352039 0.352039 0.000000
0.388833 0.352039 0.000000
0.425795 0.352039 0.000000
0.462869 0.352039 0.000000
0.500000 0.352039 0.000000
0.537131 0.352039 0.000000
0.574205 0.352039 0.000000
0.611167 0.352039 0.000000
0.647961 0.352039 0.000000
0.684534 0.352039 0.000000
0.720834 0.352039 0.000000
0.756814 0.352039 0.000000
0.792426 0.352039 0.000000
0.827631 0.352039 0.000000
0.862388 0.352039 0.000000
0.896665 0.352039 0.000000
0.930433 0.352039 0.000000
0.963666 0.352039 0.000000
0.996347 0.352039 0.000000
1.000000 0.352039 0.000000
1.000000 0.352039 0.000000
0.000000 0.388833 0.000000
0.000000 0.388833 0.000000
0.003653 0.388833 0.000000
0.036334 0.388833 0.000000
0.069567 0.388833 0.000000
0.103335 0.388833 0.000000
0.137612 0.388833 0.000000
0.172369 0.388833 0.000000
0.207574 0.388833 0.000000
0.243186 0.388833 0.000000
0.279166 0.388833 0.000000
0.315466 0.388833 0.000000
0.352039 0.388833 0.000000
0.388833 0.388833 0.000000
0.425795 0.388833 0.000000
0.462869 0.388833 0.000000
0.500000 0.388833 0.000000
0.537131 0.388833 0.000000
0.574205 0.388833 0.000000
0.611167 0.388833 0.000000
0.647961 0.388833 0.000000
0.684534 0.388833 0.000000
0.720834 0.388833 0.000000
0.756814 0.388833 0.000000
0.792426 0.388833 0.000000
0.827631 0.388833 0.000000
0.862388 0.388833 0.000000
0.896665 0.388833 0.000000
0.930433 0.388833 0.000000
0.963666 0.388833 0.000000
0.996347 0.388833 0.000000
1.000000 0.388833 0.000000
1.000000 0.388833 0.000000
0.000000 0.425795 0.000000
0.000000 0.425795 0.000000
0.003653 0.425795 0.000000
0.036334 0.425795 0.000000
0.069567 0.425795 0.000000
0.103335 0.425795 0.000000
0.137612 0.425795 0.000000
0.172369 0.425795 0.000000
0.207574 0.425795 0.000000
0.243186 0.425795 0.000000
0.279166 0.425795 0.000000
0.315466 0.425795 0.000000
0.352039 0.425795 0.000000
0.388833 0.425795 0.000000
0.425795 0.425795 0.000000
0.462869 0.425795 0.000000
0.500000 0.425795 0.000000
0.537131 0.425795 0.000000
0.574205 0.425795 0.000000
0.611167 0.425795 0.000000
0.647961 0.425795 0.000000
0.684534 0.425795 0.000000
0.720834 0.425795 0.000000
0.756814 0.425795 0.000000
0.792426 0.425795 0.000000
0.827631 0.425795 0.000000
0.862388 0.425795 0.000000
0.896665 0.425795 0.000000
0.930433 0.425795 0.000000
0.963666 0.425795 0.000000
0.996347 0.425795 0.000000
1.000000 0.425795 0.000000
1.000000 0.425795 0.000000
0.000000 0.462869 0.000000
0.000000 0.462869 0.000000
0.003653 0.462869 0.000000
0.036334 0.462869 0.000000
0.069567 0.462869 0.000000
0.103335 0.462869 0.000000
0.137612 0.462869 0.000000
0.172369 0.462869 0.000000
0.207574 0.462869 0.000000
0.243186 0.462869 0.000000
0.279166 0.462869 0.000000
0.315466 0.462869 0.000000
0.352039 0.462869 0.000000
0.388833 0.462869 0.000000
0.425795 0.462869 0.000000
0.462869 0.462869 0.000000
0.500000 0.462869 0.000000
0.537131 0.462869 0.000000
0.574205 0.462869 0.000000
0.611167 0.462869 0.000000
0.647961 0.462869 0.000000
0.684534 0.462869 0.000000
0.720834 0.462869 0.000000
0.756814 0.462869 0.000000
0.792426 0.462869 0.000000
0.827631 0.462869 0.000000
0.862388 0.462869 0.000000
0.896665 0.462869 0.000000
0.930433 0.462869 0.000000
0.963666 0.462869 0.000000
0.996347 0.462869 0.000000
1.000000 0.462869 0.000000
1.000000 0.462869 0.000000
0.000000 0.500000 0.000000
0.000000 0.500000 0.000000
0.003653 0.500000 0.000000
0.036334 0.500000 0.000000
0.069567 0.500000 0.000000
0.103335 0.500000 0.000000
0.137612 0.500000 0.000000
0.172369 0.500000 0.000000
0.207574 0.500000 0.000000
0.243186 0.500000 0.000000
0.279166 0.500000 0.000000
0.315466 0.500000 0.000000
0.352039 0.500000 0.000000
0.388833 0.500000 0.000000
0.425795 0.500000 0.000000
0.462869 0.500000 0.000000
0.500000 0.500000 0.000000
0.537131 0.500000 0.000000
0.574205 0.500000 0.000000
0.611167 0.500000 0.000000
0.647961 0.500000 0.000000
0.684534 0.500000 0.000000
0.720834 0.500000 0.000000
0.756814 0.500000 0.000000
0.792426 0.500000 0.000000
0.827631 0.500000 0.000000
0.862388 0.500000 0.000000
0.896665 0.500000 0.000000
0.930433 0.500000 0.000000
0.963666 0.500000 0.000000
0.996347 0.500000 0.000000
1.000000 0.500000 0.000000
1.000000 0.500000 0.000000
0.000000 0.537131 0.000000
0.000000 0.537131 0.000000
0.003653 0.537131 0.000000
0.036334 0.537131 0.000000
0.069567 0.537131 0.000000
0.103335 0.537131 0.000000
0.137612 0.537131 0.000000
0.172369 0.537131 0.000000
0.207574 0.537131 0.000000
0.243186 0.537131 0.000000
0.279166 0.537131 0.000000
0.315466 0.537131 0.000000
0.352039 0.537131 0.000000
0.388833 0.537131 0.000000
0.425795 0.537131 0.000000
0.462869 0.537131 0.000000
0.500000 0.537131 0.000000
0.537131 0.537131 0.000000
0.574205 0.537131 0.000000
0.611167 0.537131 0.000000
0.647961 0.537131 0.000000
0.684534 0.537131 0.000000
0.720834 0.537131 0.000000
0.756814 0.537131 0.000000
0.792426 0.537131 0.000000
0.827631 0.537131 0.000000
0.862388 0.537131 0.000000
0.896665 0.537131 0.000000
0.930433 0.537131 0.000000
0.963666 0.537131 0.000000
0.996347 0.537131 0.000000
1.000000 0.537131 0.000000
1.000000 0.537131 0.000000
0.000000 0.574205 0.000000
0.000000 0.574205 0.000000
0.003653 0.574205 0.000000
0.036334 0.574205 0.000000
0.069567 0.574205 0.000000
0.103335 0.574205 0.000000
0.137612 0.574205 0.000000
0.172369 0.574205 0.000000
0.207574 0.574205 0.000000
0.243186 0.574205 0.000000
0.279166 0.574205 0.000000
0.315466 0.574205 0.000000
0.352039 0.574205 0.000000
0.388833 0.574205 0.000000
0.425795 0.574205 0.000000
0.462869 0.574205 0.000000
0.500000 0.574205 0.000000
0.537131 0.574205 0.000000
0.574205 0.574205 0.000000
0.611167 0.574205 0.000000
0.647961 0.574205 0.000000
0.684534 0.574205 0.000000
0.720834 0.574205 0.000000
0.756814 0.574205 0.000000
0.792426 0.574205 0.000000
0.827631 0.574205 0.000000
0.862388 0.574205 0.000000
0.896665 0.574205 0.000000
0.930433 0.574205 0.000000
0.963666 0.574205 0.000000
0.996347 0.574205 0.000000
1.000000 0.574205 0.000000
1.000000 0.574205 0.000000
0.000000 0.611167 0.000000
0.000000 0.611167 0.000000
0.003653 0.611167 0.000000
0.036334 0.611167 0.000000
0.069567 0.611167 0.000000
0.103335 0.611167 0.000000
0.137612 0.611167 0.000000
0.172369 0.611167 0.000000
0.207574 0.611167 0.000000
0.243186 0.611167 0.000000
0.279166 0.611167 0.000000
0.315466 0.611167 0.000000
0.352039 0.611167 0.000000
0.388833 0.611167 0.000000
0.425795 0.611167 0.000000
0.462869 0.611167 0.000000
0.500000 0.611167 0.000000
0.537131 0.611167 0.000000
0.574205 0.611167 0.000000
0.611167 0.611167 0.000000
0.647961 0.611167 0.000000
0.684534 0.611167 0.000000
0.720834 0.611167 0.000000
0.756814 0.611167 0.000000
0.792426 0.611167 0.000000
0.827631 0.611167 0.000000
0.862388 0.611167 0.000000
0.896665 0.611167 0.000000
0.930433 0.611167 0.000000
0.963666 0.611167 0.000000
0.996347 0.611167 0.000000
1.000000 0.611167 0.000000
1.000000 0.611167 0.000000
0.000000 0.647961 0.000000
0.000000 0.647961 0.000000
0.003653 0.647961 0.000000
0.036334 0.647961 0.000000
0.069567 0.647961 0.000000
0.103335 0.647961 0.000000
0.137612 0.647961 0.000000
0.172369 0.647961 0.000000
0.207574 0.647961 0.000000
0.243186 0.647961 0.000000
0.279166 0.647961 0.000000
0.315466 0.647961 0.000000
0.352039 0.647961 0.000000
0.388833 0.647961 0.000000
0.425795 0.647961 0.000000
0.462869 0.647961 0.000000
0.500000 0.647961 0.000000
0.537131 0.647961 0.000000
0.574205 0.647961 0.000000
0.611167 0.647961 0.000000
0.647961 0.647961 0.000000
0.684534 0.647961 0.000000
0.720834 0.647961 0.000000
0.756814 0.647961 0.000000
0.792426 0.647961 0.000000
0.827631 0.647961 0.000000
0.862388 0.647961 0.000000
0.896665 0.647961 0.000000
0.930433 0.647961 0.000000
0.963666 0.647961 0.000000
0.996347 0.647961 0.000000
1.000000 0.647961 0.000000
1.000000 0.647961 0.000000
0.000000 0.684534 0.000000
0.000000 0.684534 0.000000
0.003653 0.684534 0.000000
0.036334 0.684534 0.000000
0.069567 0.684534 0.000000
0.103335 0.684534 0.000000
0.137612 0.684534 0.000000
0.172369 0.684534 0.000000
0.207574 0.684534 0.000000
0.243186 0.684534 0.000000
0.279166 0.684534 0.000000
0.315466 0.684534 0.000000
0.352039 0.684534 0.000000
0.388833 0.684534 0.000000
0.425795 0.684534 0.000000
0.462869 0.684534 0.000000
0.500000 0.684534 0.000000
0.537131 0.684534 0.000000
0.574205 0.684534 0.000000
0.611167 0.684534 0.000000
0.647961 0.684534 0.000000
0.684534 0.684534 0.000000
0.720834 0.684534 0.000000
0.756814 0.684534 0.000000
0.792426 0.684534 0.000000
0.827631 0.684534 0.000000
0.862388 0.684534 0.000000
0.896665 0.684534 0.000000
0.930433 0.684534 0.000000
0.963666 0.684534 0.000000
0.996347 0.684534 0.000000
1.000000 0.684534 0.000000
1.000000 0.684534 0.000000
0.000000 0.720834 0.000000
0.000000 0.720834 0.000000
0.003653 0.720834 0.000000
0.036334 0.720834 0.000000
0.069567 0.720834 0.000000
0.103335 0.720834 0.000000
0.137612 0.720834 0.000000
0.172369 0.720834 0.000000
0.207574 0.720834 0.000000
0.243186 0.720834 0.000000
0.279166 0.720834 0.000000
0.315466 0.720834 0.000000
0.352039 0.720834 0.000000
0.388833 0.720834 0.000000
0.425795 0.720834 0.000000
0.462869 0.720834 0.000000
0.500000 0.720834 0.000000
0.537131 0.720834 0.000000
0.574205 0.720834 0.000000
0.611167 0.720834 0.000000
0.647961 0.720834 0.000000
0.684534 0.720834 0.000000
0.720834 0.720834 0.000000
0.756814 0.720834 0.000000
0.792426 0.720834 0.000000
0.827631 0.720834 0.000000
0.862388 0.720834 0.000000
0.896665 0.720834 0.000000
0.930433 0.720834 0.000000
0.963666 0.720834 0.000000
0.996347 0.720834 0.000000
1.000000 0.720834 0.000000
1.000000 0.720834 0.000000
0.000000 0.756814 0.000000
0.000000 0.756814 0.000000
0.003653 0.756814 0.000000
0.036334 0.756814 0.000000
0.069567 0.756814 0.000000
0.103335 0.756814 0.000000
0.137612 0.756814 0.000000
0.172369 0.756814 0.000000
0.207574 0.756814 0.000000
0.243186 0.756814 0.000000
0.279166 0.756814 0.000000
0.315466 0.756814 0.000000
0.352039 0.756814 0.000000
0.388833 0.756814 0.000000
0.425795 0.756814 0.000000
0.462869 0.756814 0.000000
0.500000 0.756814 0.000000
0.537131 0.756814 0.000000
0.574205 0.756814 0.000000
0.611167 0.756814 0.000000
0.647961 0.756814 0.000000
0.684534 0.756814 0.000000
0.720834 0.756814 0.000000
0.756814 0.756814 0.000000
0.792426 0.756814 0.000000
0.827631 0.756814 0.000000
0.862388 0.756814 0.000000
0.896665 0.756814 0.000000
0.930433 0.756814 0.000000
0.963666 0.756814 0.000000
0.996347 0.756814 0.000000
1.000000 0.756814 0.000000
1.000000 0.756814 0.000000
0.000000 0.792426 0.000000
0.000000 0.792426 0.000000
0.003653 0.792426 0.000000
0.036334 0.792426 0.000000
0.069567 0.792426 0.000000
0.103335 0.792426 0.000000
0.137612 0.792426 0.000000
0.172369 0.792426 0.000000
0.207574 0.792426 0.000000
0.243186 0.792426 0.000000
0.279166 0.792426 0.000000
0.315466 0.792426 0.000000
0.352039 0.792426 0.000000
0.388833 0.792426 0.000000
0.425795 0.792426 0.000000
0.462869 0.792426 0.000000
0.500000 0.792426 0.000000
0.537131 0.792426 0.000000
0.574205 0.792426 0.000000
0.611167 0.792426 0.000000
0.647961 0.792426 0.000000
0.684534 0.792426 0.000000
0.720834 0.792426 0.000000
0.756814 0.792426 0.000000
0.792426 0.792426 0.000000
0.827631 0.792426 0.000000
0.862388 0.792426 0.000000
0.896665 0.792426 0.000000
0.930433 0.792426 0.000000
0.963666 0.792426 0.000000
0.996347 0.792426 0.000000
1.000000 0.792426 0.000000
1.000000 0.792426 0.000000
0.000000 0.827631 0.000000
0.000000 0.827631 0.000000
0.003653 0.827631 0.000000
0.036334 0.827631 0.000000
0.069567 0.827631 0.000000
0.103335 0.827631 0.000000
0.137612 0.827631 0.000000
0.172369 0.827631 0.000000
0.207574 0.827631 0.000000
0.243186 0.827631 0.000000
0.279166 0.827631 0.000000
0.315466 0.827631 0.000000
0.352039 0.827631 0.000000
0.388833 0.827631 0.000000
0.425795 0.827631 0.000000
0.462869 0.827631 0.000000
0.500000 0.827631 0.000000
0.537131 0.827631 0.000000
0.574205 0.827631 0.000000
0.611167 0.827631 0.000000
0.647961 0.827631 0.000000
0.684534 0.827631 0.000000
0.720834 0.827631 0.000000
0.756814 0.827631 0.000000
0.792426 0.827631 0.000000
0.827631 0.827631 0.000000
0.862388 0.827631 0.000000
0.896665 0.827631 0.000000
0.930433 0.827631 0.000000
0.963666 0.827631 0.000000
0.996347 0.827631 0.000000
1.000000 0.827631 0.000000
1.000000 0.827631 0.000000
0.000000 0.862388 0.000000
0.000000 0.862388 0.000000
0.003653 0.862388 0.000000
0.036334 0.862388 0.000000
0.069567 0.862388 0.000000
0.103335 0.862388 0.000000
0.137612 0.862388 0.000000
0.172369 0.862388 0.000000
0.207574 0.862388 0.000000
0.243186 0.862388 0.000000
0.279166 0.862388 0.000000
0.315466 0.862388 0.000000
0.352039 0.862388 0.000000
0.388833 0.862388 0.000000
0.425795 0.862388 0.000000
0.462869 0.862388 0.000000
0.500000 0.862388 0.000000
0.537131 0.862388 0.000000
0.574205 0.862388 0.000000
0.611167 0.862388 0.000000
0.647961 0.862388 0.000000
0.684534 0.862388 0.000000
0.720834 0.862388 0.000000
0.756814 0.862388 0.000000
0.792426 0.862388 0.000000
