template/capabilities/color/luts/neutral-correct.cube
# house LUT — Neutral Correct (generated by _generate-luts.py)
TITLE "Neutral Correct"
LUT_3D_SIZE 9
DOMAIN_MIN 0.0 0.0 0.0
DOMAIN_MAX 1.0 1.0 1.0
0.000000 0.000000 0.000000
0.069567 0.000000 0.000000
0.207574 0.000000 0.000000
0.352039 0.000000 0.000000
0.500000 0.000000 0.000000
0.647961 0.000000 0.000000
0.792426 0.000000 0.000000
0.930433 0.000000 0.000000
1.000000 0.000000 0.000000
0.000000 0.069567 0.000000
0.069567 0.069567 0.000000
0.207574 0.069567 0.000000
0.352039 0.069567 0.000000
0.500000 0.069567 0.000000
0.647961 0.069567 0.000000
0.792426 0.069567 0.000000
0.930433 0.069567 0.000000
1.000000 0.069567 0.000000
0.000000 0.207574 0.000000
0.069567 0.207574 0.000000
0.207574 0.207574 0.000000
0.352039 0.207574 0.000000
0.500000 0.207574 0.000000
0.647961 0.207574 0.000000
0.792426 0.207574 0.000000
0.930433 0.207574 0.000000
1.000000 0.207574 0.000000
0.000000 0.352039 0.000000
0.069567 0.352039 0.000000
0.207574 0.352039 0.000000
0.352039 0.352039 0.000000
0.500000 0.352039 0.000000
0.647961 0.352039 0.000000
0.792426 0.352039 0.000000
0.930433 0.352039 0.000000
1.000000 0.352039 0.000000
0.000000 0.500000 0.000000
0.069567 0.500000 0.000000
0.207574 0.500000 0.000000
0.352039 0.500000 0.000000
0.500000 0.500000 0.000000
0.647961 0.500000 0.000000
0.792426 0.500000 0.000000
0.930433 0.500000 0.000000
1.000000 0.500000 0.000000
0.000000 0.647961 0.000000
0.069567 0.647961 0.000000
0.207574 0.647961 0.000000
0.352039 0.647961 0.000000
0.500000 0.647961 0.000000
0.647961 0.647961 0.000000
0.792426 0.647961 0.000000
0.930433 0.647961 0.000000
1.000000 0.647961 0.000000
0.000000 0.792426 0.000000
0.069567 0.792426 0.000000
0.207574 0.792426 0.000000
0.352039 0.792426 0.000000
0.500000 0.792426 0.000000
0.647961 0.792426 0.000000
0.792426 0.792426 0.000000
0.930433 0.792426 0.000000
1.000000 0.792426 0.000000
0.000000 0.930433 0.000000
0.069567 0.930433 0.000000
0.207574 0.930433 0.000000
0.352039 0.930433 0.000000
0.500000 0.930433 0.000000
0.647961 0.930433 0.000000
0.792426 0.930433 0.000000
0.930433 0.930433 0.000000
1.000000 0.930433 0.000000
0.000000 1.000000 0.000000
0.069567 1.000000 0.000000
0.207574 1.000000 0.000000
0.352039 1.000000 0.000000
0.500000 1.000000 0.000000
0.647961 1.000000 0.000000
0.792426 1.000000 0.000000
0.930433 1.000000 0.000000
1.000000 1.000000 0.000000
0.000000 0.000000 0.069567
0.069567 0.000000 0.069567
0.207574 0.000000 0.069567
0.352039 0.000000 0.069567
0.500000 0.000000 0.069567
0.647961 0.000000 0.069567
0.792426 0.000000 0.069567
0.930433 0.000000 0.069567
1.000000 0.000000 0.069567
0.000000 0.069567 0.069567
0.069567 0.069567 0.069567
0.207574 0.069567 0.069567
0.352039 0.069567 0.069567
0.500000 0.069567 0.069567
0.647961 0.069567 0.069567
0.792426 0.069567 0.069567
0.930433 0.069567 0.069567
1.000000 0.069567 0.069567
0.000000 0.207574 0.069567
0.069567 0.207574 0.069567
0.207574 0.207574 0.069567
0.352039 0.207574 0.069567
0.500000 0.207574 0.069567
0.647961 0.207574 0.069567
0.792426 0.207574 0.069567
0.930433 0.207574 0.069567
1.000000 0.207574 0.069567
0.000000 0.352039 0.069567
0.069567 0.352039 0.069567
0.207574 0.352039 0.069567
0.352039 0.352039 0.069567
0.500000 0.352039 0.069567
0.647961 0.352039 0.069567
0.792426 0.352039 0.069567
0.930433 0.352039 0.069567
1.000000 0.352039 0.069567
0.000000 0.500000 0.069567
0.069567 0.500000 0.069567
0.207574 0.500000 0.069567
0.352039 0.500000 0.069567
0.500000 0.500000 0.069567
0.647961 0.500000 0.069567
0.792426 0.500000 0.069567
0.930433 0.500000 0.069567
1.000000 0.500000 0.069567
0.000000 0.647961 0.069567
0.069567 0.647961 0.069567
0.207574 0.647961 0.069567
0.352039 0.647961 0.069567
0.500000 0.647961 0.069567
0.647961 0.647961 0.069567
0.792426 0.647961 0.069567
0.930433 0.647961 0.069567
1.000000 0.647961 0.069567
0.000000 0.792426 0.069567
0.069567 0.792426 0.069567
0.207574 0.792426 0.069567
0.352039 0.792426 0.069567
0.500000 0.792426 0.069567
0.647961 0.792426 0.069567
0.792426 0.792426 0.069567
0.930433 0.792426 0.069567
1.000000 0.792426 0.069567
0.000000 0.930433 0.069567
0.069567 0.930433 0.069567
0.207574 0.930433 0.069567
0.352039 0.930433 0.069567
0.500000 0.930433 0.069567
0.647961 0.930433 0.069567
0.792426 0.930433 0.069567
0.930433 0.930433 0.069567
1.000000 0.930433 0.069567
0.000000 1.000000 0.069567
0.069567 1.000000 0.069567
0.207574 1.000000 0.069567
0.352039 1.000000 0.069567
0.500000 1.000000 0.069567
0.647961 1.000000 0.069567
0.792426 1.000000 0.069567
0.930433 1.000000 0.069567
1.000000 1.000000 0.069567
0.000000 0.000000 0.207574
0.069567 0.000000 0.207574
0.207574 0.000000 0.207574
0.352039 0.000000 0.207574
0.500000 0.000000 0.207574
0.647961 0.000000 0.207574
0.792426 0.000000 0.207574
0.930433 0.000000 0.207574
1.000000 0.000000 0.207574
0.000000 0.069567 0.207574
0.069567 0.069567 0.207574
0.207574 0.069567 0.207574
0.352039 0.069567 0.207574
0.500000 0.069567 0.207574
0.647961 0.069567 0.207574
0.792426 0.069567 0.207574
0.930433 0.069567 0.207574
1.000000 0.069567 0.207574
0.000000 0.207574 0.207574
0.069567 0.207574 0.207574
0.207574 0.207574 0.207574
0.352039 0.207574 0.207574
0.500000 0.207574 0.207574
0.647961 0.207574 0.207574
0.792426 0.207574 0.207574
0.930433 0.207574 0.207574
1.000000 0.207574 0.207574
0.000000 0.352039 0.207574
0.069567 0.352039 0.207574
0.207574 0.352039 0.207574
0.352039 0.352039 0.207574
0.500000 0.352039 0.207574
0.647961 0.352039 0.207574
0.792426 0.352039 0.207574
0.930433 0.352039 0.207574
1.000000 0.352039 0.207574
0.000000 0.500000 0.207574
0.069567 0.500000 0.207574
0.207574 0.500000 0.207574
0.352039 0.500000 0.207574
0.500000 0.500000 0.207574
0.647961 0.500000 0.207574
0.792426 0.500000 0.207574
0.930433 0.500000 0.207574
1.000000 0.500000 0.207574
0.000000 0.647961 0.207574
0.069567 0.647961 0.207574
0.207574 0.647961 0.207574
0.352039 0.647961 0.207574
0.500000 0.647961 0.207574
0.647961 0.647961 0.207574
0.792426 0.647961 0.207574
0.930433 0.647961 0.207574
1.000000 0.647961 0.207574
0.000000 0.792426 0.207574
0.069567 0.792426 0.207574
0.207574 0.792426 0.207574
0.352039 0.792426 0.207574
0.500000 0.792426 0.207574
0.647961 0.792426 0.207574
0.792426 0.792426 0.207574
0.930433 0.792426 0.207574
1.000000 0.792426 0.207574
0.000000 0.930433 0.207574
0.069567 0.930433 0.207574
0.207574 0.930433 0.207574
0.352039 0.930433 0.207574
0.500000 0.930433 0.207574
0.647961 0.930433 0.207574
0.792426 0.930433 0.207574
0.930433 0.930433 0.207574
1.000000 0.930433 0.207574
0.000000 1.000000 0.207574
0.069567 1.000000 0.207574
0.207574 1.000000 0.207574
0.352039 1.000000 0.207574
0.500000 1.000000 0.207574
0.647961 1.000000 0.207574
0.792426 1.000000 0.207574
0.930433 1.000000 0.207574
1.000000 1.000000 0.207574
0.000000 0.000000 0.352039
0.069567 0.000000 0.352039
0.207574 0.000000 0.352039
0.352039 0.000000 0.352039
0.500000 0.000000 0.352039
0.647961 0.000000 0.352039
0.792426 0.000000 0.352039
0.930433 0.000000 0.352039
1.000000 0.000000 0.352039
0.000000 0.069567 0.352039
0.069567 0.069567 0.352039
0.207574 0.069567 0.352039
0.352039 0.069567 0.352039
0.500000 0.069567 0.352039
0.647961 0.069567 0.352039
0.792426 0.069567 0.352039
0.930433 0.069567 0.352039
1.000000 0.069567 0.352039
0.000000 0.207574 0.352039
0.069567 0.207574 0.352039
0.207574 0.207574 0.352039
0.352039 0.207574 0.352039
0.500000 0.207574 0.352039
0.647961 0.207574 0.352039
0.792426 0.207574 0.352039
0.930433 0.207574 0.352039
1.000000 0.207574 0.352039
0.000000 0.352039 0.352039
0.069567 0.352039 0.352039
0.207574 0.352039 0.352039
0.352039 0.352039 0.352039
0.500000 0.352039 0.352039
0.647961 0.352039 0.352039
0.792426 0.352039 0.352039
0.930433 0.352039 0.352039
1.000000 0.352039 0.352039
0.000000 0.500000 0.352039
0.069567 0.500000 0.352039
0.207574 0.500000 0.352039
0.352039 0.500000 0.352039
0.500000 0.500000 0.352039
0.647961 0.500000 0.352039
0.792426 0.500000 0.352039
0.930433 0.500000 0.352039
1.000000 0.500000 0.352039
0.000000 0.647961 0.352039
0.069567 0.647961 0.352039
0.207574 0.647961 0.352039
0.352039 0.647961 0.352039
0.500000 0.647961 0.352039
0.647961 0.647961 0.352039
0.792426 0.647961 0.352039
0.930433 0.647961 0.352039
1.000000 0.647961 0.352039
0.000000 0.792426 0.352039
0.069567 0.792426 0.352039
0.207574 0.792426 0.352039
0.352039 0.792426 0.352039
0.500000 0.792426 0.352039
0.647961 0.792426 0.352039
0.792426 0.792426 0.352039
0.930433 0.792426 0.352039
1.000000 0.792426 0.352039
0.000000 0.930433 0.352039
0.069567 0.930433 0.352039
0.207574 0.930433 0.352039
0.352039 0.930433 0.352039
0.500000 0.930433 0.352039
0.647961 0.930433 0.352039
0.792426 0.930433 0.352039
0.930433 0.930433 0.352039
1.000000 0.930433 0.352039
0.000000 1.000000 0.352039
0.069567 1.000000 0.352039
0.207574 1.000000 0.352039
0.352039 1.000000 0.352039
0.500000 1.000000 0.352039
0.647961 1.000000 0.352039
0.792426 1.000000 0.352039
0.930433 1.000000 0.352039
1.000000 1.000000 0.352039
0.000000 0.000000 0.500000
0.069567 0.000000 0.500000
0.207574 0.000000 0.500000
0.352039 0.000000 0.500000
0.500000 0.000000 0.500000
0.647961 0.000000 0.500000
0.792426 0.000000 0.500000
0.930433 0.000000 0.500000
1.000000 0.000000 0.500000
0.000000 0.069567 0.500000
0.069567 0.069567 0.500000
0.207574 0.069567 0.500000
0.352039 0.069567 0.500000
0.500000 0.069567 0.500000
0.647961 0.069567 0.500000
0.792426 0.069567 0.500000
0.930433 0.069567 0.500000
1.000000 0.069567 0.500000
0.000000 0.207574 0.500000
0.069567 0.207574 0.500000
0.207574 0.207574 0.500000
0.352039 0.207574 0.500000
0.500000 0.207574 0.500000
0.647961 0.207574 0.500000
0.792426 0.207574 0.500000
0.930433 0.207574 0.500000
1.000000 0.207574 0.500000
0.000000 0.352039 0.500000
0.069567 0.352039 0.500000
0.207574 0.352039 0.500000
0.352039 0.352039 0.500000
0.500000 0.352039 0.500000
0.647961 0.352039 0.500000
0.792426 0.352039 0.500000
0.930433 0.352039 0.500000
1.000000 0.352039 0.500000
0.000000 0.500000 0.500000
0.069567 0.500000 0.500000
0.207574 0.500000 0.500000
0.352039 0.500000 0.500000
0.500000 0.500000 0.500000
0.647961 0.500000 0.500000
0.792426 0.500000 0.500000
0.930433 0.500000 0.500000
1.000000 0.500000 0.500000
0.000000 0.647961 0.500000
0.069567 0.647961 0.500000
0.207574 0.647961 0.500000
0.352039 0.647961 0.500000
0.500000 0.647961 0.500000
0.647961 0.647961 0.500000
0.792426 0.647961 0.500000
0.930433 0.647961 0.500000
1.000000 0.647961 0.500000
0.000000 0.792426 0.500000
0.069567 0.792426 0.500000
0.207574 0.792426 0.500000
0.352039 0.792426 0.500000
0.500000 0.792426 0.500000
0.647961 0.792426 0.500000
0.792426 0.792426 0.500000
0.930433 0.792426 0.500000
1.000000 0.792426 0.500000
0.000000 0.930433 0.500000
0.069567 0.930433 0.500000
0.207574 0.930433 0.500000
0.352039 0.930433 0.500000
0.500000 0.930433 0.500000
0.647961 0.930433 0.500000
0.792426 0.930433 0.500000
0.930433 0.930433 0.500000
1.000000 0.930433 0.500000
0.000000 1.000000 0.500000
0.069567 1.000000 0.500000
0.207574 1.000000 0.500000
0.352039 1.000000 0.500000
0.500000 1.000000 0.500000
0.647961 1.000000 0.500000
0.792426 1.000000 0.500000
0.930433 1.000000 0.500000
1.000000 1.000000 0.500000
0.000000 0.000000 0.647961
0.069567 0.000000 0.647961
0.207574 0.000000 0.647961
0.352039 0.000000 0.647961
0.500000 0.000000 0.647961
0.647961 0.000000 0.647961
0.792426 0.000000 0.647961
0.930433 0.000000 0.647961
1.000000 0.000000 0.647961
0.000000 0.069567 0.647961
0.069567 0.069567 0.647961
0.207574 0.069567 0.647961
0.352039 0.069567 0.647961
0.500000 0.069567 0.647961
0.647961 0.069567 0.647961
0.792426 0.069567 0.647961
0.930433 0.069567 0.647961
1.000000 0.069567 0.647961
0.000000 0.207574 0.647961
0.069567 0.207574 0.647961
0.207574 0.207574 0.647961
0.352039 0.207574 0.647961
0.500000 0.207574 0.647961
0.647961 0.207574 0.647961
0.792426 0.207574 0.647961
0.930433 0.207574 0.647961
1.000000 0.207574 0.647961
0.000000 0.352039 0.647961
0.069567 0.352039 0.647961
0.207574 0.352039 0.647961
0.352039 0.352039 0.647961
0.500000 0.352039 0.647961
0.647961 0.352039 0.647961
0.792426 0.352039 0.647961
0.930433 0.352039 0.647961
1.000000 0.352039 0.647961
0.000000 0.500000 0.647961
0.069567 0.500000 0.647961
0.207574 0.500000 0.647961
0.352039 0.500000 0.647961
0.500000 0.500000 0.647961
0.647961 0.500000 0.647961
0.792426 0.500000 0.647961
0.930433 0.500000 0.647961
1.000000 0.500000 0.647961
0.000000 0.647961 0.647961
0.069567 0.647961 0.647961
0.207574 0.647961 0.647961
0.352039 0.647961 0.647961
0.500000 0.647961 0.647961
0.647961 0.647961 0.647961
0.792426 0.647961 0.647961
0.930433 0.647961 0.647961
1.000000 0.647961 0.647961
0.000000 0.792426 0.647961
0.069567 0.792426 0.647961
0.207574 0.792426 0.647961
0.352039 0.792426 0.647961
0.500000 0.792426 0.647961
0.647961 0.792426 0.647961
0.792426 0.792426 0.647961
0.930433 0.792426 0.647961
1.000000 0.792426 0.647961
0.000000 0.930433 0.647961
0.069567 0.930433 0.647961
0.207574 0.930433 0.647961
0.352039 0.930433 0.647961
0.500000 0.930433 0.647961
0.647961 0.930433 0.647961
0.792426 0.930433 0.647961
0.930433 0.930433 0.647961
1.000000 0.930433 0.647961
0.000000 1.000000 0.647961
0.069567 1.000000 0.647961
0.207574 1.000000 0.647961
0.352039 1.000000 0.647961
0.500000 1.000000 0.647961
0.647961 1.000000 0.647961
0.792426 1.000000 0.647961
0.930433 1.000000 0.647961
1.000000 1.000000 0.647961
0.000000 0.000000 0.792426
0.069567 0.000000 0.792426
0.207574 0.000000 0.792426
0.352039 0.000000 0.792426
0.500000 0.000000 0.792426
0.647961 0.000000 0.792426
0.792426 0.000000 0.792426
0.930433 0.000000 0.792426
1.000000 0.000000 0.792426
0.000000 0.069567 0.792426
0.069567 0.069567 0.792426
0.207574 0.069567 0.792426
0.352039 0.069567 0.792426
0.500000 0.069567 0.792426
0.647961 0.069567 0.792426
0.792426 0.069567 0.792426
0.930433 0.069567 0.792426
1.000000 0.069567 0.792426
0.000000 0.207574 0.792426
0.069567 0.207574 0.792426
0.207574 0.207574 0.792426
0.352039 0.207574 0.792426
0.500000 0.207574 0.792426
0.647961 0.207574 0.792426
0.792426 0.207574 0.792426
0.930433 0.207574 0.792426
1.000000 0.207574 0.792426
0.000000 0.352039 0.792426
0.069567 0.352039 0.792426
0.207574 0.352039 0.792426
0.352039 0.352039 0.792426
0.500000 0.352039 0.792426
0.647961 0.352039 0.792426
0.792426 0.352039 0.792426
0.930433 0.352039 0.792426
1.000000 0.352039 0.792426
0.000000 0.500000 0.792426
0.069567 0.500000 0.792426
0.207574 0.500000 0.792426
0.352039 0.500000 0.792426
0.500000 0.500000 0.792426
0.647961 0.500000 0.792426
0.792426 0.500000 0.792426
0.930433 0.500000 0.792426
1.000000 0.500000 0.792426
0.000000 0.647961 0.792426
0.069567 0.647961 0.792426
0.207574 0.647961 0.792426
0.352039 0.647961 0.792426
0.500000 0.647961 0.792426
0.647961 0.647961 0.792426
0.792426 0.647961 0.792426
0.930433 0.647961 0.792426
1.000000 0.647961 0.792426
0.000000 0.792426 0.792426
0.069567 0.792426 0.792426
0.207574 0.792426 0.792426
0.352039 0.792426 0.792426
0.500000 0.792426 0.792426
0.647961 0.792426 0.792426
0.792426 0.792426 0.792426
0.930433 0.792426 0.792426
1.000000 0.792426 0.792426
0.000000 0.930433 0.792426
0.069567 0.930433 0.792426
0.207574 0.930433 0.792426
0.352039 0.930433 0.792426
0.500000 0.930433 0.792426
0.647961 0.930433 0.792426
0.792426 0.930433 0.792426
0.930433 0.930433 0.792426
1.000000 0.930433 0.792426
0.000000 1.000000 0.792426
0.069567 1.000000 0.792426
0.207574 1.000000 0.792426
0.352039 1.000000 0.792426
0.500000 1.000000 0.792426
0.647961 1.000000 0.792426
0.792426 1.000000 0.792426
0.930433 1.000000 0.792426
1.000000 1.000000 0.792426
0.000000 0.000000 0.930433
0.069567 0.000000 0.930433
0.207574 0.000000 0.930433
0.352039 0.000000 0.930433
0.500000 0.000000 0.930433
0.647961 0.000000 0.930433
0.792426 0.000000 0.930433
0.930433 0.000000 0.930433
1.000000 0.000000 0.930433
0.000000 0.069567 0.930433
0.069567 0.069567 0.930433
0.207574 0.069567 0.930433
0.352039 0.069567 0.930433
0.500000 0.069567 0.930433
0.647961 0.069567 0.930433
0.792426 0.069567 0.930433
0.930433 0.069567 0.930433
1.000000 0.069567 0.930433
0.000000 0.207574 0.930433
0.069567 0.207574 0.930433
0.207574 0.207574 0.930433
0.352039 0.207574 0.930433
0.500000 0.207574 0.930433
0.647961 0.207574 0.930433
0.792426 0.207574 0.930433
0.930433 0.207574 0.930433
1.000000 0.207574 0.930433
0.000000 0.352039 0.930433
0.069567 0.352039 0.930433
0.207574 0.352039 0.930433
0.352039 0.352039 0.930433
0.500000 0.352039 0.930433
0.647961 0.352039 0.930433
0.792426 0.352039 0.930433
0.930433 0.352039 0.930433
1.000000 0.352039 0.930433
0.000000 0.500000 0.930433
0.069567 0.500000 0.930433
0.207574 0.500000 0.930433
0.352039 0.500000 0.930433
0.500000 0.500000 0.930433
0.647961 0.500000 0.930433
0.792426 0.500000 0.930433
0.930433 0.500000 0.930433
1.000000 0.500000 0.930433
0.000000 0.647961 0.930433
0.069567 0.647961 0.930433
0.207574 0.647961 0.930433
0.352039 0.647961 0.930433
0.500000 0.647961 0.930433
0.647961 0.647961 0.930433
0.792426 0.647961 0.930433
0.930433 0.647961 0.930433
1.000000 0.647961 0.930433
0.000000 0.792426 0.930433
0.069567 0.792426 0.930433
0.207574 0.792426 0.930433
0.352039 0.792426 0.930433
0.500000 0.792426 0.930433
0.647961 0.792426 0.930433
0.792426 0.792426 0.930433
0.930433 0.792426 0.930433
1.000000 0.792426 0.930433
0.000000 0.930433 0.930433
0.069567 0.930433 0.930433
0.207574 0.930433 0.930433
0.352039 0.930433 0.930433
0.500000 0.930433 0.930433
0.647961 0.930433 0.930433
0.792426 0.930433 0.930433
0.930433 0.930433 0.930433
1.000000 0.930433 0.930433
0.000000 1.000000 0.930433
0.069567 1.000000 0.930433
0.207574 1.000000 0.930433
0.352039 1.000000 0.930433
0.500000 1.000000 0.930433
0.647961 1.000000 0.930433
0.792426 1.000000 0.930433
0.930433 1.000000 0.930433
1.000000 1.000000 0.930433
0.000000 0.000000 1.000000
0.069567 0.000000 1.000000
0.207574 0.000000 1.000000
0.352039 0.000000 1.000000
0.500000 0.000000 1.000000
0.647961 0.000000 1.000000
0.792426 0.000000 1.000000
0.930433 0.000000 1.000000
1.000000 0.000000 1.000000
0.000000 0.069567 1.000000
0.069567 0.069567 1.000000
0.207574 0.069567 1.000000
0.352039 0.069567 1.000000
0.500000 0.069567 1.000000
0.647961 0.069567 1.000000
0.792426 0.069567 1.000000
0.930433 0.069567 1.000000
1.000000 0.069567 1.000000
0.000000 0.207574 1.000000
0.069567 0.207574 1.000000
0.207574 0.207574 1.000000
0.352039 0.207574 1.000000
0.500000 0.207574 1.000000
0.647961 0.207574 1.000000
0.792426 0.207574 1.000000
0.930433 0.207574 1.000000
1.000000 0.207574 1.000000
0.000000 0.352039 1.000000
0.069567 0.352039 1.000000
0.207574 0.352039 1.000000
0.352039 0.352039 1.000000
0.500000 0.352039 1.000000
0.647961 0.352039 1.000000
0.792426 0.352039 1.000000
0.930433 0.352039 1.000000
1.000000 0.352039 1.000000
0.000000 0.500000 1.000000
0.069567 0.500000 1.000000
0.207574 0.500000 1.000000
0.352039 0.500000 1.000000
0.500000 0.500000 1.000000
0.647961 0.500000 1.000000
0.792426 0.500000 1.000000
0.930433 0.500000 1.000000
1.000000 0.500000 1.000000
0.000000 0.647961 1.000000
0.069567 0.647961 1.000000
0.207574 0.647961 1.000000
0.352039 0.647961 1.000000
0.500000 0.647961 1.000000
0.647961 0.647961 1.000000
0.792426 0.647961 1.000000
0.930433 0.647961 1.000000
1.000000 0.647961 1.000000
0.000000 0.792426 1.000000
0.069567 0.792426 1.000000
0.207574 0.792426 1.000000
0.352039 0.792426 1.000000
0.500000 0.792426 1.000000
0.647961 0.792426 1.000000
0.792426 0.792426 1.000000
0.930433 0.792426 1.000000
1.000000 0.792426 1.000000
0.000000 0.930433 1.000000
0.069567 0.930433 1.000000
0.207574 0.930433 1.000000
0.352039 0.930433 1.000000
0.500000 0.930433 1.000000
0.647961 0.930433 1.000000
0.792426 0.930433 1.000000
0.930433 0.930433 1.000000
1.000000 0.930433 1.000000
0.000000 1.000000 1.000000
0.069567 1.000000 1.000000
0.207574 1.000000 1.000000
0.352039 1.000000 1.000000
0.500000 1.000000 1.000000
0.647961 1.000000 1.000000
0.792426 1.000000 1.000000
0.930433 1.000000 1.000000
1.000000 1.000000 1.000000
