template/capabilities/color/luts/teal-orange.cube
# house LUT — Teal-Orange (generated by _generate-luts.py)
TITLE "Teal-Orange"
LUT_3D_SIZE 5
DOMAIN_MIN 0.0 0.0 0.0
DOMAIN_MAX 1.0 1.0 1.0
0.000000 0.040000 0.060000
0.196967 0.036650 0.054975
0.500000 0.031496 0.047244
0.803033 0.026342 0.039513
1.000000 0.022992 0.034488
0.000000 0.225697 0.043096
0.196967 0.222347 0.038070
0.500000 0.217193 0.030340
0.803033 0.212039 0.022609
1.000000 0.208689 0.017584
0.000000 0.511392 0.017088
0.196967 0.508042 0.012063
0.500000 0.502888 0.004332
0.806432 0.500000 0.000000
1.000000 0.500000 0.000000
0.008920 0.803033 0.000000
0.210912 0.803033 0.000000
0.521676 0.803033 0.000000
0.832439 0.803033 0.000000
1.000000 0.803033 0.000000
0.025824 1.000000 0.000000
0.227816 1.000000 0.000000
0.538580 1.000000 0.000000
0.849344 1.000000 0.000000
1.000000 1.000000 0.000000
0.000000 0.038862 0.255260
0.196967 0.035512 0.250235
0.500000 0.030358 0.242504
0.803033 0.025204 0.234773
1.000000 0.021854 0.229748
0.000000 0.224560 0.238356
0.196967 0.221210 0.233331
0.500000 0.216056 0.225600
0.803033 0.210902 0.217869
1.000000 0.207552 0.212844
0.000000 0.510254 0.212348
0.196967 0.506904 0.207323
0.500000 0.501750 0.199592
0.808139 0.500000 0.193563
1.000000 0.500000 0.190213
0.010626 0.803033 0.189883
0.212618 0.803033 0.186533
0.523382 0.803033 0.181379
0.834146 0.803033 0.176225
1.000000 0.803033 0.172875
0.027531 1.000000 0.178613
0.229523 1.000000 0.175263
0.540287 1.000000 0.170109
0.851051 1.000000 0.164955
1.000000 1.000000 0.161605
0.000000 0.037112 0.555668
0.196967 0.033762 0.550643
0.500000 0.028608 0.542912
0.803033 0.023454 0.535181
1.000000 0.020104 0.530156
0.000000 0.222809 0.538764
0.196967 0.219459 0.533738
0.500000 0.214305 0.526008
0.803033 0.209151 0.518277
1.000000 0.205801 0.513252
0.000000 0.508504 0.512756
0.196967 0.505154 0.507731
0.500000 0.500000 0.500000
0.810764 0.500000 0.494846
1.000000 0.500000 0.491496
0.013252 0.803033 0.491166
0.215244 0.803033 0.487816
0.526008 0.803033 0.482662
0.836771 0.803033 0.477508
1.000000 0.803033 0.474158
0.030156 1.000000 0.479896
0.232148 1.000000 0.476546
0.542912 1.000000 0.471392
0.853676 1.000000 0.466238
1.000000 1.000000 0.462888
0.000000 0.035362 0.856076
0.196967 0.032012 0.851051
0.500000 0.026858 0.843320
0.803033 0.021704 0.835589
1.000000 0.018354 0.830564
0.000000 0.221059 0.839171
0.196967 0.217709 0.834146
0.500000 0.212555 0.826415
0.803033 0.207401 0.818684
1.000000 0.204051 0.813659
0.000000 0.506754 0.813164
0.196967 0.503404 0.808139
0.502625 0.500000 0.801283
0.813389 0.500000 0.796129
1.000000 0.500000 0.792779
0.015877 0.803033 0.792448
0.217869 0.803033 0.789098
0.528633 0.803033 0.783944
0.839397 0.803033 0.778790
1.000000 0.803033 0.775440
0.032781 1.000000 0.781179
0.234773 1.000000 0.777829
0.545537 1.000000 0.772675
0.856301 1.000000 0.767521
1.000000 1.000000 0.764171
0.000000 0.034224 1.000000
0.196967 0.030874 1.000000
0.500000 0.025720 1.000000
0.803033 0.020566 1.000000
1.000000 0.017216 1.000000
0.000000 0.219921 1.000000
0.196967 0.216571 1.000000
0.500000 0.211417 1.000000
0.803033 0.206263 1.000000
1.000000 0.202913 1.000000
0.000000 0.505616 1.000000
0.196967 0.502266 1.000000
0.504332 0.500000 0.997112
0.815096 0.500000 0.991958
1.000000 0.500000 0.988608
0.017584 0.803033 0.988278
0.219576 0.803033 0.984928
0.530340 0.803033 0.979774
0.841103 0.803033 0.974620
1.000000 0.803033 0.971270
0.034488 1.000000 0.977008
0.236480 1.000000 0.973658
0.547244 1.000000 0.968504
0.858008 1.000000 0.963350
1.000000 1.000000 0.960000
