template/capabilities/color/luts/teal-orange.cube
# house LUT — Teal-Orange (generated by _generate-luts.py)
TITLE "Teal-Orange"
LUT_3D_SIZE 33
DOMAIN_MIN 0.0 0.0 0.0
DOMAIN_MAX 1.0 1.0 1.0
0.000000 0.040000 0.060000
0.000000 0.040000 0.060000
0.000000 0.040000 0.060000
0.021979 0.039626 0.059439
0.055709 0.039053 0.058579
0.090106 0.038467 0.057701
0.125140 0.037872 0.056807
0.160774 0.037266 0.055898
0.196967 0.036650 0.054975
0.233671 0.036026 0.054039
0.270832 0.035394 0.053091
0.308395 0.034755 0.052132
0.346299 0.034110 0.051165
0.384479 0.033461 0.050191
0.422868 0.032808 0.049212
0.461399 0.032153 0.048229
0.500000 0.031496 0.047244
0.538601 0.030839 0.046259
0.577132 0.030184 0.045276
0.615521 0.029531 0.044297
0.653701 0.028882 0.043323
0.691605 0.028237 0.042356
0.729168 0.027598 0.041397
0.766329 0.026966 0.040449
0.803033 0.026342 0.039513
0.839226 0.025726 0.038590
0.874860 0.025120 0.037681
0.909894 0.024525 0.036787
0.944291 0.023939 0.035909
0.978021 0.023366 0.035049
1.000000 0.022992 0.034488
1.000000 0.022992 0.034488
1.000000 0.022992 0.034488
0.000000 0.040000 0.060000
0.000000 0.040000 0.060000
0.000000 0.040000 0.060000
0.021979 0.039626 0.059439
0.055709 0.039053 0.058579
0.090106 0.038467 0.057701
0.125140 0.037872 0.056807
0.160774 0.037266 0.055898
0.196967 0.036650 0.054975
0.233671 0.036026 0.054039
0.270832 0.035394 0.053091
0.308395 0.034755 0.052132
0.346299 0.034110 0.051165
0.384479 0.033461 0.050191
0.422868 0.032808 0.049212
0.461399 0.032153 0.048229
0.500000 0.031496 0.047244
0.538601 0.030839 0.046259
0.577132 0.030184 0.045276
0.615521 0.029531 0.044297
0.653701 0.028882 0.043323
0.691605 0.028237 0.042356
0.729168 0.027598 0.041397
0.766329 0.026966 0.040449
0.803033 0.026342 0.039513
0.839226 0.025726 0.038590
0.874860 0.025120 0.037681
0.909894 0.024525 0.036787
0.944291 0.023939 0.035909
0.978021 0.023366 0.035049
1.000000 0.022992 0.034488
1.000000 0.022992 0.034488
1.000000 0.022992 0.034488
0.000000 0.040000 0.060000
0.000000 0.040000 0.060000
0.000000 0.040000 0.060000
0.021979 0.039626 0.059439
0.055709 0.039053 0.058579
0.090106 0.038467 0.057701
0.125140 0.037872 0.056807
0.160774 0.037266 0.055898
0.196967 0.036650 0.054975
0.233671 0.036026 0.054039
0.270832 0.035394 0.053091
0.308395 0.034755 0.052132
0.346299 0.034110 0.051165
0.384479 0.033461 0.050191
0.422868 0.032808 0.049212
0.461399 0.032153 0.048229
0.500000 0.031496 0.047244
0.538601 0.030839 0.046259
0.577132 0.030184 0.045276
0.615521 0.029531 0.044297
0.653701 0.028882 0.043323
0.691605 0.028237 0.042356
0.729168 0.027598 0.041397
0.766329 0.026966 0.040449
0.803033 0.026342 0.039513
0.839226 0.025726 0.038590
0.874860 0.025120 0.037681
0.909894 0.024525 0.036787
0.944291 0.023939 0.035909
0.978021 0.023366 0.035049
1.000000 0.022992 0.034488
1.000000 0.022992 0.034488
1.000000 0.022992 0.034488
0.000000 0.060722 0.058114
0.000000 0.060722 0.058114
0.000000 0.060722 0.058114
0.021979 0.060348 0.057553
0.055709 0.059774 0.056692
0.090106 0.059189 0.055815
0.125140 0.058594 0.054921
0.160774 0.057987 0.054012
0.196967 0.057372 0.053089
0.233671 0.056748 0.052152
0.270832 0.056116 0.051204
0.308395 0.055477 0.050246
0.346299 0.054832 0.049279
0.384479 0.054183 0.048305
0.422868 0.053530 0.047325
0.461399 0.052874 0.046342
0.500000 0.052218 0.045358
0.538601 0.051561 0.044373
0.577132 0.050906 0.043390
0.615521 0.050253 0.042410
0.653701 0.049604 0.041436
0.691605 0.048959 0.040469
0.729168 0.048320 0.039511
0.766329 0.047688 0.038563
0.803033 0.047064 0.037627
0.839226 0.046448 0.036703
0.874860 0.045842 0.035794
0.909894 0.045246 0.034900
0.944291 0.044661 0.034023
0.978021 0.044088 0.033162
1.000000 0.043714 0.032602
1.000000 0.043714 0.032602
1.000000 0.043714 0.032602
0.000000 0.092522 0.055219
0.000000 0.092522 0.055219
0.000000 0.092522 0.055219
0.021979 0.092148 0.054658
0.055709 0.091574 0.053798
0.090106 0.090989 0.052920
0.125140 0.090393 0.052026
0.160774 0.089787 0.051117
0.196967 0.089172 0.050194
0.233671 0.088547 0.049257
0.270832 0.087915 0.048309
0.308395 0.087276 0.047351
0.346299 0.086632 0.046384
0.384479 0.085982 0.045410
0.422868 0.085329 0.044431
0.461399 0.084674 0.043448
0.500000 0.084018 0.042463
0.538601 0.083361 0.041478
0.577132 0.082706 0.040495
0.615521 0.082053 0.039516
0.653701 0.081403 0.038542
0.691605 0.080759 0.037575
0.729168 0.080120 0.036616
0.766329 0.079488 0.035668
0.803033 0.078864 0.034732
0.839226 0.078248 0.033808
0.874860 0.077642 0.032899
0.909894 0.077046 0.032006
0.944291 0.076461 0.031128
0.978021 0.075887 0.030268
1.000000 0.075514 0.029707
1.000000 0.075514 0.029707
1.000000 0.075514 0.029707
0.000000 0.124950 0.052267
0.000000 0.124950 0.052267
0.000000 0.124950 0.052267
0.021979 0.124577 0.051706
0.055709 0.124003 0.050846
0.090106 0.123418 0.049968
0.125140 0.122822 0.049074
0.160774 0.122216 0.048165
0.196967 0.121600 0.047242
0.233671 0.120976 0.046305
0.270832 0.120344 0.045357
0.308395 0.119705 0.044399
0.346299 0.119061 0.043432
0.384479 0.118411 0.042458
0.422868 0.117758 0.041479
0.461399 0.117103 0.040496
0.500000 0.116446 0.039511
0.538601 0.115790 0.038526
0.577132 0.115135 0.037543
0.615521 0.114482 0.036564
0.653701 0.113832 0.035590
0.691605 0.113188 0.034623
0.729168 0.112549 0.033664
0.766329 0.111917 0.032716
0.803033 0.111292 0.031780
0.839226 0.110677 0.030856
0.874860 0.110071 0.029947
0.909894 0.109475 0.029054
0.944291 0.108890 0.028176
0.978021 0.108316 0.027315
1.000000 0.107942 0.026755
1.000000 0.107942 0.026755
1.000000 0.107942 0.026755
0.000000 0.157980 0.049260
0.000000 0.157980 0.049260
0.000000 0.157980 0.049260
0.021979 0.157606 0.048699
0.055709 0.157032 0.047839
0.090106 0.156447 0.046961
0.125140 0.155851 0.046067
0.160774 0.155245 0.045158
0.196967 0.154630 0.044235
0.233671 0.154006 0.043299
0.270832 0.153373 0.042351
0.308395 0.152735 0.041392
0.346299 0.152090 0.040425
0.384479 0.151441 0.039451
0.422868 0.150788 0.038472
0.461399 0.150132 0.037489
0.500000 0.149476 0.036504
0.538601 0.148819 0.035519
0.577132 0.148164 0.034536
0.615521 0.147511 0.033557
0.653701 0.146862 0.032583
0.691605 0.146217 0.031616
0.729168 0.145578 0.030657
0.766329 0.144946 0.029709
0.803033 0.144322 0.028773
0.839226 0.143706 0.027850
0.874860 0.143100 0.026941
0.909894 0.142504 0.026047
0.944291 0.141919 0.025169
0.978021 0.141346 0.024309
1.000000 0.140972 0.023748
1.000000 0.140972 0.023748
1.000000 0.140972 0.023748
0.000000 0.191575 0.046202
0.000000 0.191575 0.046202
0.000000 0.191575 0.046202
0.021979 0.191202 0.045641
0.055709 0.190628 0.044780
0.090106 0.190043 0.043903
0.125140 0.189447 0.043009
0.160774 0.188841 0.042100
0.196967 0.188225 0.041177
0.233671 0.187601 0.040240
0.270832 0.186969 0.039292
0.308395 0.186330 0.038334
0.346299 0.185686 0.037367
0.384479 0.185036 0.036393
0.422868 0.184383 0.035413
0.461399 0.183728 0.034431
0.500000 0.183071 0.033446
0.538601 0.182415 0.032461
0.577132 0.181760 0.031478
0.615521 0.181107 0.030499
0.653701 0.180457 0.029524
0.691605 0.179813 0.028557
0.729168 0.179174 0.027599
0.766329 0.178542 0.026651
0.803033 0.177917 0.025715
0.839226 0.177302 0.024791
0.874860 0.176696 0.023882
0.909894 0.176100 0.022988
0.944291 0.175515 0.022111
0.978021 0.174941 0.021250
1.000000 0.174567 0.020690
1.000000 0.174567 0.020690
1.000000 0.174567 0.020690
0.000000 0.225697 0.043096
0.000000 0.225697 0.043096
0.000000 0.225697 0.043096
0.021979 0.225324 0.042535
0.055709 0.224750 0.041674
0.090106 0.224165 0.040797
0.125140 0.223569 0.039903
0.160774 0.222963 0.038994
0.196967 0.222347 0.038070
0.233671 0.221723 0.037134
0.270832 0.221091 0.036186
0.308395 0.220452 0.035228
0.346299 0.219807 0.034261
0.384479 0.219158 0.033287
0.422868 0.218505 0.032307
0.461399 0.217850 0.031324
0.500000 0.217193 0.030340
0.538601 0.216537 0.029355
0.577132 0.215881 0.028372
0.615521 0.215229 0.027392
0.653701 0.214579 0.026418
0.691605 0.213935 0.025451
0.729168 0.213296 0.024493
0.766329 0.212664 0.023545
0.803033 0.212039 0.022609
0.839226 0.211424 0.021685
0.874860 0.210818 0.020776
0.909894 0.210222 0.019882
0.944291 0.209637 0.019005
0.978021 0.209063 0.018144
1.000000 0.208689 0.017584
1.000000 0.208689 0.017584
1.000000 0.208689 0.017584
0.000000 0.260301 0.039945
0.000000 0.260301 0.039945
0.000000 0.260301 0.039945
0.021979 0.259927 0.039385
0.055709 0.259353 0.038524
0.090106 0.258768 0.037647
0.125140 0.258172 0.036753
0.160774 0.257566 0.035844
0.196967 0.256951 0.034920
0.233671 0.256327 0.033984
0.270832 0.255694 0.033036
0.308395 0.255056 0.032078
0.346299 0.254411 0.031111
0.384479 0.253762 0.030137
0.422868 0.253109 0.029157
0.461399 0.252453 0.028174
0.500000 0.251797 0.027189
0.538601 0.251140 0.026205
0.577132 0.250485 0.025222
0.615521 0.249832 0.024242
0.653701 0.249183 0.023268
0.691605 0.248538 0.022301
0.729168 0.247899 0.021343
0.766329 0.247267 0.020395
0.803033 0.246643 0.019458
0.839226 0.246027 0.018535
0.874860 0.245421 0.017626
0.909894 0.244825 0.016732
0.944291 0.244240 0.015855
0.978021 0.243667 0.014994
1.000000 0.243293 0.014433
1.000000 0.243293 0.014433
1.000000 0.243293 0.014433
0.000000 0.295336 0.036756
0.000000 0.295336 0.036756
0.000000 0.295336 0.036756
0.021979 0.294962 0.036195
0.055709 0.294389 0.035335
0.090106 0.293804 0.034457
0.125140 0.293208 0.033564
0.160774 0.292602 0.032654
0.196967 0.291986 0.031731
0.233671 0.291362 0.030795
0.270832 0.290730 0.029847
0.308395 0.290091 0.028888
0.346299 0.289446 0.027921
0.384479 0.288797 0.026947
0.422868 0.288144 0.025968
0.461399 0.287489 0.024985
0.500000 0.286832 0.024000
0.538601 0.286176 0.023015
0.577132 0.285520 0.022032
0.615521 0.284868 0.021053
0.653701 0.284218 0.020079
0.691605 0.283573 0.019112
0.729168 0.282935 0.018154
0.766329 0.282303 0.017205
0.803033 0.281678 0.016269
0.839226 0.281063 0.015346
0.874860 0.280457 0.014437
0.909894 0.279861 0.013543
0.944291 0.279276 0.012665
0.978021 0.278702 0.011805
1.000000 0.278328 0.011244
1.000000 0.278328 0.011244
1.000000 0.278328 0.011244
0.000000 0.330750 0.033532
0.000000 0.330750 0.033532
0.000000 0.330750 0.033532
0.021979 0.330376 0.032972
0.055709 0.329803 0.032111
0.090106 0.329218 0.031234
0.125140 0.328622 0.030340
0.160774 0.328016 0.029431
0.196967 0.327400 0.028507
0.233671 0.326776 0.027571
0.270832 0.326144 0.026623
0.308395 0.325505 0.025665
0.346299 0.324860 0.024698
0.384479 0.324211 0.023723
0.422868 0.323558 0.022744
0.461399 0.322903 0.021761
0.500000 0.322246 0.020776
0.538601 0.321590 0.019791
0.577132 0.320934 0.018809
0.615521 0.320281 0.017829
0.653701 0.319632 0.016855
0.691605 0.318987 0.015888
0.729168 0.318348 0.014930
0.766329 0.317716 0.013982
0.803033 0.317092 0.013045
0.839226 0.316477 0.012122
0.874860 0.315870 0.011213
0.909894 0.315275 0.010319
0.944291 0.314690 0.009442
0.978021 0.314116 0.008581
1.000000 0.313742 0.008020
1.000000 0.313742 0.008020
1.000000 0.313742 0.008020
0.000000 0.366485 0.030279
0.000000 0.366485 0.030279
0.000000 0.366485 0.030279
0.021979 0.366111 0.029719
0.055709 0.365537 0.028858
0.090106 0.364952 0.027980
0.125140 0.364357 0.027087
0.160774 0.363750 0.026178
0.196967 0.363135 0.025254
0.233671 0.362511 0.024318
0.270832 0.361879 0.023370
0.308395 0.361240 0.022411
0.346299 0.360595 0.021444
0.384479 0.359946 0.020470
0.422868 0.359293 0.019491
0.461399 0.358637 0.018508
0.500000 0.357981 0.017523
0.538601 0.357324 0.016538
0.577132 0.356669 0.015555
0.615521 0.356016 0.014576
0.653701 0.355367 0.013602
0.691605 0.354722 0.012635
0.729168 0.354083 0.011677
0.766329 0.353451 0.010729
0.803033 0.352827 0.009792
0.839226 0.352211 0.008869
0.874860 0.351605 0.007960
0.909894 0.351009 0.007066
0.944291 0.350424 0.006189
0.978021 0.349851 0.005328
1.000000 0.349477 0.004767
1.000000 0.349477 0.004767
1.000000 0.349477 0.004767
0.000000 0.402480 0.027003
0.000000 0.402480 0.027003
0.000000 0.402480 0.027003
0.021979 0.402106 0.026442
0.055709 0.401533 0.025581
0.090106 0.400948 0.024704
0.125140 0.400352 0.023810
0.160774 0.399746 0.022901
0.196967 0.399130 0.021977
0.233671 0.398506 0.021041
0.270832 0.397874 0.020093
0.308395 0.397235 0.019135
0.346299 0.396590 0.018168
0.384479 0.395941 0.017194
0.422868 0.395288 0.016214
0.461399 0.394633 0.015231
0.500000 0.393976 0.014247
0.538601 0.393320 0.013262
0.577132 0.392664 0.012279
0.615521 0.392012 0.011299
0.653701 0.391362 0.010325
0.691605 0.390718 0.009358
0.729168 0.390079 0.008400
0.766329 0.389447 0.007452
0.803033 0.388822 0.006516
0.839226 0.388207 0.005592
0.874860 0.387601 0.004683
0.909894 0.387005 0.003789
0.944291 0.386420 0.002912
0.978021 0.385846 0.002051
1.000000 0.385472 0.001491
1.000000 0.385472 0.001491
1.000000 0.385472 0.001491
0.000000 0.438673 0.023708
0.000000 0.438673 0.023708
0.000000 0.438673 0.023708
0.021979 0.438300 0.023147
0.055709 0.437726 0.022287
0.090106 0.437141 0.021409
0.125140 0.436545 0.020515
0.160774 0.435939 0.019606
0.196967 0.435323 0.018683
0.233671 0.434699 0.017746
0.270832 0.434067 0.016798
0.308395 0.433428 0.015840
0.346299 0.432784 0.014873
0.384479 0.432134 0.013899
0.422868 0.431481 0.012920
0.461399 0.430826 0.011937
0.500000 0.430169 0.010952
0.538601 0.429513 0.009967
0.577132 0.428858 0.008984
0.615521 0.428205 0.008005
0.653701 0.427555 0.007031
0.691605 0.426911 0.006064
0.729168 0.426272 0.005105
0.766329 0.425640 0.004157
0.803033 0.425015 0.003221
0.839226 0.424400 0.002297
0.874860 0.423794 0.001388
0.909894 0.423198 0.000495
0.944674 0.422868 0.000000
0.979264 0.422868 0.000000
1.000000 0.422868 0.000000
1.000000 0.422868 0.000000
1.000000 0.422868 0.000000
0.000000 0.474999 0.020401
0.000000 0.474999 0.020401
0.000000 0.474999 0.020401
0.021979 0.474625 0.019840
0.055709 0.474052 0.018980
0.090106 0.473467 0.018102
0.125140 0.472871 0.017208
0.160774 0.472265 0.016299
0.196967 0.471649 0.015376
0.233671 0.471025 0.014440
0.270832 0.470393 0.013491
0.308395 0.469754 0.012533
0.346299 0.469109 0.011566
0.384479 0.468460 0.010592
0.422868 0.467807 0.009613
0.461399 0.467152 0.008630
0.500000 0.466495 0.007645
0.538601 0.465839 0.006660
0.577132 0.465183 0.005677
0.615521 0.464531 0.004698
0.653701 0.463881 0.003724
0.691605 0.463237 0.002757
0.729168 0.462598 0.001798
0.766329 0.461966 0.000850
0.803119 0.461399 0.000000
0.840235 0.461399 0.000000
0.876779 0.461399 0.000000
0.912706 0.461399 0.000000
0.947981 0.461399 0.000000
0.982571 0.461399 0.000000
1.000000 0.461399 0.000000
1.000000 0.461399 0.000000
1.000000 0.461399 0.000000
0.000000 0.511392 0.017088
0.000000 0.511392 0.017088
0.000000 0.511392 0.017088
0.021979 0.511018 0.016527
0.055709 0.510445 0.015667
0.090106 0.509859 0.014789
0.125140 0.509264 0.013895
0.160774 0.508658 0.012986
0.196967 0.508042 0.012063
0.233671 0.507418 0.011127
0.270832 0.506786 0.010179
0.308395 0.506147 0.009220
0.346299 0.505502 0.008253
0.384479 0.504853 0.007279
0.422868 0.504200 0.006300
0.461399 0.503545 0.005317
0.500000 0.502888 0.004332
0.538601 0.502231 0.003347
0.577132 0.501576 0.002364
0.615521 0.500923 0.001385
0.653701 0.500274 0.000411
0.692161 0.500000 0.000000
0.730682 0.500000 0.000000
0.768792 0.500000 0.000000
0.806432 0.500000 0.000000
0.843548 0.500000 0.000000
0.880092 0.500000 0.000000
0.916019 0.500000 0.000000
0.951294 0.500000 0.000000
0.985884 0.500000 0.000000
1.000000 0.500000 0.000000
1.000000 0.500000 0.000000
1.000000 0.500000 0.000000
0.000000 0.547785 0.013775
0.000000 0.547785 0.013775
0.000000 0.547785 0.013775
0.021979 0.547411 0.013214
0.055709 0.546837 0.012354
0.090106 0.546252 0.011476
0.125140 0.545656 0.010583
0.160774 0.545050 0.009673
0.196967 0.544435 0.008750
0.233671 0.543810 0.007814
0.270832 0.543178 0.006866
0.308395 0.542539 0.005907
0.346299 0.541895 0.004940
0.384479 0.541245 0.003966
0.422868 0.540593 0.002987
0.461399 0.539937 0.002004
0.500000 0.539281 0.001019
0.538601 0.538624 0.000034
0.578080 0.538601 0.000000
0.617449 0.538601 0.000000
0.656603 0.538601 0.000000
0.695474 0.538601 0.000000
0.733995 0.538601 0.000000
0.772105 0.538601 0.000000
0.809745 0.538601 0.000000
0.846861 0.538601 0.000000
0.883405 0.538601 0.000000
0.919332 0.538601 0.000000
0.954607 0.538601 0.000000
0.989197 0.538601 0.000000
1.000000 0.538601 0.000000
1.000000 0.538601 0.000000
1.000000 0.538601 0.000000
0.000000 0.584111 0.010468
0.000000 0.584111 0.010468
0.000000 0.584111 0.010468
0.021979 0.583737 0.009908
0.055709 0.583163 0.009047
0.090106 0.582578 0.008169
0.125140 0.581982 0.007276
0.160774 0.581376 0.006367
0.196967 0.580761 0.005443
0.233671 0.580136 0.004507
0.270832 0.579504 0.003559
0.308395 0.578865 0.002600
0.346299 0.578221 0.001633
0.384479 0.577571 0.000659
0.423188 0.577132 0.000000
0.462702 0.577132 0.000000
0.502288 0.577132 0.000000
0.541874 0.577132 0.000000
0.581387 0.577132 0.000000
0.620756 0.577132 0.000000
0.659910 0.577132 0.000000
0.698781 0.577132 0.000000
0.737302 0.577132 0.000000
0.775412 0.577132 0.000000
0.813052 0.577132 0.000000
0.850168 0.577132 0.000000
0.886711 0.577132 0.000000
0.922639 0.577132 0.000000
0.957913 0.577132 0.000000
0.992504 0.577132 0.000000
1.000000 0.577132 0.000000
1.000000 0.577132 0.000000
1.000000 0.577132 0.000000
0.000000 0.620304 0.007173
0.000000 0.620304 0.007173
0.000000 0.620304 0.007173
0.021979 0.619930 0.006613
0.055709 0.619356 0.005752
0.090106 0.618771 0.004875
0.125140 0.618175 0.003981
0.160774 0.617569 0.003072
0.196967 0.616954 0.002148
0.233671 0.616329 0.001212
0.270832 0.615697 0.000264
0.309090 0.615521 0.000000
0.347960 0.615521 0.000000
0.387114 0.615521 0.000000
0.426483 0.615521 0.000000
0.465996 0.615521 0.000000
0.505583 0.615521 0.000000
0.545169 0.615521 0.000000
0.584682 0.615521 0.000000
0.624051 0.615521 0.000000
0.663205 0.615521 0.000000
0.702075 0.615521 0.000000
0.740597 0.615521 0.000000
0.778707 0.615521 0.000000
0.816346 0.615521 0.000000
0.853463 0.615521 0.000000
0.890006 0.615521 0.000000
0.925934 0.615521 0.000000
0.961208 0.615521 0.000000
0.995798 0.615521 0.000000
1.000000 0.615521 0.000000
1.000000 0.615521 0.000000
1.000000 0.615521 0.000000
0.000000 0.656299 0.003897
0.000000 0.656299 0.003897
0.000000 0.656299 0.003897
0.021979 0.655925 0.003336
0.055709 0.655352 0.002475
0.090106 0.654767 0.001598
0.125140 0.654171 0.000704
0.160979 0.653701 0.000000
0.198095 0.653701 0.000000
0.235735 0.653701 0.000000
0.273845 0.653701 0.000000
0.312366 0.653701 0.000000
0.351237 0.653701 0.000000
0.390391 0.653701 0.000000
0.429760 0.653701 0.000000
0.469273 0.653701 0.000000
0.508859 0.653701 0.000000
0.548445 0.653701 0.000000
0.587959 0.653701 0.000000
0.627328 0.653701 0.000000
0.666482 0.653701 0.000000
0.705352 0.653701 0.000000
0.743874 0.653701 0.000000
0.781983 0.653701 0.000000
0.819623 0.653701 0.000000
0.856739 0.653701 0.000000
0.893283 0.653701 0.000000
0.929211 0.653701 0.000000
0.964485 0.653701 0.000000
0.999075 0.653701 0.000000
1.000000 0.653701 0.000000
1.000000 0.653701 0.000000
1.000000 0.653701 0.000000
0.000000 0.692034 0.000644
0.000000 0.692034 0.000644
0.000000 0.692034 0.000644
0.021979 0.691660 0.000083
0.056487 0.691605 0.000000
0.091761 0.691605 0.000000
0.127689 0.691605 0.000000
0.164232 0.691605 0.000000
0.201348 0.691605 0.000000
0.238988 0.691605 0.000000
0.277098 0.691605 0.000000
0.315619 0.691605 0.000000
0.354490 0.691605 0.000000
0.393644 0.691605 0.000000
0.433013 0.691605 0.000000
0.472526 0.691605 0.000000
0.512112 0.691605 0.000000
0.551698 0.691605 0.000000
0.591212 0.691605 0.000000
0.630581 0.691605 0.000000
0.669735 0.691605 0.000000
0.708605 0.691605 0.000000
0.747127 0.691605 0.000000
0.785236 0.691605 0.000000
0.822876 0.691605 0.000000
0.859992 0.691605 0.000000
0.896536 0.691605 0.000000
0.932464 0.691605 0.000000
0.967738 0.691605 0.000000
1.000000 0.691605 0.000000
1.000000 0.691605 0.000000
1.000000 0.691605 0.000000
1.000000 0.691605 0.000000
0.002580 0.729168 0.000000
0.002580 0.729168 0.000000
0.002580 0.729168 0.000000
0.025120 0.729168 0.000000
0.059710 0.729168 0.000000
0.094985 0.729168 0.000000
0.130912 0.729168 0.000000
0.167456 0.729168 0.000000
0.204572 0.729168 0.000000
0.242212 0.729168 0.000000
0.280322 0.729168 0.000000
0.318843 0.729168 0.000000
0.357714 0.729168 0.000000
0.396868 0.729168 0.000000
0.436237 0.729168 0.000000
0.475750 0.729168 0.000000
0.515336 0.729168 0.000000
0.554922 0.729168 0.000000
0.594436 0.729168 0.000000
0.633805 0.729168 0.000000
0.672959 0.729168 0.000000
0.711829 0.729168 0.000000
0.750350 0.729168 0.000000
0.788460 0.729168 0.000000
0.826100 0.729168 0.000000
0.863216 0.729168 0.000000
0.899760 0.729168 0.000000
0.935687 0.729168 0.000000
0.970962 0.729168 0.000000
1.000000 0.729168 0.000000
1.000000 0.729168 0.000000
1.000000 0.729168 0.000000
1.000000 0.729168 0.000000
0.005769 0.766329 0.000000
0.005769 0.766329 0.000000
0.005769 0.766329 0.000000
0.028310 0.766329 0.000000
0.062900 0.766329 0.000000
0.098174 0.766329 0.000000
0.134102 0.766329 0.000000
0.170645 0.766329 0.000000
0.207761 0.766329 0.000000
0.245401 0.766329 0.000000
0.283511 0.766329 0.000000
0.322032 0.766329 0.000000
0.360903 0.766329 0.000000
0.400057 0.766329 0.000000
0.439426 0.766329 0.000000
0.478939 0.766329 0.000000
0.518525 0.766329 0.000000
0.558112 0.766329 0.000000
0.597625 0.766329 0.000000
0.636994 0.766329 0.000000
0.676148 0.766329 0.000000
0.715018 0.766329 0.000000
0.753540 0.766329 0.000000
0.791650 0.766329 0.000000
0.829289 0.766329 0.000000
0.866406 0.766329 0.000000
0.902949 0.766329 0.000000
0.938877 0.766329 0.000000
0.974151 0.766329 0.000000
1.000000 0.766329 0.000000
1.000000 0.766329 0.000000
1.000000 0.766329 0.000000
1.000000 0.766329 0.000000
0.008920 0.803033 0.000000
0.008920 0.803033 0.000000
0.008920 0.803033 0.000000
0.031460 0.803033 0.000000
0.066050 0.803033 0.000000
0.101324 0.803033 0.000000
0.137252 0.803033 0.000000
0.173795 0.803033 0.000000
0.210912 0.803033 0.000000
0.248551 0.803033 0.000000
0.286661 0.803033 0.000000
0.325183 0.803033 0.000000
0.364053 0.803033 0.000000
0.403207 0.803033 0.000000
0.442576 0.803033 0.000000
0.482089 0.803033 0.000000
0.521676 0.803033 0.000000
0.561262 0.803033 0.000000
0.600775 0.803033 0.000000
0.640144 0.803033 0.000000
0.679298 0.803033 0.000000
0.718168 0.803033 0.000000
0.756690 0.803033 0.000000
0.794800 0.803033 0.000000
0.832439 0.803033 0.000000
0.869556 0.803033 0.000000
0.906099 0.803033 0.000000
0.942027 0.803033 0.000000
0.977301 0.803033 0.000000
1.000000 0.803033 0.000000
1.000000 0.803033 0.000000
1.000000 0.803033 0.000000
1.000000 0.803033 0.000000
0.012026 0.839226 0.000000
0.012026 0.839226 0.000000
0.012026 0.839226 0.000000
0.034566 0.839226 0.000000
0.069156 0.839226 0.000000
0.104430 0.839226 0.000000
0.140358 0.839226 0.000000
0.176902 0.839226 0.000000
0.214018 0.839226 0.000000
0.251658 0.839226 0.000000
0.289767 0.839226 0.000000
0.328289 0.839226 0.000000
0.367159 0.839226 0.000000
0.406313 0.839226 0.000000
0.445682 0.839226 0.000000
0.485196 0.839226 0.000000
0.524782 0.839226 0.000000
0.564368 0.839226 0.000000
0.603881 0.839226 0.000000
0.643250 0.839226 0.000000
0.682404 0.839226 0.000000
0.721275 0.839226 0.000000
0.759796 0.839226 0.000000
0.797906 0.839226 0.000000
0.835546 0.839226 0.000000
0.872662 0.839226 0.000000
0.909205 0.839226 0.000000
0.945133 0.839226 0.000000
0.980407 0.839226 0.000000
1.000000 0.839226 0.000000
1.000000 0.839226 0.000000
1.000000 0.839226 0.000000
1.000000 0.839226 0.000000
0.015084 0.874860 0.000000
0.015084 0.874860 0.000000
0.015084 0.874860 0.000000
0.037624 0.874860 0.000000
0.072214 0.874860 0.000000
0.107489 0.874860 0.000000
0.143416 0.874860 0.000000
0.179960 0.874860 0.000000
0.217076 0.874860 0.000000
0.254716 0.874860 0.000000
0.292826 0.874860 0.000000
0.331347 0.874860 0.000000
0.370218 0.874860 0.000000
0.409371 0.874860 0.000000
0.448740 0.874860 0.000000
0.488254 0.874860 0.000000
0.527840 0.874860 0.000000
0.567426 0.874860 0.000000
0.606940 0.874860 0.000000
0.646309 0.874860 0.000000
0.685462 0.874860 0.000000
0.724333 0.874860 0.000000
0.762854 0.874860 0.000000
0.800964 0.874860 0.000000
0.838604 0.874860 0.000000
