template/capabilities/color/luts/teal-orange.cube
# house LUT — Teal-Orange (generated by _generate-luts.py)
TITLE "Teal-Orange"
LUT_3D_SIZE 9
DOMAIN_MIN 0.0 0.0 0.0
DOMAIN_MAX 1.0 1.0 1.0
0.000000 0.040000 0.060000
0.055709 0.039053 0.058579
0.196967 0.036650 0.054975
0.346299 0.034110 0.051165
0.500000 0.031496 0.047244
0.653701 0.028882 0.043323
0.803033 0.026342 0.039513
0.944291 0.023939 0.035909
1.000000 0.022992 0.034488
0.000000 0.092522 0.055219
0.055709 0.091574 0.053798
0.196967 0.089172 0.050194
0.346299 0.086632 0.046384
0.500000 0.084018 0.042463
0.653701 0.081403 0.038542
0.803033 0.078864 0.034732
0.944291 0.076461 0.031128
1.000000 0.075514 0.029707
0.000000 0.225697 0.043096
0.055709 0.224750 0.041674
0.196967 0.222347 0.038070
0.346299 0.219807 0.034261
0.500000 0.217193 0.030340
0.653701 0.214579 0.026418
0.803033 0.212039 0.022609
0.944291 0.209637 0.019005
1.000000 0.208689 0.017584
0.000000 0.366485 0.030279
0.055709 0.365537 0.028858
0.196967 0.363135 0.025254
0.346299 0.360595 0.021444
0.500000 0.357981 0.017523
0.653701 0.355367 0.013602
0.803033 0.352827 0.009792
0.944291 0.350424 0.006189
1.000000 0.349477 0.004767
0.000000 0.511392 0.017088
0.055709 0.510445 0.015667
0.196967 0.508042 0.012063
0.346299 0.505502 0.008253
0.500000 0.502888 0.004332
0.653701 0.500274 0.000411
0.806432 0.500000 0.000000
0.951294 0.500000 0.000000
1.000000 0.500000 0.000000
0.000000 0.656299 0.003897
0.055709 0.655352 0.002475
0.198095 0.653701 0.000000
0.351237 0.653701 0.000000
0.508859 0.653701 0.000000
0.666482 0.653701 0.000000
0.819623 0.653701 0.000000
0.964485 0.653701 0.000000
1.000000 0.653701 0.000000
0.008920 0.803033 0.000000
0.066050 0.803033 0.000000
0.210912 0.803033 0.000000
0.364053 0.803033 0.000000
0.521676 0.803033 0.000000
0.679298 0.803033 0.000000
0.832439 0.803033 0.000000
0.977301 0.803033 0.000000
1.000000 0.803033 0.000000
0.021043 0.944291 0.000000
0.078173 0.944291 0.000000
0.223035 0.944291 0.000000
0.376176 0.944291 0.000000
0.533799 0.944291 0.000000
0.691421 0.944291 0.000000
0.844563 0.944291 0.000000
0.989425 0.944291 0.000000
1.000000 0.944291 0.000000
0.025824 1.000000 0.000000
0.082954 1.000000 0.000000
0.227816 1.000000 0.000000
0.380958 1.000000 0.000000
0.538580 1.000000 0.000000
0.696202 1.000000 0.000000
0.849344 1.000000 0.000000
0.994206 1.000000 0.000000
1.000000 1.000000 0.000000
0.000000 0.039678 0.115226
0.055709 0.038731 0.113805
0.196967 0.036328 0.110201
0.346299 0.033788 0.106392
0.500000 0.031174 0.102470
0.653701 0.028560 0.098549
0.803033 0.026020 0.094739
0.944291 0.023618 0.091136
1.000000 0.022670 0.089714
0.000000 0.092200 0.110445
0.055709 0.091252 0.109024
0.196967 0.088850 0.105420
0.346299 0.086310 0.101610
0.500000 0.083696 0.097689
0.653701 0.081082 0.093768
0.803033 0.078542 0.089958
0.944291 0.076139 0.086354
1.000000 0.075192 0.084933
0.000000 0.225376 0.098322
0.055709 0.224428 0.096901
0.196967 0.222026 0.093297
0.346299 0.219486 0.089487
0.500000 0.216872 0.085566
0.653701 0.214257 0.081645
0.803033 0.211718 0.077835
0.944291 0.209315 0.074231
1.000000 0.208368 0.072810
0.000000 0.366163 0.085506
0.055709 0.365216 0.084084
0.196967 0.362813 0.080481
0.346299 0.360273 0.076671
0.500000 0.357659 0.072750
0.653701 0.355045 0.068828
0.803033 0.352505 0.065019
0.944291 0.350103 0.061415
1.000000 0.349155 0.059994
0.000000 0.511070 0.072314
0.055709 0.510123 0.070893
0.196967 0.507720 0.067289
0.346299 0.505180 0.063480
0.500000 0.502566 0.059558
0.653773 0.500000 0.055661
0.806915 0.500000 0.053121
0.951776 0.500000 0.050719
1.000000 0.500000 0.049771
0.000000 0.655977 0.059123
0.055709 0.655030 0.057702
0.198578 0.653701 0.054635
0.351719 0.653701 0.052095
0.509342 0.653701 0.049481
0.666964 0.653701 0.046867
0.820106 0.653701 0.044327
0.964968 0.653701 0.041925
1.000000 0.653701 0.040977
0.009402 0.803033 0.049441
0.066532 0.803033 0.048493
0.211394 0.803033 0.046091
0.364536 0.803033 0.043551
0.522158 0.803033 0.040937
0.679781 0.803033 0.038323
0.832922 0.803033 0.035783
0.977784 0.803033 0.033380
1.000000 0.803033 0.032433
0.021525 0.944291 0.041359
0.078656 0.944291 0.040411
0.223518 0.944291 0.038009
0.376659 0.944291 0.035469
0.534281 0.944291 0.032855
0.691904 0.944291 0.030241
0.845045 0.944291 0.027701
0.989907 0.944291 0.025298
1.000000 0.944291 0.024351
0.026307 1.000000 0.038171
0.083437 1.000000 0.037224
0.228299 1.000000 0.034821
0.381440 1.000000 0.032281
0.539063 1.000000 0.029667
0.696685 1.000000 0.027053
0.849827 1.000000 0.024513
0.994688 1.000000 0.022111
1.000000 1.000000 0.021163
0.000000 0.038862 0.255260
0.055709 0.037915 0.253839
0.196967 0.035512 0.250235
0.346299 0.032972 0.246426
0.500000 0.030358 0.242504
0.653701 0.027744 0.238583
0.803033 0.025204 0.234773
0.944291 0.022802 0.231170
1.000000 0.021854 0.229748
0.000000 0.091384 0.250479
0.055709 0.090436 0.249058
0.196967 0.088034 0.245454
0.346299 0.085494 0.241645
0.500000 0.082880 0.237723
0.653701 0.080266 0.233802
0.803033 0.077726 0.229992
0.944291 0.075323 0.226389
1.000000 0.074376 0.224967
0.000000 0.224560 0.238356
0.055709 0.223612 0.236935
0.196967 0.221210 0.233331
0.346299 0.218670 0.229521
0.500000 0.216056 0.225600
0.653701 0.213441 0.221679
0.803033 0.210902 0.217869
0.944291 0.208499 0.214265
1.000000 0.207552 0.212844
0.000000 0.365347 0.225540
0.055709 0.364400 0.224118
0.196967 0.361997 0.220515
0.346299 0.359457 0.216705
0.500000 0.356843 0.212784
0.653701 0.354229 0.208862
0.803033 0.351689 0.205053
0.944291 0.349287 0.201449
1.000000 0.348339 0.200028
0.000000 0.510254 0.212348
0.055709 0.509307 0.210927
0.196967 0.506904 0.207323
0.346299 0.504364 0.203514
0.500000 0.501750 0.199592
0.654997 0.500000 0.196103
0.808139 0.500000 0.193563
0.953000 0.500000 0.191161
1.000000 0.500000 0.190213
0.000000 0.655161 0.199157
0.055709 0.654214 0.197736
0.199802 0.653701 0.195077
0.352943 0.653701 0.192537
0.510566 0.653701 0.189923
0.668188 0.653701 0.187309
0.821330 0.653701 0.184769
0.966191 0.653701 0.182367
1.000000 0.653701 0.181419
0.010626 0.803033 0.189883
0.067756 0.803033 0.188935
0.212618 0.803033 0.186533
0.365760 0.803033 0.183993
0.523382 0.803033 0.181379
0.681005 0.803033 0.178765
0.834146 0.803033 0.176225
0.979008 0.803033 0.173822
1.000000 0.803033 0.172875
0.022749 0.944291 0.181801
0.079880 0.944291 0.180853
0.224741 0.944291 0.178451
0.377883 0.944291 0.175911
0.535505 0.944291 0.173297
0.693128 0.944291 0.170683
0.846269 0.944291 0.168143
0.991131 0.944291 0.165740
1.000000 0.944291 0.164793
0.027531 1.000000 0.178613
0.084661 1.000000 0.177666
0.229523 1.000000 0.175263
0.382664 1.000000 0.172723
0.540287 1.000000 0.170109
0.697909 1.000000 0.167495
0.851051 1.000000 0.164955
0.995912 1.000000 0.162553
1.000000 1.000000 0.161605
0.000000 0.038000 0.403298
0.055709 0.037052 0.401877
0.196967 0.034650 0.398273
0.346299 0.032110 0.394464
0.500000 0.029496 0.390542
0.653701 0.026882 0.386621
0.803033 0.024342 0.382811
0.944291 0.021939 0.379208
1.000000 0.020992 0.377786
0.000000 0.090521 0.398517
0.055709 0.089574 0.397096
0.196967 0.087171 0.393492
0.346299 0.084632 0.389682
0.500000 0.082017 0.385761
0.653701 0.079403 0.381840
0.803033 0.076863 0.378030
0.944291 0.074461 0.374426
1.000000 0.073513 0.373005
0.000000 0.223697 0.386394
0.055709 0.222750 0.384973
0.196967 0.220347 0.381369
0.346299 0.217807 0.377559
0.500000 0.215193 0.373638
0.653701 0.212579 0.369717
0.803033 0.210039 0.365907
0.944291 0.207637 0.362303
1.000000 0.206689 0.360882
0.000000 0.364485 0.373578
0.055709 0.363537 0.372156
0.196967 0.361135 0.368553
0.346299 0.358595 0.364743
0.500000 0.355981 0.360822
0.653701 0.353367 0.356900
0.803033 0.350827 0.353091
0.944291 0.348424 0.349487
1.000000 0.347477 0.348066
0.000000 0.509392 0.360386
0.055709 0.508444 0.358965
0.196967 0.506042 0.355361
0.346299 0.503502 0.351552
0.500000 0.500888 0.347630
0.656291 0.500000 0.344572
0.809432 0.500000 0.342033
0.954294 0.500000 0.339630
1.000000 0.500000 0.338683
0.000000 0.654299 0.347195
0.056234 0.653701 0.345949
0.201096 0.653701 0.343546
0.354237 0.653701 0.341007
0.511860 0.653701 0.338392
0.669482 0.653701 0.335778
0.822624 0.653701 0.333238
0.967485 0.653701 0.330836
1.000000 0.653701 0.329888
0.011920 0.803033 0.338352
0.069050 0.803033 0.337405
0.213912 0.803033 0.335002
0.367053 0.803033 0.332462
0.524676 0.803033 0.329848
0.682298 0.803033 0.327234
0.835440 0.803033 0.324694
0.980302 0.803033 0.322292
1.000000 0.803033 0.321344
0.024043 0.944291 0.330270
0.081173 0.944291 0.329322
0.226035 0.944291 0.326920
0.379177 0.944291 0.324380
0.536799 0.944291 0.321766
0.694422 0.944291 0.319152
0.847563 0.944291 0.316612
0.992425 0.944291 0.314209
1.000000 0.944291 0.313262
0.028824 1.000000 0.327083
0.085955 1.000000 0.326135
0.230816 1.000000 0.323733
0.383958 1.000000 0.321193
0.541580 1.000000 0.318579
0.699203 1.000000 0.315964
0.852344 1.000000 0.313425
0.997206 1.000000 0.311022
1.000000 1.000000 0.310075
0.000000 0.037112 0.555668
0.055709 0.036165 0.554247
0.196967 0.033762 0.550643
0.346299 0.031222 0.546833
0.500000 0.028608 0.542912
0.653701 0.025994 0.538991
0.803033 0.023454 0.535181
0.944291 0.021051 0.531577
1.000000 0.020104 0.530156
0.000000 0.089634 0.550887
0.055709 0.088686 0.549466
0.196967 0.086284 0.545862
0.346299 0.083744 0.542052
0.500000 0.081130 0.538131
0.653701 0.078515 0.534210
0.803033 0.075976 0.530400
0.944291 0.073573 0.526796
1.000000 0.072626 0.525375
0.000000 0.222809 0.538764
0.055709 0.221862 0.537342
0.196967 0.219459 0.533738
0.346299 0.216919 0.529929
0.500000 0.214305 0.526008
0.653701 0.211691 0.522086
0.803033 0.209151 0.518277
0.944291 0.206749 0.514673
1.000000 0.205801 0.513252
0.000000 0.363597 0.525947
0.055709 0.362649 0.524526
0.196967 0.360247 0.520922
0.346299 0.357707 0.517112
0.500000 0.355093 0.513191
0.653701 0.352479 0.509270
0.803033 0.349939 0.505460
0.944291 0.347536 0.501857
1.000000 0.346589 0.500435
0.000000 0.508504 0.512756
0.055709 0.507557 0.511335
0.196967 0.505154 0.507731
0.346299 0.502614 0.503921
0.500000 0.500000 0.500000
0.657622 0.500000 0.497386
0.810764 0.500000 0.494846
0.955626 0.500000 0.492443
1.000000 0.500000 0.491496
0.000435 0.653701 0.499710
0.057566 0.653701 0.498762
0.202427 0.653701 0.496360
0.355569 0.653701 0.493820
0.513191 0.653701 0.491206
0.670814 0.653701 0.488592
0.823955 0.653701 0.486052
0.968817 0.653701 0.483649
1.000000 0.653701 0.482702
0.013252 0.803033 0.491166
0.070382 0.803033 0.490218
0.215244 0.803033 0.487816
0.368385 0.803033 0.485276
0.526008 0.803033 0.482662
0.683630 0.803033 0.480048
0.836771 0.803033 0.477508
0.981633 0.803033 0.475105
1.000000 0.803033 0.474158
0.025375 0.944291 0.483083
0.082505 0.944291 0.482136
0.227367 0.944291 0.479733
0.380508 0.944291 0.477194
0.538131 0.944291 0.474579
0.695753 0.944291 0.471965
0.848895 0.944291 0.469425
0.993757 0.944291 0.467023
1.000000 0.944291 0.466075
0.030156 1.000000 0.479896
0.087286 1.000000 0.478949
0.232148 1.000000 0.476546
0.385290 1.000000 0.474006
0.542912 1.000000 0.471392
0.700534 1.000000 0.468778
0.853676 1.000000 0.466238
0.998538 1.000000 0.463835
1.000000 1.000000 0.462888
0.000000 0.036224 0.708038
0.055709 0.035277 0.706616
0.196967 0.032874 0.703013
0.346299 0.030334 0.699203
0.500000 0.027720 0.695282
0.653701 0.025106 0.691360
0.803033 0.022566 0.687551
0.944291 0.020164 0.683947
1.000000 0.019216 0.682526
0.000000 0.088746 0.703256
0.055709 0.087798 0.701835
0.196967 0.085396 0.698231
0.346299 0.082856 0.694422
0.500000 0.080242 0.690500
0.653701 0.077628 0.686579
0.803033 0.075088 0.682769
0.944291 0.072685 0.679166
1.000000 0.071738 0.677744
0.000000 0.221922 0.691133
0.055709 0.220974 0.689712
0.196967 0.218572 0.686108
0.346299 0.216032 0.682298
0.500000 0.213418 0.678377
0.653701 0.210803 0.674456
0.803033 0.208264 0.670646
0.944291 0.205861 0.667042
1.000000 0.204914 0.665621
0.000000 0.362709 0.678317
0.055709 0.361762 0.676896
0.196967 0.359359 0.673292
0.346299 0.356819 0.669482
0.500000 0.354205 0.665561
0.653701 0.351591 0.661640
0.803033 0.349051 0.657830
0.944291 0.346649 0.654226
1.000000 0.346299 0.653104
0.000000 0.507616 0.665126
0.055709 0.506669 0.663704
0.196967 0.504266 0.660101
0.346299 0.501726 0.656291
0.501332 0.500000 0.652813
0.658954 0.500000 0.650199
0.812096 0.500000 0.647659
0.956957 0.500000 0.645257
1.000000 0.500000 0.644309
0.001767 0.653701 0.652523
0.058897 0.653701 0.651576
0.203759 0.653701 0.649173
0.356900 0.653701 0.646633
0.514523 0.653701 0.644019
0.672145 0.653701 0.641405
0.825287 0.653701 0.638865
0.970149 0.653701 0.636463
1.000000 0.653701 0.635515
0.014583 0.803033 0.643979
0.071713 0.803033 0.643032
0.216575 0.803033 0.640629
0.369717 0.803033 0.638089
0.527339 0.803033 0.635475
0.684962 0.803033 0.632861
0.838103 0.803033 0.630321
0.982965 0.803033 0.627919
1.000000 0.803033 0.626971
0.026706 0.944291 0.635897
0.083837 0.944291 0.634949
0.228699 0.944291 0.632547
0.381840 0.944291 0.630007
0.539462 0.944291 0.627393
0.697085 0.944291 0.624779
0.850226 0.944291 0.622239
0.995088 0.944291 0.619836
1.000000 0.944291 0.618889
0.031488 1.000000 0.632709
0.088618 1.000000 0.631762
0.233480 1.000000 0.629359
0.386621 1.000000 0.626820
0.544244 1.000000 0.624205
0.701866 1.000000 0.621591
0.855008 1.000000 0.619051
0.999869 1.000000 0.616649
1.000000 1.000000 0.615701
0.000000 0.035362 0.856076
0.055709 0.034414 0.854654
0.196967 0.032012 0.851051
0.346299 0.029472 0.847241
0.500000 0.026858 0.843320
0.653701 0.024244 0.839398
0.803033 0.021704 0.835589
0.944291 0.019301 0.831985
1.000000 0.018354 0.830564
0.000000 0.087883 0.851294
0.055709 0.086936 0.849873
0.196967 0.084533 0.846269
0.346299 0.081993 0.842460
0.500000 0.079379 0.838538
0.653701 0.076765 0.834617
0.803033 0.074225 0.830807
0.944291 0.071823 0.827204
1.000000 0.070875 0.825782
0.000000 0.221059 0.839171
0.055709 0.220112 0.837750
0.196967 0.217709 0.834146
0.346299 0.215169 0.830336
0.500000 0.212555 0.826415
0.653701 0.209941 0.822494
0.803033 0.207401 0.818684
0.944291 0.204999 0.815080
1.000000 0.204051 0.813659
0.000000 0.361847 0.826355
0.055709 0.360899 0.824934
0.196967 0.358497 0.821330
0.346299 0.355957 0.817520
0.500000 0.353343 0.813599
0.653701 0.350728 0.809678
0.803033 0.348189 0.805868
0.945060 0.346299 0.802520
1.000000 0.346299 0.801573
0.000000 0.506754 0.813164
0.055709 0.505806 0.811742
0.196967 0.503404 0.808139
0.346299 0.500864 0.804329
0.502625 0.500000 0.801283
0.660248 0.500000 0.798669
0.813389 0.500000 0.796129
0.958251 0.500000 0.793726
1.000000 0.500000 0.792779
0.003061 0.653701 0.800993
0.060191 0.653701 0.800045
0.205053 0.653701 0.797643
0.358194 0.653701 0.795103
0.515817 0.653701 0.792489
0.673439 0.653701 0.789874
0.826581 0.653701 0.787335
0.971442 0.653701 0.784932
1.000000 0.653701 0.783985
0.015877 0.803033 0.792448
0.073007 0.803033 0.791501
0.217869 0.803033 0.789098
0.371010 0.803033 0.786559
0.528633 0.803033 0.783944
0.686255 0.803033 0.781330
0.839397 0.803033 0.778790
0.984259 0.803033 0.776388
1.000000 0.803033 0.775440
0.028000 0.944291 0.784366
0.085131 0.944291 0.783419
0.229992 0.944291 0.781016
0.383134 0.944291 0.778476
0.540756 0.944291 0.775862
0.698379 0.944291 0.773248
0.851520 0.944291 0.770708
0.996382 0.944291 0.768306
1.000000 0.944291 0.767358
0.032781 1.000000 0.781179
0.089912 1.000000 0.780231
0.234773 1.000000 0.777829
0.387915 1.000000 0.775289
0.545537 1.000000 0.772675
0.703160 1.000000 0.770061
0.856301 1.000000 0.767521
1.000000 1.000000 0.765118
1.000000 1.000000 0.764171
0.000000 0.034546 0.996110
0.055709 0.033598 0.994688
0.196967 0.031196 0.991085
0.346299 0.028656 0.987275
0.500000 0.026042 0.983354
0.653701 0.023428 0.979432
0.803033 0.020888 0.975623
0.944291 0.018485 0.972019
1.000000 0.017538 0.970598
0.000000 0.087067 0.991328
0.055709 0.086120 0.989907
0.196967 0.083717 0.986303
0.346299 0.081178 0.982494
0.500000 0.078563 0.978572
0.653701 0.075949 0.974651
0.803033 0.073409 0.970841
0.944291 0.071007 0.967238
1.000000 0.070059 0.965816
0.000000 0.220243 0.979205
0.055709 0.219296 0.977784
0.196967 0.216893 0.974180
0.346299 0.214353 0.970370
0.500000 0.211739 0.966449
0.653701 0.209125 0.962528
0.803033 0.206585 0.958718
0.944291 0.204183 0.955114
1.000000 0.203235 0.953693
0.000000 0.361031 0.966389
0.055709 0.360083 0.964968
0.196967 0.357681 0.961364
0.346299 0.355141 0.957554
0.500000 0.352527 0.953633
0.653701 0.349913 0.949712
0.803033 0.347373 0.945902
0.946284 0.346299 0.942962
1.000000 0.346299 0.942015
0.000000 0.505938 0.953198
0.055709 0.504990 0.951776
0.196967 0.502588 0.948173
0.346299 0.500048 0.944363
0.503849 0.500000 0.941725
0.661472 0.500000 0.939111
0.814613 0.500000 0.936571
0.959475 0.500000 0.934168
1.000000 0.500000 0.933221
0.004285 0.653701 0.941435
0.061415 0.653701 0.940487
0.206277 0.653701 0.938085
0.359418 0.653701 0.935545
0.517041 0.653701 0.932931
0.674663 0.653701 0.930316
0.827805 0.653701 0.927777
0.972666 0.653701 0.925374
1.000000 0.653701 0.924427
0.017101 0.803033 0.932890
0.074231 0.803033 0.931943
0.219093 0.803033 0.929540
0.372234 0.803033 0.927001
0.529857 0.803033 0.924386
0.687479 0.803033 0.921772
0.840621 0.803033 0.919232
0.985483 0.803033 0.916830
1.000000 0.803033 0.915882
0.029224 0.944291 0.924808
0.086354 0.944291 0.923861
0.231216 0.944291 0.921458
0.384358 0.944291 0.918918
0.541980 0.944291 0.916304
0.699603 0.944291 0.913690
0.852744 0.944291 0.911150
0.997606 0.944291 0.908748
1.000000 0.944291 0.907800
0.034005 1.000000 0.921621
0.091136 1.000000 0.920673
0.235997 1.000000 0.918271
0.389139 1.000000 0.915731
0.546761 1.000000 0.913117
0.704384 1.000000 0.910503
0.857525 1.000000 0.907963
1.000000 1.000000 0.905560
1.000000 1.000000 0.904613
0.000000 0.034224 1.000000
0.055709 0.033277 1.000000
0.196967 0.030874 1.000000
0.346299 0.028334 1.000000
0.500000 0.025720 1.000000
0.653701 0.023106 1.000000
0.803033 0.020566 1.000000
0.944291 0.018163 1.000000
1.000000 0.017216 1.000000
0.000000 0.086746 1.000000
0.055709 0.085798 1.000000
0.196967 0.083396 1.000000
0.346299 0.080856 1.000000
0.500000 0.078242 1.000000
0.653701 0.075627 1.000000
0.803033 0.073088 1.000000
0.944291 0.070685 1.000000
1.000000 0.069738 1.000000
0.000000 0.219921 1.000000
0.055709 0.218974 1.000000
0.196967 0.216571 1.000000
0.346299 0.214031 1.000000
0.500000 0.211417 1.000000
0.653701 0.208803 1.000000
0.803033 0.206263 1.000000
0.944291 0.203861 1.000000
1.000000 0.202913 1.000000
0.000000 0.360709 1.000000
0.055709 0.359761 1.000000
0.196967 0.357359 1.000000
0.346299 0.354819 1.000000
0.500000 0.352205 1.000000
0.653701 0.349591 1.000000
0.803033 0.347051 1.000000
0.946766 0.346299 0.998350
1.000000 0.346299 0.997402
0.000000 0.505616 1.000000
0.055709 0.504669 1.000000
0.196967 0.502266 1.000000
0.346710 0.500000 0.999726
0.504332 0.500000 0.997112
0.661954 0.500000 0.994498
0.815096 0.500000 0.991958
0.959958 0.500000 0.989555
1.000000 0.500000 0.988608
0.004767 0.653701 0.996822
0.061898 0.653701 0.995874
0.206759 0.653701 0.993472
0.359901 0.653701 0.990932
0.517523 0.653701 0.988318
0.675146 0.653701 0.985704
0.828287 0.653701 0.983164
0.973149 0.653701 0.980761
1.000000 0.653701 0.979814
0.017584 0.803033 0.988278
0.074714 0.803033 0.987330
0.219576 0.803033 0.984928
0.372717 0.803033 0.982388
0.530340 0.803033 0.979774
0.687962 0.803033 0.977160
0.841103 0.803033 0.974620
0.985965 0.803033 0.972217
1.000000 0.803033 0.971270
0.029707 0.944291 0.980195
0.086837 0.944291 0.979248
0.231699 0.944291 0.976845
0.384840 0.944291 0.974306
0.542463 0.944291 0.971691
0.700085 0.944291 0.969077
0.853227 0.944291 0.966537
0.998089 0.944291 0.964135
1.000000 0.944291 0.963187
0.034488 1.000000 0.977008
0.091618 1.000000 0.976061
0.236480 1.000000 0.973658
0.389622 1.000000 0.971118
0.547244 1.000000 0.968504
0.704866 1.000000 0.965890
0.858008 1.000000 0.963350
1.000000 1.000000 0.960947
1.000000 1.000000 0.960000
