template/capabilities/color/luts/warm-cine.cube
# house LUT — Warm Cine (generated by _generate-luts.py)
TITLE "Warm Cine"
LUT_3D_SIZE 9
DOMAIN_MIN 0.0 0.0 0.0
DOMAIN_MAX 1.0 1.0 1.0
0.010000 0.000000 0.000000
0.093534 0.000000 0.000000
0.237523 0.000000 0.000000
0.387218 0.000000 0.000000
0.540000 0.000000 0.000000
0.692782 0.000000 0.000000
0.842477 0.000000 0.000000
0.986466 0.000000 0.000000
1.000000 0.000000 0.000000
0.010000 0.078806 0.000000
0.093534 0.078806 0.000000
0.237523 0.078806 0.000000
0.387218 0.078806 0.000000
0.540000 0.078806 0.000000
0.692782 0.078806 0.000000
0.842477 0.078806 0.000000
0.986466 0.078806 0.000000
1.000000 0.078806 0.000000
0.010000 0.214645 0.000000
0.093534 0.214645 0.000000
0.237523 0.214645 0.000000
0.387218 0.214645 0.000000
0.540000 0.214645 0.000000
0.692782 0.214645 0.000000
0.842477 0.214645 0.000000
0.986466 0.214645 0.000000
1.000000 0.214645 0.000000
0.010000 0.355866 0.000000
0.093534 0.355866 0.000000
0.237523 0.355866 0.000000
0.387218 0.355866 0.000000
0.540000 0.355866 0.000000
0.692782 0.355866 0.000000
0.842477 0.355866 0.000000
0.986466 0.355866 0.000000
1.000000 0.355866 0.000000
0.010000 0.500000 0.000000
0.093534 0.500000 0.000000
0.237523 0.500000 0.000000
0.387218 0.500000 0.000000
0.540000 0.500000 0.000000
0.692782 0.500000 0.000000
0.842477 0.500000 0.000000
0.986466 0.500000 0.000000
1.000000 0.500000 0.000000
0.010000 0.644134 0.000000
0.093534 0.644134 0.000000
0.237523 0.644134 0.000000
0.387218 0.644134 0.000000
0.540000 0.644134 0.000000
0.692782 0.644134 0.000000
0.842477 0.644134 0.000000
0.986466 0.644134 0.000000
1.000000 0.644134 0.000000
0.010000 0.785355 0.000000
0.093534 0.785355 0.000000
0.237523 0.785355 0.000000
0.387218 0.785355 0.000000
0.540000 0.785355 0.000000
0.692782 0.785355 0.000000
0.842477 0.785355 0.000000
0.986466 0.785355 0.000000
1.000000 0.785355 0.000000
0.010000 0.921194 0.000000
0.093534 0.921194 0.000000
0.237523 0.921194 0.000000
0.387218 0.921194 0.000000
0.540000 0.921194 0.000000
0.692782 0.921194 0.000000
0.842477 0.921194 0.000000
0.986466 0.921194 0.000000
1.000000 0.921194 0.000000
0.010000 1.000000 0.000000
0.093534 1.000000 0.000000
0.237523 1.000000 0.000000
0.387218 1.000000 0.000000
0.540000 1.000000 0.000000
0.692782 1.000000 0.000000
0.842477 1.000000 0.000000
0.986466 1.000000 0.000000
1.000000 1.000000 0.000000
0.010000 0.000000 0.074078
0.093534 0.000000 0.074078
0.237523 0.000000 0.074078
0.387218 0.000000 0.074078
0.540000 0.000000 0.074078
0.692782 0.000000 0.074078
0.842477 0.000000 0.074078
0.986466 0.000000 0.074078
1.000000 0.000000 0.074078
0.010000 0.078806 0.074078
0.093534 0.078806 0.074078
0.237523 0.078806 0.074078
0.387218 0.078806 0.074078
0.540000 0.078806 0.074078
0.692782 0.078806 0.074078
0.842477 0.078806 0.074078
0.986466 0.078806 0.074078
1.000000 0.078806 0.074078
0.010000 0.214645 0.074078
0.093534 0.214645 0.074078
0.237523 0.214645 0.074078
0.387218 0.214645 0.074078
0.540000 0.214645 0.074078
0.692782 0.214645 0.074078
0.842477 0.214645 0.074078
0.986466 0.214645 0.074078
1.000000 0.214645 0.074078
0.010000 0.355866 0.074078
0.093534 0.355866 0.074078
0.237523 0.355866 0.074078
0.387218 0.355866 0.074078
0.540000 0.355866 0.074078
0.692782 0.355866 0.074078
0.842477 0.355866 0.074078
0.986466 0.355866 0.074078
1.000000 0.355866 0.074078
0.010000 0.500000 0.074078
0.093534 0.500000 0.074078
0.237523 0.500000 0.074078
0.387218 0.500000 0.074078
0.540000 0.500000 0.074078
0.692782 0.500000 0.074078
0.842477 0.500000 0.074078
0.986466 0.500000 0.074078
1.000000 0.500000 0.074078
0.010000 0.644134 0.074078
0.093534 0.644134 0.074078
0.237523 0.644134 0.074078
0.387218 0.644134 0.074078
0.540000 0.644134 0.074078
0.692782 0.644134 0.074078
0.842477 0.644134 0.074078
0.986466 0.644134 0.074078
1.000000 0.644134 0.074078
0.010000 0.785355 0.074078
0.093534 0.785355 0.074078
0.237523 0.785355 0.074078
0.387218 0.785355 0.074078
0.540000 0.785355 0.074078
0.692782 0.785355 0.074078
0.842477 0.785355 0.074078
0.986466 0.785355 0.074078
1.000000 0.785355 0.074078
0.010000 0.921194 0.074078
0.093534 0.921194 0.074078
0.237523 0.921194 0.074078
0.387218 0.921194 0.074078
0.540000 0.921194 0.074078
0.692782 0.921194 0.074078
0.842477 0.921194 0.074078
0.986466 0.921194 0.074078
1.000000 0.921194 0.074078
0.010000 1.000000 0.074078
0.093534 1.000000 0.074078
0.237523 1.000000 0.074078
0.387218 1.000000 0.074078
0.540000 1.000000 0.074078
0.692782 1.000000 0.074078
0.842477 1.000000 0.074078
0.986466 1.000000 0.074078
1.000000 1.000000 0.074078
0.010000 0.000000 0.201766
0.093534 0.000000 0.201766
0.237523 0.000000 0.201766
0.387218 0.000000 0.201766
0.540000 0.000000 0.201766
0.692782 0.000000 0.201766
0.842477 0.000000 0.201766
0.986466 0.000000 0.201766
1.000000 0.000000 0.201766
0.010000 0.078806 0.201766
0.093534 0.078806 0.201766
0.237523 0.078806 0.201766
0.387218 0.078806 0.201766
0.540000 0.078806 0.201766
0.692782 0.078806 0.201766
0.842477 0.078806 0.201766
0.986466 0.078806 0.201766
1.000000 0.078806 0.201766
0.010000 0.214645 0.201766
0.093534 0.214645 0.201766
0.237523 0.214645 0.201766
0.387218 0.214645 0.201766
0.540000 0.214645 0.201766
0.692782 0.214645 0.201766
0.842477 0.214645 0.201766
0.986466 0.214645 0.201766
1.000000 0.214645 0.201766
0.010000 0.355866 0.201766
0.093534 0.355866 0.201766
0.237523 0.355866 0.201766
0.387218 0.355866 0.201766
0.540000 0.355866 0.201766
0.692782 0.355866 0.201766
0.842477 0.355866 0.201766
0.986466 0.355866 0.201766
1.000000 0.355866 0.201766
0.010000 0.500000 0.201766
0.093534 0.500000 0.201766
0.237523 0.500000 0.201766
0.387218 0.500000 0.201766
0.540000 0.500000 0.201766
0.692782 0.500000 0.201766
0.842477 0.500000 0.201766
0.986466 0.500000 0.201766
1.000000 0.500000 0.201766
0.010000 0.644134 0.201766
0.093534 0.644134 0.201766
0.237523 0.644134 0.201766
0.387218 0.644134 0.201766
0.540000 0.644134 0.201766
0.692782 0.644134 0.201766
0.842477 0.644134 0.201766
0.986466 0.644134 0.201766
1.000000 0.644134 0.201766
0.010000 0.785355 0.201766
0.093534 0.785355 0.201766
0.237523 0.785355 0.201766
0.387218 0.785355 0.201766
0.540000 0.785355 0.201766
0.692782 0.785355 0.201766
0.842477 0.785355 0.201766
0.986466 0.785355 0.201766
1.000000 0.785355 0.201766
0.010000 0.921194 0.201766
0.093534 0.921194 0.201766
0.237523 0.921194 0.201766
0.387218 0.921194 0.201766
0.540000 0.921194 0.201766
0.692782 0.921194 0.201766
0.842477 0.921194 0.201766
0.986466 0.921194 0.201766
1.000000 0.921194 0.201766
0.010000 1.000000 0.201766
0.093534 1.000000 0.201766
0.237523 1.000000 0.201766
0.387218 1.000000 0.201766
0.540000 1.000000 0.201766
0.692782 1.000000 0.201766
0.842477 1.000000 0.201766
0.986466 1.000000 0.201766
1.000000 1.000000 0.201766
0.010000 0.000000 0.334514
0.093534 0.000000 0.334514
0.237523 0.000000 0.334514
0.387218 0.000000 0.334514
0.540000 0.000000 0.334514
0.692782 0.000000 0.334514
0.842477 0.000000 0.334514
0.986466 0.000000 0.334514
1.000000 0.000000 0.334514
0.010000 0.078806 0.334514
0.093534 0.078806 0.334514
0.237523 0.078806 0.334514
0.387218 0.078806 0.334514
0.540000 0.078806 0.334514
0.692782 0.078806 0.334514
0.842477 0.078806 0.334514
0.986466 0.078806 0.334514
1.000000 0.078806 0.334514
0.010000 0.214645 0.334514
0.093534 0.214645 0.334514
0.237523 0.214645 0.334514
0.387218 0.214645 0.334514
0.540000 0.214645 0.334514
0.692782 0.214645 0.334514
0.842477 0.214645 0.334514
0.986466 0.214645 0.334514
1.000000 0.214645 0.334514
0.010000 0.355866 0.334514
0.093534 0.355866 0.334514
0.237523 0.355866 0.334514
0.387218 0.355866 0.334514
0.540000 0.355866 0.334514
0.692782 0.355866 0.334514
0.842477 0.355866 0.334514
0.986466 0.355866 0.334514
1.000000 0.355866 0.334514
0.010000 0.500000 0.334514
0.093534 0.500000 0.334514
0.237523 0.500000 0.334514
0.387218 0.500000 0.334514
0.540000 0.500000 0.334514
0.692782 0.500000 0.334514
0.842477 0.500000 0.334514
0.986466 0.500000 0.334514
1.000000 0.500000 0.334514
0.010000 0.644134 0.334514
0.093534 0.644134 0.334514
0.237523 0.644134 0.334514
0.387218 0.644134 0.334514
0.540000 0.644134 0.334514
0.692782 0.644134 0.334514
0.842477 0.644134 0.334514
0.986466 0.644134 0.334514
1.000000 0.644134 0.334514
0.010000 0.785355 0.334514
0.093534 0.785355 0.334514
0.237523 0.785355 0.334514
0.387218 0.785355 0.334514
0.540000 0.785355 0.334514
0.692782 0.785355 0.334514
0.842477 0.785355 0.334514
0.986466 0.785355 0.334514
1.000000 0.785355 0.334514
0.010000 0.921194 0.334514
0.093534 0.921194 0.334514
0.237523 0.921194 0.334514
0.387218 0.921194 0.334514
0.540000 0.921194 0.334514
0.692782 0.921194 0.334514
0.842477 0.921194 0.334514
0.986466 0.921194 0.334514
1.000000 0.921194 0.334514
0.010000 1.000000 0.334514
0.093534 1.000000 0.334514
0.237523 1.000000 0.334514
0.387218 1.000000 0.334514
0.540000 1.000000 0.334514
0.692782 1.000000 0.334514
0.842477 1.000000 0.334514
0.986466 1.000000 0.334514
1.000000 1.000000 0.334514
0.010000 0.000000 0.470000
0.093534 0.000000 0.470000
0.237523 0.000000 0.470000
0.387218 0.000000 0.470000
0.540000 0.000000 0.470000
0.692782 0.000000 0.470000
0.842477 0.000000 0.470000
0.986466 0.000000 0.470000
1.000000 0.000000 0.470000
0.010000 0.078806 0.470000
0.093534 0.078806 0.470000
0.237523 0.078806 0.470000
0.387218 0.078806 0.470000
0.540000 0.078806 0.470000
0.692782 0.078806 0.470000
0.842477 0.078806 0.470000
0.986466 0.078806 0.470000
1.000000 0.078806 0.470000
0.010000 0.214645 0.470000
0.093534 0.214645 0.470000
0.237523 0.214645 0.470000
0.387218 0.214645 0.470000
0.540000 0.214645 0.470000
0.692782 0.214645 0.470000
0.842477 0.214645 0.470000
0.986466 0.214645 0.470000
1.000000 0.214645 0.470000
0.010000 0.355866 0.470000
0.093534 0.355866 0.470000
0.237523 0.355866 0.470000
0.387218 0.355866 0.470000
0.540000 0.355866 0.470000
0.692782 0.355866 0.470000
0.842477 0.355866 0.470000
0.986466 0.355866 0.470000
1.000000 0.355866 0.470000
0.010000 0.500000 0.470000
0.093534 0.500000 0.470000
0.237523 0.500000 0.470000
0.387218 0.500000 0.470000
0.540000 0.500000 0.470000
0.692782 0.500000 0.470000
0.842477 0.500000 0.470000
0.986466 0.500000 0.470000
1.000000 0.500000 0.470000
0.010000 0.644134 0.470000
0.093534 0.644134 0.470000
0.237523 0.644134 0.470000
0.387218 0.644134 0.470000
0.540000 0.644134 0.470000
0.692782 0.644134 0.470000
0.842477 0.644134 0.470000
0.986466 0.644134 0.470000
1.000000 0.644134 0.470000
0.010000 0.785355 0.470000
0.093534 0.785355 0.470000
0.237523 0.785355 0.470000
0.387218 0.785355 0.470000
0.540000 0.785355 0.470000
0.692782 0.785355 0.470000
0.842477 0.785355 0.470000
0.986466 0.785355 0.470000
1.000000 0.785355 0.470000
0.010000 0.921194 0.470000
0.093534 0.921194 0.470000
0.237523 0.921194 0.470000
0.387218 0.921194 0.470000
0.540000 0.921194 0.470000
0.692782 0.921194 0.470000
0.842477 0.921194 0.470000
0.986466 0.921194 0.470000
1.000000 0.921194 0.470000
0.010000 1.000000 0.470000
0.093534 1.000000 0.470000
0.237523 1.000000 0.470000
0.387218 1.000000 0.470000
0.540000 1.000000 0.470000
0.692782 1.000000 0.470000
0.842477 1.000000 0.470000
0.986466 1.000000 0.470000
1.000000 1.000000 0.470000
0.010000 0.000000 0.605486
0.093534 0.000000 0.605486
0.237523 0.000000 0.605486
0.387218 0.000000 0.605486
0.540000 0.000000 0.605486
0.692782 0.000000 0.605486
0.842477 0.000000 0.605486
0.986466 0.000000 0.605486
1.000000 0.000000 0.605486
0.010000 0.078806 0.605486
0.093534 0.078806 0.605486
0.237523 0.078806 0.605486
0.387218 0.078806 0.605486
0.540000 0.078806 0.605486
0.692782 0.078806 0.605486
0.842477 0.078806 0.605486
0.986466 0.078806 0.605486
1.000000 0.078806 0.605486
0.010000 0.214645 0.605486
0.093534 0.214645 0.605486
0.237523 0.214645 0.605486
0.387218 0.214645 0.605486
0.540000 0.214645 0.605486
0.692782 0.214645 0.605486
0.842477 0.214645 0.605486
0.986466 0.214645 0.605486
1.000000 0.214645 0.605486
0.010000 0.355866 0.605486
0.093534 0.355866 0.605486
0.237523 0.355866 0.605486
0.387218 0.355866 0.605486
0.540000 0.355866 0.605486
0.692782 0.355866 0.605486
0.842477 0.355866 0.605486
0.986466 0.355866 0.605486
1.000000 0.355866 0.605486
0.010000 0.500000 0.605486
0.093534 0.500000 0.605486
0.237523 0.500000 0.605486
0.387218 0.500000 0.605486
0.540000 0.500000 0.605486
0.692782 0.500000 0.605486
0.842477 0.500000 0.605486
0.986466 0.500000 0.605486
1.000000 0.500000 0.605486
0.010000 0.644134 0.605486
0.093534 0.644134 0.605486
0.237523 0.644134 0.605486
0.387218 0.644134 0.605486
0.540000 0.644134 0.605486
0.692782 0.644134 0.605486
0.842477 0.644134 0.605486
0.986466 0.644134 0.605486
1.000000 0.644134 0.605486
0.010000 0.785355 0.605486
0.093534 0.785355 0.605486
0.237523 0.785355 0.605486
0.387218 0.785355 0.605486
0.540000 0.785355 0.605486
0.692782 0.785355 0.605486
0.842477 0.785355 0.605486
0.986466 0.785355 0.605486
1.000000 0.785355 0.605486
0.010000 0.921194 0.605486
0.093534 0.921194 0.605486
0.237523 0.921194 0.605486
0.387218 0.921194 0.605486
0.540000 0.921194 0.605486
0.692782 0.921194 0.605486
0.842477 0.921194 0.605486
0.986466 0.921194 0.605486
1.000000 0.921194 0.605486
0.010000 1.000000 0.605486
0.093534 1.000000 0.605486
0.237523 1.000000 0.605486
0.387218 1.000000 0.605486
0.540000 1.000000 0.605486
0.692782 1.000000 0.605486
0.842477 1.000000 0.605486
0.986466 1.000000 0.605486
1.000000 1.000000 0.605486
0.010000 0.000000 0.738234
0.093534 0.000000 0.738234
0.237523 0.000000 0.738234
0.387218 0.000000 0.738234
0.540000 0.000000 0.738234
0.692782 0.000000 0.738234
0.842477 0.000000 0.738234
0.986466 0.000000 0.738234
1.000000 0.000000 0.738234
0.010000 0.078806 0.738234
0.093534 0.078806 0.738234
0.237523 0.078806 0.738234
0.387218 0.078806 0.738234
0.540000 0.078806 0.738234
0.692782 0.078806 0.738234
0.842477 0.078806 0.738234
0.986466 0.078806 0.738234
1.000000 0.078806 0.738234
0.010000 0.214645 0.738234
0.093534 0.214645 0.738234
0.237523 0.214645 0.738234
0.387218 0.214645 0.738234
0.540000 0.214645 0.738234
0.692782 0.214645 0.738234
0.842477 0.214645 0.738234
0.986466 0.214645 0.738234
1.000000 0.214645 0.738234
0.010000 0.355866 0.738234
0.093534 0.355866 0.738234
0.237523 0.355866 0.738234
0.387218 0.355866 0.738234
0.540000 0.355866 0.738234
0.692782 0.355866 0.738234
0.842477 0.355866 0.738234
0.986466 0.355866 0.738234
1.000000 0.355866 0.738234
0.010000 0.500000 0.738234
0.093534 0.500000 0.738234
0.237523 0.500000 0.738234
0.387218 0.500000 0.738234
0.540000 0.500000 0.738234
0.692782 0.500000 0.738234
0.842477 0.500000 0.738234
0.986466 0.500000 0.738234
1.000000 0.500000 0.738234
0.010000 0.644134 0.738234
0.093534 0.644134 0.738234
0.237523 0.644134 0.738234
0.387218 0.644134 0.738234
0.540000 0.644134 0.738234
0.692782 0.644134 0.738234
0.842477 0.644134 0.738234
0.986466 0.644134 0.738234
1.000000 0.644134 0.738234
0.010000 0.785355 0.738234
0.093534 0.785355 0.738234
0.237523 0.785355 0.738234
0.387218 0.785355 0.738234
0.540000 0.785355 0.738234
0.692782 0.785355 0.738234
0.842477 0.785355 0.738234
0.986466 0.785355 0.738234
1.000000 0.785355 0.738234
0.010000 0.921194 0.738234
0.093534 0.921194 0.738234
0.237523 0.921194 0.738234
0.387218 0.921194 0.738234
0.540000 0.921194 0.738234
0.692782 0.921194 0.738234
0.842477 0.921194 0.738234
0.986466 0.921194 0.738234
1.000000 0.921194 0.738234
0.010000 1.000000 0.738234
0.093534 1.000000 0.738234
0.237523 1.000000 0.738234
0.387218 1.000000 0.738234
0.540000 1.000000 0.738234
0.692782 1.000000 0.738234
0.842477 1.000000 0.738234
0.986466 1.000000 0.738234
1.000000 1.000000 0.738234
0.010000 0.000000 0.865922
0.093534 0.000000 0.865922
0.237523 0.000000 0.865922
0.387218 0.000000 0.865922
0.540000 0.000000 0.865922
0.692782 0.000000 0.865922
0.842477 0.000000 0.865922
0.986466 0.000000 0.865922
1.000000 0.000000 0.865922
0.010000 0.078806 0.865922
0.093534 0.078806 0.865922
0.237523 0.078806 0.865922
0.387218 0.078806 0.865922
0.540000 0.078806 0.865922
0.692782 0.078806 0.865922
0.842477 0.078806 0.865922
0.986466 0.078806 0.865922
1.000000 0.078806 0.865922
0.010000 0.214645 0.865922
0.093534 0.214645 0.865922
0.237523 0.214645 0.865922
0.387218 0.214645 0.865922
0.540000 0.214645 0.865922
0.692782 0.214645 0.865922
0.842477 0.214645 0.865922
0.986466 0.214645 0.865922
1.000000 0.214645 0.865922
0.010000 0.355866 0.865922
0.093534 0.355866 0.865922
0.237523 0.355866 0.865922
0.387218 0.355866 0.865922
0.540000 0.355866 0.865922
0.692782 0.355866 0.865922
0.842477 0.355866 0.865922
0.986466 0.355866 0.865922
1.000000 0.355866 0.865922
0.010000 0.500000 0.865922
0.093534 0.500000 0.865922
0.237523 0.500000 0.865922
0.387218 0.500000 0.865922
0.540000 0.500000 0.865922
0.692782 0.500000 0.865922
0.842477 0.500000 0.865922
0.986466 0.500000 0.865922
1.000000 0.500000 0.865922
0.010000 0.644134 0.865922
0.093534 0.644134 0.865922
0.237523 0.644134 0.865922
0.387218 0.644134 0.865922
0.540000 0.644134 0.865922
0.692782 0.644134 0.865922
0.842477 0.644134 0.865922
0.986466 0.644134 0.865922
1.000000 0.644134 0.865922
0.010000 0.785355 0.865922
0.093534 0.785355 0.865922
0.237523 0.785355 0.865922
0.387218 0.785355 0.865922
0.540000 0.785355 0.865922
0.692782 0.785355 0.865922
0.842477 0.785355 0.865922
0.986466 0.785355 0.865922
1.000000 0.785355 0.865922
0.010000 0.921194 0.865922
0.093534 0.921194 0.865922
0.237523 0.921194 0.865922
0.387218 0.921194 0.865922
0.540000 0.921194 0.865922
0.692782 0.921194 0.865922
0.842477 0.921194 0.865922
0.986466 0.921194 0.865922
1.000000 0.921194 0.865922
0.010000 1.000000 0.865922
0.093534 1.000000 0.865922
0.237523 1.000000 0.865922
0.387218 1.000000 0.865922
0.540000 1.000000 0.865922
0.692782 1.000000 0.865922
0.842477 1.000000 0.865922
0.986466 1.000000 0.865922
1.000000 1.000000 0.865922
0.010000 0.000000 0.940000
0.093534 0.000000 0.940000
0.237523 0.000000 0.940000
0.387218 0.000000 0.940000
0.540000 0.000000 0.940000
0.692782 0.000000 0.940000
0.842477 0.000000 0.940000
0.986466 0.000000 0.940000
1.000000 0.000000 0.940000
0.010000 0.078806 0.940000
0.093534 0.078806 0.940000
0.237523 0.078806 0.940000
0.387218 0.078806 0.940000
0.540000 0.078806 0.940000
0.692782 0.078806 0.940000
0.842477 0.078806 0.940000
0.986466 0.078806 0.940000
1.000000 0.078806 0.940000
0.010000 0.214645 0.940000
0.093534 0.214645 0.940000
0.237523 0.214645 0.940000
0.387218 0.214645 0.940000
0.540000 0.214645 0.940000
0.692782 0.214645 0.940000
0.842477 0.214645 0.940000
0.986466 0.214645 0.940000
1.000000 0.214645 0.940000
0.010000 0.355866 0.940000
0.093534 0.355866 0.940000
0.237523 0.355866 0.940000
0.387218 0.355866 0.940000
0.540000 0.355866 0.940000
0.692782 0.355866 0.940000
0.842477 0.355866 0.940000
0.986466 0.355866 0.940000
1.000000 0.355866 0.940000
0.010000 0.500000 0.940000
0.093534 0.500000 0.940000
0.237523 0.500000 0.940000
0.387218 0.500000 0.940000
0.540000 0.500000 0.940000
0.692782 0.500000 0.940000
0.842477 0.500000 0.940000
0.986466 0.500000 0.940000
1.000000 0.500000 0.940000
0.010000 0.644134 0.940000
0.093534 0.644134 0.940000
0.237523 0.644134 0.940000
0.387218 0.644134 0.940000
0.540000 0.644134 0.940000
0.692782 0.644134 0.940000
0.842477 0.644134 0.940000
0.986466 0.644134 0.940000
1.000000 0.644134 0.940000
0.010000 0.785355 0.940000
0.093534 0.785355 0.940000
0.237523 0.785355 0.940000
0.387218 0.785355 0.940000
0.540000 0.785355 0.940000
0.692782 0.785355 0.940000
0.842477 0.785355 0.940000
0.986466 0.785355 0.940000
1.000000 0.785355 0.940000
0.010000 0.921194 0.940000
0.093534 0.921194 0.940000
0.237523 0.921194 0.940000
0.387218 0.921194 0.940000
0.540000 0.921194 0.940000
0.692782 0.921194 0.940000
0.842477 0.921194 0.940000
0.986466 0.921194 0.940000
1.000000 0.921194 0.940000
0.010000 1.000000 0.940000
0.093534 1.000000 0.940000
0.237523 1.000000 0.940000
0.387218 1.000000 0.940000
0.540000 1.000000 0.940000
0.692782 1.000000 0.940000
0.842477 1.000000 0.940000
0.986466 1.000000 0.940000
1.000000 1.000000 0.940000
