template/capabilities/color/luts/warm-cine.cube
# house LUT — Warm Cine (generated by _generate-luts.py)
TITLE "Warm Cine"
LUT_3D_SIZE 5
DOMAIN_MIN 0.0 0.0 0.0
DOMAIN_MAX 1.0 1.0 1.0
0.010000 0.000000 0.000000
0.237523 0.000000 0.000000
0.540000 0.000000 0.000000
0.842477 0.000000 0.000000
1.000000 0.000000 0.000000
0.010000 0.214645 0.000000
0.237523 0.214645 0.000000
0.540000 0.214645 0.000000
0.842477 0.214645 0.000000
1.000000 0.214645 0.000000
0.010000 0.500000 0.000000
0.237523 0.500000 0.000000
0.540000 0.500000 0.000000
0.842477 0.500000 0.000000
1.000000 0.500000 0.000000
0.010000 0.785355 0.000000
0.237523 0.785355 0.000000
0.540000 0.785355 0.000000
0.842477 0.785355 0.000000
1.000000 0.785355 0.000000
0.010000 1.000000 0.000000
0.237523 1.000000 0.000000
0.540000 1.000000 0.000000
0.842477 1.000000 0.000000
1.000000 1.000000 0.000000
0.010000 0.000000 0.201766
0.237523 0.000000 0.201766
0.540000 0.000000 0.201766
0.842477 0.000000 0.201766
1.000000 0.000000 0.201766
0.010000 0.214645 0.201766
0.237523 0.214645 0.201766
0.540000 0.214645 0.201766
0.842477 0.214645 0.201766
1.000000 0.214645 0.201766
0.010000 0.500000 0.201766
0.237523 0.500000 0.201766
0.540000 0.500000 0.201766
0.842477 0.500000 0.201766
1.000000 0.500000 0.201766
0.010000 0.785355 0.201766
0.237523 0.785355 0.201766
0.540000 0.785355 0.201766
0.842477 0.785355 0.201766
1.000000 0.785355 0.201766
0.010000 1.000000 0.201766
0.237523 1.000000 0.201766
0.540000 1.000000 0.201766
0.842477 1.000000 0.201766
1.000000 1.000000 0.201766
0.010000 0.000000 0.470000
0.237523 0.000000 0.470000
0.540000 0.000000 0.470000
0.842477 0.000000 0.470000
1.000000 0.000000 0.470000
0.010000 0.214645 0.470000
0.237523 0.214645 0.470000
0.540000 0.214645 0.470000
0.842477 0.214645 0.470000
1.000000 0.214645 0.470000
0.010000 0.500000 0.470000
0.237523 0.500000 0.470000
0.540000 0.500000 0.470000
0.842477 0.500000 0.470000
1.000000 0.500000 0.470000
0.010000 0.785355 0.470000
0.237523 0.785355 0.470000
0.540000 0.785355 0.470000
0.842477 0.785355 0.470000
1.000000 0.785355 0.470000
0.010000 1.000000 0.470000
0.237523 1.000000 0.470000
0.540000 1.000000 0.470000
0.842477 1.000000 0.470000
1.000000 1.000000 0.470000
0.010000 0.000000 0.738234
0.237523 0.000000 0.738234
0.540000 0.000000 0.738234
0.842477 0.000000 0.738234
1.000000 0.000000 0.738234
0.010000 0.214645 0.738234
0.237523 0.214645 0.738234
0.540000 0.214645 0.738234
0.842477 0.214645 0.738234
1.000000 0.214645 0.738234
0.010000 0.500000 0.738234
0.237523 0.500000 0.738234
0.540000 0.500000 0.738234
0.842477 0.500000 0.738234
1.000000 0.500000 0.738234
0.010000 0.785355 0.738234
0.237523 0.785355 0.738234
0.540000 0.785355 0.738234
0.842477 0.785355 0.738234
1.000000 0.785355 0.738234
0.010000 1.000000 0.738234
0.237523 1.000000 0.738234
0.540000 1.000000 0.738234
0.842477 1.000000 0.738234
1.000000 1.000000 0.738234
0.010000 0.000000 0.940000
0.237523 0.000000 0.940000
0.540000 0.000000 0.940000
0.842477 0.000000 0.940000
1.000000 0.000000 0.940000
0.010000 0.214645 0.940000
0.237523 0.214645 0.940000
0.540000 0.214645 0.940000
0.842477 0.214645 0.940000
1.000000 0.214645 0.940000
0.010000 0.500000 0.940000
0.237523 0.500000 0.940000
0.540000 0.500000 0.940000
0.842477 0.500000 0.940000
1.000000 0.500000 0.940000
0.010000 0.785355 0.940000
0.237523 0.785355 0.940000
0.540000 0.785355 0.940000
0.842477 0.785355 0.940000
1.000000 0.785355 0.940000
0.010000 1.000000 0.940000
0.237523 1.000000 0.940000
0.540000 1.000000 0.940000
0.842477 1.000000 0.940000
1.000000 1.000000 0.940000
