template/capabilities/color/luts/warm-cine.cube
# house LUT — Warm Cine (generated by _generate-luts.py)
TITLE "Warm Cine"
LUT_3D_SIZE 33
DOMAIN_MIN 0.0 0.0 0.0
DOMAIN_MAX 1.0 1.0 1.0
0.010000 0.000000 0.000000
0.010000 0.000000 0.000000
0.024268 0.000000 0.000000
0.058657 0.000000 0.000000
0.093534 0.000000 0.000000
0.128883 0.000000 0.000000
0.164682 0.000000 0.000000
0.200905 0.000000 0.000000
0.237523 0.000000 0.000000
0.274502 0.000000 0.000000
0.311805 0.000000 0.000000
0.349391 0.000000 0.000000
0.387218 0.000000 0.000000
0.425240 0.000000 0.000000
0.463410 0.000000 0.000000
0.501680 0.000000 0.000000
0.540000 0.000000 0.000000
0.578320 0.000000 0.000000
0.616590 0.000000 0.000000
0.654760 0.000000 0.000000
0.692782 0.000000 0.000000
0.730609 0.000000 0.000000
0.768195 0.000000 0.000000
0.805498 0.000000 0.000000
0.842477 0.000000 0.000000
0.879095 0.000000 0.000000
0.915318 0.000000 0.000000
0.951117 0.000000 0.000000
0.986466 0.000000 0.000000
1.000000 0.000000 0.000000
1.000000 0.000000 0.000000
1.000000 0.000000 0.000000
1.000000 0.000000 0.000000
0.010000 0.000000 0.000000
0.010000 0.000000 0.000000
0.024268 0.000000 0.000000
0.058657 0.000000 0.000000
0.093534 0.000000 0.000000
0.128883 0.000000 0.000000
0.164682 0.000000 0.000000
0.200905 0.000000 0.000000
0.237523 0.000000 0.000000
0.274502 0.000000 0.000000
0.311805 0.000000 0.000000
0.349391 0.000000 0.000000
0.387218 0.000000 0.000000
0.425240 0.000000 0.000000
0.463410 0.000000 0.000000
0.501680 0.000000 0.000000
0.540000 0.000000 0.000000
0.578320 0.000000 0.000000
0.616590 0.000000 0.000000
0.654760 0.000000 0.000000
0.692782 0.000000 0.000000
0.730609 0.000000 0.000000
0.768195 0.000000 0.000000
0.805498 0.000000 0.000000
0.842477 0.000000 0.000000
0.879095 0.000000 0.000000
0.915318 0.000000 0.000000
0.951117 0.000000 0.000000
0.986466 0.000000 0.000000
1.000000 0.000000 0.000000
1.000000 0.000000 0.000000
1.000000 0.000000 0.000000
1.000000 0.000000 0.000000
0.010000 0.013461 0.000000
0.010000 0.013461 0.000000
0.024268 0.013461 0.000000
0.058657 0.013461 0.000000
0.093534 0.013461 0.000000
0.128883 0.013461 0.000000
0.164682 0.013461 0.000000
0.200905 0.013461 0.000000
0.237523 0.013461 0.000000
0.274502 0.013461 0.000000
0.311805 0.013461 0.000000
0.349391 0.013461 0.000000
0.387218 0.013461 0.000000
0.425240 0.013461 0.000000
0.463410 0.013461 0.000000
0.501680 0.013461 0.000000
0.540000 0.013461 0.000000
0.578320 0.013461 0.000000
0.616590 0.013461 0.000000
0.654760 0.013461 0.000000
0.692782 0.013461 0.000000
0.730609 0.013461 0.000000
0.768195 0.013461 0.000000
0.805498 0.013461 0.000000
0.842477 0.013461 0.000000
0.879095 0.013461 0.000000
0.915318 0.013461 0.000000
0.951117 0.013461 0.000000
0.986466 0.013461 0.000000
1.000000 0.013461 0.000000
1.000000 0.013461 0.000000
1.000000 0.013461 0.000000
1.000000 0.013461 0.000000
0.010000 0.045903 0.000000
0.010000 0.045903 0.000000
0.024268 0.045903 0.000000
0.058657 0.045903 0.000000
0.093534 0.045903 0.000000
0.128883 0.045903 0.000000
0.164682 0.045903 0.000000
0.200905 0.045903 0.000000
0.237523 0.045903 0.000000
0.274502 0.045903 0.000000
0.311805 0.045903 0.000000
0.349391 0.045903 0.000000
0.387218 0.045903 0.000000
0.425240 0.045903 0.000000
0.463410 0.045903 0.000000
0.501680 0.045903 0.000000
0.540000 0.045903 0.000000
0.578320 0.045903 0.000000
0.616590 0.045903 0.000000
0.654760 0.045903 0.000000
0.692782 0.045903 0.000000
0.730609 0.045903 0.000000
0.768195 0.045903 0.000000
0.805498 0.045903 0.000000
0.842477 0.045903 0.000000
0.879095 0.045903 0.000000
0.915318 0.045903 0.000000
0.951117 0.045903 0.000000
0.986466 0.045903 0.000000
1.000000 0.045903 0.000000
1.000000 0.045903 0.000000
1.000000 0.045903 0.000000
1.000000 0.045903 0.000000
0.010000 0.078806 0.000000
0.010000 0.078806 0.000000
0.024268 0.078806 0.000000
0.058657 0.078806 0.000000
0.093534 0.078806 0.000000
0.128883 0.078806 0.000000
0.164682 0.078806 0.000000
0.200905 0.078806 0.000000
0.237523 0.078806 0.000000
0.274502 0.078806 0.000000
0.311805 0.078806 0.000000
0.349391 0.078806 0.000000
0.387218 0.078806 0.000000
0.425240 0.078806 0.000000
0.463410 0.078806 0.000000
0.501680 0.078806 0.000000
0.540000 0.078806 0.000000
0.578320 0.078806 0.000000
0.616590 0.078806 0.000000
0.654760 0.078806 0.000000
0.692782 0.078806 0.000000
0.730609 0.078806 0.000000
0.768195 0.078806 0.000000
0.805498 0.078806 0.000000
0.842477 0.078806 0.000000
0.879095 0.078806 0.000000
0.915318 0.078806 0.000000
0.951117 0.078806 0.000000
0.986466 0.078806 0.000000
1.000000 0.078806 0.000000
1.000000 0.078806 0.000000
1.000000 0.078806 0.000000
1.000000 0.078806 0.000000
0.010000 0.112154 0.000000
0.010000 0.112154 0.000000
0.024268 0.112154 0.000000
0.058657 0.112154 0.000000
0.093534 0.112154 0.000000
0.128883 0.112154 0.000000
0.164682 0.112154 0.000000
0.200905 0.112154 0.000000
0.237523 0.112154 0.000000
0.274502 0.112154 0.000000
0.311805 0.112154 0.000000
0.349391 0.112154 0.000000
0.387218 0.112154 0.000000
0.425240 0.112154 0.000000
0.463410 0.112154 0.000000
0.501680 0.112154 0.000000
0.540000 0.112154 0.000000
0.578320 0.112154 0.000000
0.616590 0.112154 0.000000
0.654760 0.112154 0.000000
0.692782 0.112154 0.000000
0.730609 0.112154 0.000000
0.768195 0.112154 0.000000
0.805498 0.112154 0.000000
0.842477 0.112154 0.000000
0.879095 0.112154 0.000000
0.915318 0.112154 0.000000
0.951117 0.112154 0.000000
0.986466 0.112154 0.000000
1.000000 0.112154 0.000000
1.000000 0.112154 0.000000
1.000000 0.112154 0.000000
1.000000 0.112154 0.000000
0.010000 0.145927 0.000000
0.010000 0.145927 0.000000
0.024268 0.145927 0.000000
0.058657 0.145927 0.000000
0.093534 0.145927 0.000000
0.128883 0.145927 0.000000
0.164682 0.145927 0.000000
0.200905 0.145927 0.000000
0.237523 0.145927 0.000000
0.274502 0.145927 0.000000
0.311805 0.145927 0.000000
0.349391 0.145927 0.000000
0.387218 0.145927 0.000000
0.425240 0.145927 0.000000
0.463410 0.145927 0.000000
0.501680 0.145927 0.000000
0.540000 0.145927 0.000000
0.578320 0.145927 0.000000
0.616590 0.145927 0.000000
0.654760 0.145927 0.000000
0.692782 0.145927 0.000000
0.730609 0.145927 0.000000
0.768195 0.145927 0.000000
0.805498 0.145927 0.000000
0.842477 0.145927 0.000000
0.879095 0.145927 0.000000
0.915318 0.145927 0.000000
0.951117 0.145927 0.000000
0.986466 0.145927 0.000000
1.000000 0.145927 0.000000
1.000000 0.145927 0.000000
1.000000 0.145927 0.000000
1.000000 0.145927 0.000000
0.010000 0.180099 0.000000
0.010000 0.180099 0.000000
0.024268 0.180099 0.000000
0.058657 0.180099 0.000000
0.093534 0.180099 0.000000
0.128883 0.180099 0.000000
0.164682 0.180099 0.000000
0.200905 0.180099 0.000000
0.237523 0.180099 0.000000
0.274502 0.180099 0.000000
0.311805 0.180099 0.000000
0.349391 0.180099 0.000000
0.387218 0.180099 0.000000
0.425240 0.180099 0.000000
0.463410 0.180099 0.000000
0.501680 0.180099 0.000000
0.540000 0.180099 0.000000
0.578320 0.180099 0.000000
0.616590 0.180099 0.000000
0.654760 0.180099 0.000000
0.692782 0.180099 0.000000
0.730609 0.180099 0.000000
0.768195 0.180099 0.000000
0.805498 0.180099 0.000000
0.842477 0.180099 0.000000
0.879095 0.180099 0.000000
0.915318 0.180099 0.000000
0.951117 0.180099 0.000000
0.986466 0.180099 0.000000
1.000000 0.180099 0.000000
1.000000 0.180099 0.000000
1.000000 0.180099 0.000000
1.000000 0.180099 0.000000
0.010000 0.214645 0.000000
0.010000 0.214645 0.000000
0.024268 0.214645 0.000000
0.058657 0.214645 0.000000
0.093534 0.214645 0.000000
0.128883 0.214645 0.000000
0.164682 0.214645 0.000000
0.200905 0.214645 0.000000
0.237523 0.214645 0.000000
0.274502 0.214645 0.000000
0.311805 0.214645 0.000000
0.349391 0.214645 0.000000
0.387218 0.214645 0.000000
0.425240 0.214645 0.000000
0.463410 0.214645 0.000000
0.501680 0.214645 0.000000
0.540000 0.214645 0.000000
0.578320 0.214645 0.000000
0.616590 0.214645 0.000000
0.654760 0.214645 0.000000
0.692782 0.214645 0.000000
0.730609 0.214645 0.000000
0.768195 0.214645 0.000000
0.805498 0.214645 0.000000
0.842477 0.214645 0.000000
0.879095 0.214645 0.000000
0.915318 0.214645 0.000000
0.951117 0.214645 0.000000
0.986466 0.214645 0.000000
1.000000 0.214645 0.000000
1.000000 0.214645 0.000000
1.000000 0.214645 0.000000
1.000000 0.214645 0.000000
0.010000 0.249530 0.000000
0.010000 0.249530 0.000000
0.024268 0.249530 0.000000
0.058657 0.249530 0.000000
0.093534 0.249530 0.000000
0.128883 0.249530 0.000000
0.164682 0.249530 0.000000
0.200905 0.249530 0.000000
0.237523 0.249530 0.000000
0.274502 0.249530 0.000000
0.311805 0.249530 0.000000
0.349391 0.249530 0.000000
0.387218 0.249530 0.000000
0.425240 0.249530 0.000000
0.463410 0.249530 0.000000
0.501680 0.249530 0.000000
0.540000 0.249530 0.000000
0.578320 0.249530 0.000000
0.616590 0.249530 0.000000
0.654760 0.249530 0.000000
0.692782 0.249530 0.000000
0.730609 0.249530 0.000000
0.768195 0.249530 0.000000
0.805498 0.249530 0.000000
0.842477 0.249530 0.000000
0.879095 0.249530 0.000000
0.915318 0.249530 0.000000
0.951117 0.249530 0.000000
0.986466 0.249530 0.000000
1.000000 0.249530 0.000000
1.000000 0.249530 0.000000
1.000000 0.249530 0.000000
1.000000 0.249530 0.000000
0.010000 0.284721 0.000000
0.010000 0.284721 0.000000
0.024268 0.284721 0.000000
0.058657 0.284721 0.000000
0.093534 0.284721 0.000000
0.128883 0.284721 0.000000
0.164682 0.284721 0.000000
0.200905 0.284721 0.000000
0.237523 0.284721 0.000000
0.274502 0.284721 0.000000
0.311805 0.284721 0.000000
0.349391 0.284721 0.000000
0.387218 0.284721 0.000000
0.425240 0.284721 0.000000
0.463410 0.284721 0.000000
0.501680 0.284721 0.000000
0.540000 0.284721 0.000000
0.578320 0.284721 0.000000
0.616590 0.284721 0.000000
0.654760 0.284721 0.000000
0.692782 0.284721 0.000000
0.730609 0.284721 0.000000
0.768195 0.284721 0.000000
0.805498 0.284721 0.000000
0.842477 0.284721 0.000000
0.879095 0.284721 0.000000
0.915318 0.284721 0.000000
0.951117 0.284721 0.000000
0.986466 0.284721 0.000000
1.000000 0.284721 0.000000
1.000000 0.284721 0.000000
1.000000 0.284721 0.000000
1.000000 0.284721 0.000000
0.010000 0.320180 0.000000
0.010000 0.320180 0.000000
0.024268 0.320180 0.000000
0.058657 0.320180 0.000000
0.093534 0.320180 0.000000
0.128883 0.320180 0.000000
0.164682 0.320180 0.000000
0.200905 0.320180 0.000000
0.237523 0.320180 0.000000
0.274502 0.320180 0.000000
0.311805 0.320180 0.000000
0.349391 0.320180 0.000000
0.387218 0.320180 0.000000
0.425240 0.320180 0.000000
0.463410 0.320180 0.000000
0.501680 0.320180 0.000000
0.540000 0.320180 0.000000
0.578320 0.320180 0.000000
0.616590 0.320180 0.000000
0.654760 0.320180 0.000000
0.692782 0.320180 0.000000
0.730609 0.320180 0.000000
0.768195 0.320180 0.000000
0.805498 0.320180 0.000000
0.842477 0.320180 0.000000
0.879095 0.320180 0.000000
0.915318 0.320180 0.000000
0.951117 0.320180 0.000000
0.986466 0.320180 0.000000
1.000000 0.320180 0.000000
1.000000 0.320180 0.000000
1.000000 0.320180 0.000000
1.000000 0.320180 0.000000
0.010000 0.355866 0.000000
0.010000 0.355866 0.000000
0.024268 0.355866 0.000000
0.058657 0.355866 0.000000
0.093534 0.355866 0.000000
0.128883 0.355866 0.000000
0.164682 0.355866 0.000000
0.200905 0.355866 0.000000
0.237523 0.355866 0.000000
0.274502 0.355866 0.000000
0.311805 0.355866 0.000000
0.349391 0.355866 0.000000
0.387218 0.355866 0.000000
0.425240 0.355866 0.000000
0.463410 0.355866 0.000000
0.501680 0.355866 0.000000
0.540000 0.355866 0.000000
0.578320 0.355866 0.000000
0.616590 0.355866 0.000000
0.654760 0.355866 0.000000
0.692782 0.355866 0.000000
0.730609 0.355866 0.000000
0.768195 0.355866 0.000000
0.805498 0.355866 0.000000
0.842477 0.355866 0.000000
0.879095 0.355866 0.000000
0.915318 0.355866 0.000000
0.951117 0.355866 0.000000
0.986466 0.355866 0.000000
1.000000 0.355866 0.000000
1.000000 0.355866 0.000000
1.000000 0.355866 0.000000
1.000000 0.355866 0.000000
0.010000 0.391736 0.000000
0.010000 0.391736 0.000000
0.024268 0.391736 0.000000
0.058657 0.391736 0.000000
0.093534 0.391736 0.000000
0.128883 0.391736 0.000000
0.164682 0.391736 0.000000
0.200905 0.391736 0.000000
0.237523 0.391736 0.000000
0.274502 0.391736 0.000000
0.311805 0.391736 0.000000
0.349391 0.391736 0.000000
0.387218 0.391736 0.000000
0.425240 0.391736 0.000000
0.463410 0.391736 0.000000
0.501680 0.391736 0.000000
0.540000 0.391736 0.000000
0.578320 0.391736 0.000000
0.616590 0.391736 0.000000
0.654760 0.391736 0.000000
0.692782 0.391736 0.000000
0.730609 0.391736 0.000000
0.768195 0.391736 0.000000
0.805498 0.391736 0.000000
0.842477 0.391736 0.000000
0.879095 0.391736 0.000000
0.915318 0.391736 0.000000
0.951117 0.391736 0.000000
0.986466 0.391736 0.000000
1.000000 0.391736 0.000000
1.000000 0.391736 0.000000
1.000000 0.391736 0.000000
1.000000 0.391736 0.000000
0.010000 0.427745 0.000000
0.010000 0.427745 0.000000
0.024268 0.427745 0.000000
0.058657 0.427745 0.000000
0.093534 0.427745 0.000000
0.128883 0.427745 0.000000
0.164682 0.427745 0.000000
0.200905 0.427745 0.000000
0.237523 0.427745 0.000000
0.274502 0.427745 0.000000
0.311805 0.427745 0.000000
0.349391 0.427745 0.000000
0.387218 0.427745 0.000000
0.425240 0.427745 0.000000
0.463410 0.427745 0.000000
0.501680 0.427745 0.000000
0.540000 0.427745 0.000000
0.578320 0.427745 0.000000
0.616590 0.427745 0.000000
0.654760 0.427745 0.000000
0.692782 0.427745 0.000000
0.730609 0.427745 0.000000
0.768195 0.427745 0.000000
0.805498 0.427745 0.000000
0.842477 0.427745 0.000000
0.879095 0.427745 0.000000
0.915318 0.427745 0.000000
0.951117 0.427745 0.000000
0.986466 0.427745 0.000000
1.000000 0.427745 0.000000
1.000000 0.427745 0.000000
1.000000 0.427745 0.000000
1.000000 0.427745 0.000000
0.010000 0.463849 0.000000
0.010000 0.463849 0.000000
0.024268 0.463849 0.000000
0.058657 0.463849 0.000000
0.093534 0.463849 0.000000
0.128883 0.463849 0.000000
0.164682 0.463849 0.000000
0.200905 0.463849 0.000000
0.237523 0.463849 0.000000
0.274502 0.463849 0.000000
0.311805 0.463849 0.000000
0.349391 0.463849 0.000000
0.387218 0.463849 0.000000
0.425240 0.463849 0.000000
0.463410 0.463849 0.000000
0.501680 0.463849 0.000000
0.540000 0.463849 0.000000
0.578320 0.463849 0.000000
0.616590 0.463849 0.000000
0.654760 0.463849 0.000000
0.692782 0.463849 0.000000
0.730609 0.463849 0.000000
0.768195 0.463849 0.000000
0.805498 0.463849 0.000000
0.842477 0.463849 0.000000
0.879095 0.463849 0.000000
0.915318 0.463849 0.000000
0.951117 0.463849 0.000000
0.986466 0.463849 0.000000
1.000000 0.463849 0.000000
1.000000 0.463849 0.000000
1.000000 0.463849 0.000000
1.000000 0.463849 0.000000
0.010000 0.500000 0.000000
0.010000 0.500000 0.000000
0.024268 0.500000 0.000000
0.058657 0.500000 0.000000
0.093534 0.500000 0.000000
0.128883 0.500000 0.000000
0.164682 0.500000 0.000000
0.200905 0.500000 0.000000
0.237523 0.500000 0.000000
0.274502 0.500000 0.000000
0.311805 0.500000 0.000000
0.349391 0.500000 0.000000
0.387218 0.500000 0.000000
0.425240 0.500000 0.000000
0.463410 0.500000 0.000000
0.501680 0.500000 0.000000
0.540000 0.500000 0.000000
0.578320 0.500000 0.000000
0.616590 0.500000 0.000000
0.654760 0.500000 0.000000
0.692782 0.500000 0.000000
0.730609 0.500000 0.000000
0.768195 0.500000 0.000000
0.805498 0.500000 0.000000
0.842477 0.500000 0.000000
0.879095 0.500000 0.000000
0.915318 0.500000 0.000000
0.951117 0.500000 0.000000
0.986466 0.500000 0.000000
1.000000 0.500000 0.000000
1.000000 0.500000 0.000000
1.000000 0.500000 0.000000
1.000000 0.500000 0.000000
0.010000 0.536151 0.000000
0.010000 0.536151 0.000000
0.024268 0.536151 0.000000
0.058657 0.536151 0.000000
0.093534 0.536151 0.000000
0.128883 0.536151 0.000000
0.164682 0.536151 0.000000
0.200905 0.536151 0.000000
0.237523 0.536151 0.000000
0.274502 0.536151 0.000000
0.311805 0.536151 0.000000
0.349391 0.536151 0.000000
0.387218 0.536151 0.000000
0.425240 0.536151 0.000000
0.463410 0.536151 0.000000
0.501680 0.536151 0.000000
0.540000 0.536151 0.000000
0.578320 0.536151 0.000000
0.616590 0.536151 0.000000
0.654760 0.536151 0.000000
0.692782 0.536151 0.000000
0.730609 0.536151 0.000000
0.768195 0.536151 0.000000
0.805498 0.536151 0.000000
0.842477 0.536151 0.000000
0.879095 0.536151 0.000000
0.915318 0.536151 0.000000
0.951117 0.536151 0.000000
0.986466 0.536151 0.000000
1.000000 0.536151 0.000000
1.000000 0.536151 0.000000
1.000000 0.536151 0.000000
1.000000 0.536151 0.000000
0.010000 0.572255 0.000000
0.010000 0.572255 0.000000
0.024268 0.572255 0.000000
0.058657 0.572255 0.000000
0.093534 0.572255 0.000000
0.128883 0.572255 0.000000
0.164682 0.572255 0.000000
0.200905 0.572255 0.000000
0.237523 0.572255 0.000000
0.274502 0.572255 0.000000
0.311805 0.572255 0.000000
0.349391 0.572255 0.000000
0.387218 0.572255 0.000000
0.425240 0.572255 0.000000
0.463410 0.572255 0.000000
0.501680 0.572255 0.000000
0.540000 0.572255 0.000000
0.578320 0.572255 0.000000
0.616590 0.572255 0.000000
0.654760 0.572255 0.000000
0.692782 0.572255 0.000000
0.730609 0.572255 0.000000
0.768195 0.572255 0.000000
0.805498 0.572255 0.000000
0.842477 0.572255 0.000000
0.879095 0.572255 0.000000
0.915318 0.572255 0.000000
0.951117 0.572255 0.000000
0.986466 0.572255 0.000000
1.000000 0.572255 0.000000
1.000000 0.572255 0.000000
1.000000 0.572255 0.000000
1.000000 0.572255 0.000000
0.010000 0.608264 0.000000
0.010000 0.608264 0.000000
0.024268 0.608264 0.000000
0.058657 0.608264 0.000000
0.093534 0.608264 0.000000
0.128883 0.608264 0.000000
0.164682 0.608264 0.000000
0.200905 0.608264 0.000000
0.237523 0.608264 0.000000
0.274502 0.608264 0.000000
0.311805 0.608264 0.000000
0.349391 0.608264 0.000000
0.387218 0.608264 0.000000
0.425240 0.608264 0.000000
0.463410 0.608264 0.000000
0.501680 0.608264 0.000000
0.540000 0.608264 0.000000
0.578320 0.608264 0.000000
0.616590 0.608264 0.000000
0.654760 0.608264 0.000000
0.692782 0.608264 0.000000
0.730609 0.608264 0.000000
0.768195 0.608264 0.000000
0.805498 0.608264 0.000000
0.842477 0.608264 0.000000
0.879095 0.608264 0.000000
0.915318 0.608264 0.000000
0.951117 0.608264 0.000000
0.986466 0.608264 0.000000
1.000000 0.608264 0.000000
1.000000 0.608264 0.000000
1.000000 0.608264 0.000000
1.000000 0.608264 0.000000
0.010000 0.644134 0.000000
0.010000 0.644134 0.000000
0.024268 0.644134 0.000000
0.058657 0.644134 0.000000
0.093534 0.644134 0.000000
0.128883 0.644134 0.000000
0.164682 0.644134 0.000000
0.200905 0.644134 0.000000
0.237523 0.644134 0.000000
0.274502 0.644134 0.000000
0.311805 0.644134 0.000000
0.349391 0.644134 0.000000
0.387218 0.644134 0.000000
0.425240 0.644134 0.000000
0.463410 0.644134 0.000000
0.501680 0.644134 0.000000
0.540000 0.644134 0.000000
0.578320 0.644134 0.000000
0.616590 0.644134 0.000000
0.654760 0.644134 0.000000
0.692782 0.644134 0.000000
0.730609 0.644134 0.000000
0.768195 0.644134 0.000000
0.805498 0.644134 0.000000
0.842477 0.644134 0.000000
0.879095 0.644134 0.000000
0.915318 0.644134 0.000000
0.951117 0.644134 0.000000
0.986466 0.644134 0.000000
1.000000 0.644134 0.000000
1.000000 0.644134 0.000000
1.000000 0.644134 0.000000
1.000000 0.644134 0.000000
0.010000 0.679820 0.000000
0.010000 0.679820 0.000000
0.024268 0.679820 0.000000
0.058657 0.679820 0.000000
0.093534 0.679820 0.000000
0.128883 0.679820 0.000000
0.164682 0.679820 0.000000
0.200905 0.679820 0.000000
0.237523 0.679820 0.000000
0.274502 0.679820 0.000000
0.311805 0.679820 0.000000
0.349391 0.679820 0.000000
0.387218 0.679820 0.000000
0.425240 0.679820 0.000000
0.463410 0.679820 0.000000
0.501680 0.679820 0.000000
0.540000 0.679820 0.000000
0.578320 0.679820 0.000000
0.616590 0.679820 0.000000
0.654760 0.679820 0.000000
0.692782 0.679820 0.000000
0.730609 0.679820 0.000000
0.768195 0.679820 0.000000
0.805498 0.679820 0.000000
0.842477 0.679820 0.000000
0.879095 0.679820 0.000000
0.915318 0.679820 0.000000
0.951117 0.679820 0.000000
0.986466 0.679820 0.000000
1.000000 0.679820 0.000000
1.000000 0.679820 0.000000
1.000000 0.679820 0.000000
1.000000 0.679820 0.000000
0.010000 0.715279 0.000000
0.010000 0.715279 0.000000
0.024268 0.715279 0.000000
0.058657 0.715279 0.000000
0.093534 0.715279 0.000000
0.128883 0.715279 0.000000
0.164682 0.715279 0.000000
0.200905 0.715279 0.000000
0.237523 0.715279 0.000000
0.274502 0.715279 0.000000
0.311805 0.715279 0.000000
0.349391 0.715279 0.000000
0.387218 0.715279 0.000000
0.425240 0.715279 0.000000
0.463410 0.715279 0.000000
0.501680 0.715279 0.000000
0.540000 0.715279 0.000000
0.578320 0.715279 0.000000
0.616590 0.715279 0.000000
0.654760 0.715279 0.000000
0.692782 0.715279 0.000000
0.730609 0.715279 0.000000
0.768195 0.715279 0.000000
0.805498 0.715279 0.000000
0.842477 0.715279 0.000000
0.879095 0.715279 0.000000
0.915318 0.715279 0.000000
0.951117 0.715279 0.000000
0.986466 0.715279 0.000000
1.000000 0.715279 0.000000
1.000000 0.715279 0.000000
1.000000 0.715279 0.000000
1.000000 0.715279 0.000000
0.010000 0.750470 0.000000
0.010000 0.750470 0.000000
0.024268 0.750470 0.000000
0.058657 0.750470 0.000000
0.093534 0.750470 0.000000
0.128883 0.750470 0.000000
0.164682 0.750470 0.000000
0.200905 0.750470 0.000000
0.237523 0.750470 0.000000
0.274502 0.750470 0.000000
0.311805 0.750470 0.000000
0.349391 0.750470 0.000000
0.387218 0.750470 0.000000
0.425240 0.750470 0.000000
0.463410 0.750470 0.000000
0.501680 0.750470 0.000000
0.540000 0.750470 0.000000
0.578320 0.750470 0.000000
0.616590 0.750470 0.000000
0.654760 0.750470 0.000000
0.692782 0.750470 0.000000
0.730609 0.750470 0.000000
0.768195 0.750470 0.000000
0.805498 0.750470 0.000000
0.842477 0.750470 0.000000
0.879095 0.750470 0.000000
0.915318 0.750470 0.000000
0.951117 0.750470 0.000000
0.986466 0.750470 0.000000
1.000000 0.750470 0.000000
1.000000 0.750470 0.000000
1.000000 0.750470 0.000000
1.000000 0.750470 0.000000
0.010000 0.785355 0.000000
0.010000 0.785355 0.000000
0.024268 0.785355 0.000000
0.058657 0.785355 0.000000
0.093534 0.785355 0.000000
0.128883 0.785355 0.000000
0.164682 0.785355 0.000000
0.200905 0.785355 0.000000
0.237523 0.785355 0.000000
0.274502 0.785355 0.000000
0.311805 0.785355 0.000000
0.349391 0.785355 0.000000
0.387218 0.785355 0.000000
0.425240 0.785355 0.000000
0.463410 0.785355 0.000000
0.501680 0.785355 0.000000
0.540000 0.785355 0.000000
0.578320 0.785355 0.000000
0.616590 0.785355 0.000000
0.654760 0.785355 0.000000
0.692782 0.785355 0.000000
0.730609 0.785355 0.000000
0.768195 0.785355 0.000000
0.805498 0.785355 0.000000
0.842477 0.785355 0.000000
0.879095 0.785355 0.000000
0.915318 0.785355 0.000000
0.951117 0.785355 0.000000
0.986466 0.785355 0.000000
1.000000 0.785355 0.000000
1.000000 0.785355 0.000000
1.000000 0.785355 0.000000
1.000000 0.785355 0.000000
0.010000 0.819901 0.000000
0.010000 0.819901 0.000000
0.024268 0.819901 0.000000
0.058657 0.819901 0.000000
0.093534 0.819901 0.000000
0.128883 0.819901 0.000000
0.164682 0.819901 0.000000
0.200905 0.819901 0.000000
0.237523 0.819901 0.000000
0.274502 0.819901 0.000000
0.311805 0.819901 0.000000
0.349391 0.819901 0.000000
0.387218 0.819901 0.000000
0.425240 0.819901 0.000000
0.463410 0.819901 0.000000
0.501680 0.819901 0.000000
0.540000 0.819901 0.000000
0.578320 0.819901 0.000000
0.616590 0.819901 0.000000
0.654760 0.819901 0.000000
0.692782 0.819901 0.000000
0.730609 0.819901 0.000000
0.768195 0.819901 0.000000
0.805498 0.819901 0.000000
0.842477 0.819901 0.000000
0.879095 0.819901 0.000000
0.915318 0.819901 0.000000
0.951117 0.819901 0.000000
0.986466 0.819901 0.000000
1.000000 0.819901 0.000000
1.000000 0.819901 0.000000
1.000000 0.819901 0.000000
1.000000 0.819901 0.000000
0.010000 0.854073 0.000000
0.010000 0.854073 0.000000
0.024268 0.854073 0.000000
0.058657 0.854073 0.000000
0.093534 0.854073 0.000000
0.128883 0.854073 0.000000
0.164682 0.854073 0.000000
0.200905 0.854073 0.000000
0.237523 0.854073 0.000000
0.274502 0.854073 0.000000
0.311805 0.854073 0.000000
0.349391 0.854073 0.000000
0.387218 0.854073 0.000000
0.425240 0.854073 0.000000
0.463410 0.854073 0.000000
0.501680 0.854073 0.000000
0.540000 0.854073 0.000000
0.578320 0.854073 0.000000
0.616590 0.854073 0.000000
0.654760 0.854073 0.000000
0.692782 0.854073 0.000000
0.730609 0.854073 0.000000
0.768195 0.854073 0.000000
0.805498 0.854073 0.000000
0.842477 0.854073 0.000000
